(G-CODE GENERATED BY FLATCAM v8.994 - www.flatcam.org - Version Date: 2020/11/7)

(Name: WB-B_Cu.gbr_iso_combined_cnc)
(Type: G-code from Geometry)
(Units: MM)

(Created on Saturday, 12 November 2022 at 18:20)

(This preprocessor is the default preprocessor used by FlatCAM.)
(It is made to work with MACH3 compatible motion controllers.)

(TOOL DIAMETER: 0.2176 mm)
(Feedrate_XY: 60.0 mm/min)
(Feedrate_Z: 60.0 mm/min)
(Feedrate rapids 1500.0 mm/min)

(Z_Cut: -0.0499 mm)
(Z_Move: 2.0 mm)
(Z Start: None mm)
(Z End: 15.0 mm)
(X,Y End: None mm)
(Steps per circle: 64)
(Preprocessor Geometry: default)

(X range:    1.3557 ...   86.6863  mm)
(Y range:    0.8836 ...   83.1704  mm)

(Spindle Speed: 0.0 RPM)
G21
G90
G94

G01 F60.00

M5
G00 Z15.0000
G00 X0.0000 Y0.0000
T1
M6    
(MSG, Change to Tool Dia = 0.2176)
M0
G00 Z15.0000

M03
G01 F60.00
G00 X7.7388 Y5.1805
G01 F60.00
G01 Z-0.0499
G01 F60.00
G01 X7.7414 Y5.1291
G01 X7.7493 Y5.0757
G01 X7.7624 Y5.0233
G01 X7.7798 Y4.9747
G01 X7.8049 Y4.9215
G01 X7.8315 Y4.8773
G01 X7.8644 Y4.8330
G01 X7.8999 Y4.7939
G01 X8.9423 Y3.7515
G01 X8.9390 Y3.6830
G01 X8.9429 Y3.6021
G01 X8.9553 Y3.5172
G01 X8.9764 Y3.4339
G01 X9.0037 Y3.3577
G01 X9.0383 Y3.2845
G01 X9.0823 Y3.2108
G01 X9.1335 Y3.1419
G01 X9.1880 Y3.0820
G01 X9.2479 Y3.0275
G01 X9.3158 Y2.9769
G01 X9.3883 Y2.9334
G01 X9.4637 Y2.8977
G01 X9.5423 Y2.8696
G01 X9.6232 Y2.8493
G01 X9.7057 Y2.8371
G01 X9.7890 Y2.8330
G01 X9.8723 Y2.8371
G01 X9.9548 Y2.8493
G01 X10.0357 Y2.8696
G01 X10.1143 Y2.8977
G01 X10.1897 Y2.9334
G01 X10.2612 Y2.9763
G01 X10.3282 Y3.0259
G01 X10.3900 Y3.0820
G01 X10.4461 Y3.1438
G01 X10.4951 Y3.2098
G01 X10.5397 Y3.2845
G01 X10.5743 Y3.3577
G01 X10.6024 Y3.4363
G01 X10.6227 Y3.5172
G01 X10.6346 Y3.5972
G01 X10.6389 Y3.6855
G01 X10.6349 Y3.7663
G01 X10.6231 Y3.8464
G01 X10.6016 Y3.9321
G01 X10.5743 Y4.0083
G01 X10.5386 Y4.0837
G01 X10.4957 Y4.1552
G01 X10.4476 Y4.2203
G01 X10.3900 Y4.2840
G01 X10.3263 Y4.3416
G01 X10.2612 Y4.3897
G01 X10.1918 Y4.4314
G01 X10.1143 Y4.4683
G01 X10.0357 Y4.4964
G01 X9.9524 Y4.5171
G01 X9.8699 Y4.5291
G01 X9.7890 Y4.5330
G01 X9.7205 Y4.5297
G01 X8.8393 Y5.4109
G01 X8.8393 Y30.2994
G01 X10.1781 Y31.6387
G01 X10.2144 Y31.6786
G01 X10.2451 Y31.7200
G01 X10.2743 Y31.7683
G01 X10.2974 Y31.8172
G01 X10.3156 Y31.8680
G01 X10.3287 Y31.9204
G01 X10.3368 Y31.9763
G01 X10.3393 Y32.0277
G01 X10.3393 Y32.8808
G01 X10.3900 Y32.9270
G01 X10.4445 Y32.9869
G01 X10.4943 Y33.0538
G01 X10.5386 Y33.1273
G01 X10.5743 Y33.2027
G01 X10.6024 Y33.2813
G01 X10.6231 Y33.3646
G01 X10.6351 Y33.4471
G01 X10.6390 Y33.5280
G01 X10.6357 Y33.5965
G01 X12.8978 Y35.8584
G01 X12.9323 Y35.8966
G01 X12.9645 Y35.9400
G01 X12.9923 Y35.9863
G01 X13.0154 Y36.0351
G01 X13.0335 Y36.0859
G01 X13.0467 Y36.1383
G01 X13.0546 Y36.1917
G01 X13.0572 Y36.2444
G01 X13.0573 Y59.1550
G01 X13.0545 Y59.2102
G01 X13.0467 Y59.2623
G01 X13.0342 Y59.3124
G01 X13.0144 Y59.3678
G01 X12.9923 Y59.4144
G01 X12.9645 Y59.4607
G01 X12.9323 Y59.5041
G01 X12.8969 Y59.5432
G01 X10.3393 Y62.1006
G01 X10.3393 Y62.7258
G01 X10.3900 Y62.7720
G01 X10.4445 Y62.8319
G01 X10.4957 Y62.9008
G01 X10.5397 Y62.9745
G01 X10.5743 Y63.0477
G01 X10.6024 Y63.1263
G01 X10.6231 Y63.2096
G01 X10.6349 Y63.2897
G01 X10.6390 Y63.3730
G01 X10.6346 Y63.4588
G01 X10.6227 Y63.5388
G01 X10.6031 Y63.6174
G01 X10.5733 Y63.7005
G01 X10.5386 Y63.7737
G01 X10.4957 Y63.8452
G01 X10.4461 Y63.9122
G01 X10.3917 Y63.9723
G01 X10.3263 Y64.0316
G01 X10.2612 Y64.0797
G01 X10.1897 Y64.1226
G01 X10.1143 Y64.1583
G01 X10.0381 Y64.1856
G01 X9.9524 Y64.2071
G01 X9.8723 Y64.2189
G01 X9.7902 Y64.2230
G01 X9.7057 Y64.2189
G01 X9.6256 Y64.2071
G01 X9.5399 Y64.1856
G01 X9.4637 Y64.1583
G01 X9.3883 Y64.1226
G01 X9.3168 Y64.0797
G01 X9.2498 Y64.0301
G01 X9.1880 Y63.9740
G01 X9.1319 Y63.9122
G01 X9.0823 Y63.8452
G01 X9.0406 Y63.7758
G01 X9.0028 Y63.6960
G01 X8.9756 Y63.6197
G01 X8.9553 Y63.5388
G01 X8.9429 Y63.4539
G01 X8.9390 Y63.3730
G01 X8.9429 Y63.2921
G01 X8.9553 Y63.2072
G01 X8.9764 Y63.1239
G01 X9.0037 Y63.0477
G01 X9.0383 Y62.9745
G01 X9.0823 Y62.9008
G01 X9.1335 Y62.8319
G01 X9.1880 Y62.7720
G01 X9.2387 Y62.7258
G01 X9.2388 Y61.8702
G01 X9.2414 Y61.8187
G01 X9.2493 Y61.7653
G01 X9.2625 Y61.7129
G01 X9.2806 Y61.6621
G01 X9.3037 Y61.6133
G01 X9.3315 Y61.5670
G01 X9.3637 Y61.5236
G01 X9.3999 Y61.4836
G01 X11.9567 Y58.9271
G01 X11.9567 Y36.4736
G01 X9.8576 Y34.3747
G01 X9.7890 Y34.3780
G01 X9.7081 Y34.3741
G01 X9.6232 Y34.3617
G01 X9.5399 Y34.3406
G01 X9.4637 Y34.3133
G01 X9.3905 Y34.2787
G01 X9.3168 Y34.2347
G01 X9.2479 Y34.1835
G01 X9.1880 Y34.1290
G01 X9.1335 Y34.0691
G01 X9.0829 Y34.0012
G01 X9.0394 Y33.9287
G01 X9.0047 Y33.8555
G01 X8.9749 Y33.7724
G01 X8.9553 Y33.6938
G01 X8.9431 Y33.6113
G01 X8.9390 Y33.5280
G01 X8.9431 Y33.4447
G01 X8.9553 Y33.3622
G01 X8.9756 Y33.2813
G01 X9.0037 Y33.2027
G01 X9.0394 Y33.1273
G01 X9.0823 Y33.0558
G01 X9.1319 Y32.9888
G01 X9.1880 Y32.9270
G01 X9.2387 Y32.8808
G01 X9.2387 Y32.2556
G01 X7.8999 Y30.9163
G01 X7.8653 Y30.8782
G01 X7.8301 Y30.8309
G01 X7.8037 Y30.7866
G01 X7.7806 Y30.7379
G01 X7.7618 Y30.6846
G01 X7.7493 Y30.6346
G01 X7.7415 Y30.5825
G01 X7.7387 Y30.5273
G01 X7.7388 Y5.1805
G00 Z2.0000
G00 X9.7964 Y7.8132
G01 F60.00
G01 Z-0.0499
G01 F60.00
G01 X9.7816 Y7.8132
G01 X9.7032 Y7.8170
G01 X9.6886 Y7.8185
G01 X9.6037 Y7.8313
G01 X9.5132 Y7.8539
G01 X9.4323 Y7.8827
G01 X9.4187 Y7.8883
G01 X9.3412 Y7.9252
G01 X9.2674 Y7.9692
G01 X9.2552 Y7.9773
G01 X9.1921 Y8.0241
G01 X9.1808 Y8.0334
G01 X9.1172 Y8.0912
G01 X9.0594 Y8.1548
G01 X9.0501 Y8.1661
G01 X9.0033 Y8.2292
G01 X8.9971 Y8.2383
G01 X8.9530 Y8.3119
G01 X8.9495 Y8.3184
G01 X8.9393 Y8.3400
G01 X8.9393 Y6.6460
G01 X8.9495 Y6.6676
G01 X8.9530 Y6.6741
G01 X8.9971 Y6.7477
G01 X9.0033 Y6.7568
G01 X9.0501 Y6.8199
G01 X9.0570 Y6.8285
G01 X9.1172 Y6.8948
G01 X9.1808 Y6.9526
G01 X9.1921 Y6.9619
G01 X9.2582 Y7.0108
G01 X9.2674 Y7.0168
G01 X9.3412 Y7.0608
G01 X9.4187 Y7.0977
G01 X9.4323 Y7.1033
G01 X9.5132 Y7.1321
G01 X9.5965 Y7.1531
G01 X9.6109 Y7.1560
G01 X9.6922 Y7.1680
G01 X9.7032 Y7.1690
G01 X9.7890 Y7.1730
G01 X9.8821 Y7.1684
G01 X9.9743 Y7.1547
G01 X10.0648 Y7.1321
G01 X10.1457 Y7.1033
G01 X10.1593 Y7.0977
G01 X10.2368 Y7.0608
G01 X10.3137 Y7.0149
G01 X10.3228 Y7.0087
G01 X10.3859 Y6.9619
G01 X10.3945 Y6.9550
G01 X10.4581 Y6.8973
G01 X10.4633 Y6.8921
G01 X10.4805 Y6.8733
G01 X10.6387 Y6.8733
G01 X10.6387 Y8.3400
G01 X10.6285 Y8.3184
G01 X10.6250 Y8.3119
G01 X10.5809 Y8.2383
G01 X10.5747 Y8.2292
G01 X10.5279 Y8.1661
G01 X10.5210 Y8.1575
G01 X10.4608 Y8.0912
G01 X10.3972 Y8.0334
G01 X10.3859 Y8.0241
G01 X10.3228 Y7.9773
G01 X10.3137 Y7.9711
G01 X10.2368 Y7.9252
G01 X10.1593 Y7.8883
G01 X10.1457 Y7.8827
G01 X10.0648 Y7.8539
G01 X9.9815 Y7.8329
G01 X9.9671 Y7.8300
G01 X9.8821 Y7.8176
G01 X9.7964 Y7.8132
G00 Z2.0000
G00 X9.7915 Y7.9131
G01 F60.00
G01 Z-0.0499
G01 F60.00
G01 X9.8723 Y7.9171
G01 X9.9548 Y7.9293
G01 X10.0357 Y7.9496
G01 X10.1143 Y7.9777
G01 X10.1897 Y8.0134
G01 X10.2612 Y8.0563
G01 X10.3282 Y8.1059
G01 X10.3900 Y8.1620
G01 X10.4461 Y8.2238
G01 X10.4957 Y8.2908
G01 X10.5386 Y8.3623
G01 X10.5743 Y8.4377
G01 X10.6024 Y8.5163
G01 X10.6227 Y8.5972
G01 X10.6349 Y8.6797
G01 X10.6390 Y8.7630
G01 X10.6349 Y8.8463
G01 X10.6227 Y8.9288
G01 X10.6024 Y9.0097
G01 X10.5743 Y9.0883
G01 X10.5386 Y9.1637
G01 X10.4957 Y9.2352
G01 X10.4461 Y9.3022
G01 X10.3900 Y9.3640
G01 X10.3282 Y9.4201
G01 X10.2612 Y9.4697
G01 X10.1897 Y9.5126
G01 X10.1143 Y9.5483
G01 X10.0357 Y9.5764
G01 X9.9548 Y9.5967
G01 X9.8723 Y9.6089
G01 X9.7890 Y9.6130
G01 X9.7057 Y9.6089
G01 X9.6232 Y9.5967
G01 X9.5423 Y9.5764
G01 X9.4637 Y9.5483
G01 X9.3883 Y9.5126
G01 X9.3168 Y9.4697
G01 X9.2498 Y9.4201
G01 X9.1880 Y9.3640
G01 X9.1319 Y9.3022
G01 X9.0823 Y9.2352
G01 X9.0394 Y9.1637
G01 X9.0037 Y9.0883
G01 X8.9756 Y9.0097
G01 X8.9553 Y8.9288
G01 X8.9431 Y8.8463
G01 X8.9390 Y8.7630
G01 X8.9431 Y8.6797
G01 X8.9553 Y8.5972
G01 X8.9756 Y8.5163
G01 X9.0037 Y8.4377
G01 X9.0394 Y8.3623
G01 X9.0823 Y8.2908
G01 X9.1319 Y8.2238
G01 X9.1880 Y8.1620
G01 X9.2498 Y8.1059
G01 X9.3168 Y8.0563
G01 X9.3883 Y8.0134
G01 X9.4637 Y7.9777
G01 X9.5423 Y7.9496
G01 X9.6232 Y7.9293
G01 X9.7057 Y7.9171
G01 X9.7915 Y7.9131
G00 Z2.0000
G00 X8.9393 Y9.1860
G01 F60.00
G01 Z-0.0499
G01 F60.00
G01 X8.9495 Y9.2076
G01 X8.9530 Y9.2141
G01 X8.9971 Y9.2877
G01 X9.0033 Y9.2968
G01 X9.0501 Y9.3599
G01 X9.0570 Y9.3685
G01 X9.1172 Y9.4348
G01 X9.1808 Y9.4926
G01 X9.1921 Y9.5019
G01 X9.2552 Y9.5487
G01 X9.2643 Y9.5549
G01 X9.3412 Y9.6008
G01 X9.4187 Y9.6377
G01 X9.4323 Y9.6433
G01 X9.5132 Y9.6721
G01 X9.5965 Y9.6931
G01 X9.6109 Y9.6960
G01 X9.6959 Y9.7084
G01 X9.7890 Y9.7130
G01 X9.8821 Y9.7084
G01 X9.9671 Y9.6960
G01 X9.9815 Y9.6931
G01 X10.0648 Y9.6721
G01 X10.1457 Y9.6433
G01 X10.1593 Y9.6377
G01 X10.2368 Y9.6008
G01 X10.3137 Y9.5549
G01 X10.3228 Y9.5487
G01 X10.3859 Y9.5019
G01 X10.3972 Y9.4926
G01 X10.4608 Y9.4348
G01 X10.5210 Y9.3685
G01 X10.5279 Y9.3599
G01 X10.5747 Y9.2968
G01 X10.5809 Y9.2877
G01 X10.6250 Y9.2141
G01 X10.6285 Y9.2076
G01 X10.6387 Y9.1860
G01 X10.6387 Y10.8800
G01 X10.6285 Y10.8584
G01 X10.6250 Y10.8519
G01 X10.5809 Y10.7783
G01 X10.5747 Y10.7692
G01 X10.5279 Y10.7061
G01 X10.5210 Y10.6975
G01 X10.4608 Y10.6312
G01 X10.3972 Y10.5734
G01 X10.3859 Y10.5641
G01 X10.3228 Y10.5173
G01 X10.3137 Y10.5111
G01 X10.2368 Y10.4652
G01 X10.1593 Y10.4283
G01 X10.1457 Y10.4227
G01 X10.0648 Y10.3939
G01 X9.9743 Y10.3713
G01 X9.8894 Y10.3585
G01 X9.8748 Y10.3570
G01 X9.7890 Y10.3530
G01 X9.6959 Y10.3576
G01 X9.6109 Y10.3700
G01 X9.5965 Y10.3729
G01 X9.5132 Y10.3939
G01 X9.4323 Y10.4227
G01 X9.4187 Y10.4283
G01 X9.3412 Y10.4652
G01 X9.2643 Y10.5111
G01 X9.2552 Y10.5173
G01 X9.1921 Y10.5641
G01 X9.1808 Y10.5734
G01 X9.1172 Y10.6312
G01 X9.0570 Y10.6975
G01 X9.0501 Y10.7061
G01 X9.0033 Y10.7692
G01 X8.9971 Y10.7783
G01 X8.9530 Y10.8519
G01 X8.9495 Y10.8584
G01 X8.9393 Y10.8800
G01 X8.9393 Y9.1860
G00 Z2.0000
G00 X9.7915 Y10.4531
G01 F60.00
G01 Z-0.0499
G01 F60.00
G01 X9.8723 Y10.4571
G01 X9.9548 Y10.4693
G01 X10.0357 Y10.4896
G01 X10.1143 Y10.5177
G01 X10.1897 Y10.5534
G01 X10.2612 Y10.5963
G01 X10.3282 Y10.6459
G01 X10.3900 Y10.7020
G01 X10.4461 Y10.7638
G01 X10.4957 Y10.8308
G01 X10.5386 Y10.9023
G01 X10.5743 Y10.9777
G01 X10.6024 Y11.0563
G01 X10.6227 Y11.1372
G01 X10.6349 Y11.2197
G01 X10.6390 Y11.3030
G01 X10.6349 Y11.3863
G01 X10.6227 Y11.4688
G01 X10.6024 Y11.5497
G01 X10.5743 Y11.6283
G01 X10.5386 Y11.7037
G01 X10.4957 Y11.7752
G01 X10.4461 Y11.8422
G01 X10.3900 Y11.9040
G01 X10.3282 Y11.9601
G01 X10.2612 Y12.0097
G01 X10.1897 Y12.0526
G01 X10.1143 Y12.0883
G01 X10.0357 Y12.1164
G01 X9.9548 Y12.1367
G01 X9.8723 Y12.1489
G01 X9.7890 Y12.1530
G01 X9.7057 Y12.1489
G01 X9.6232 Y12.1367
G01 X9.5423 Y12.1164
G01 X9.4637 Y12.0883
G01 X9.3883 Y12.0526
G01 X9.3168 Y12.0097
G01 X9.2498 Y11.9601
G01 X9.1880 Y11.9040
G01 X9.1319 Y11.8422
G01 X9.0823 Y11.7752
G01 X9.0394 Y11.7037
G01 X9.0037 Y11.6283
G01 X8.9756 Y11.5497
G01 X8.9553 Y11.4688
G01 X8.9431 Y11.3863
G01 X8.9390 Y11.3030
G01 X8.9431 Y11.2197
G01 X8.9553 Y11.1372
G01 X8.9756 Y11.0563
G01 X9.0037 Y10.9777
G01 X9.0394 Y10.9023
G01 X9.0823 Y10.8308
G01 X9.1319 Y10.7638
G01 X9.1880 Y10.7020
G01 X9.2498 Y10.6459
G01 X9.3168 Y10.5963
G01 X9.3883 Y10.5534
G01 X9.4637 Y10.5177
G01 X9.5423 Y10.4896
G01 X9.6232 Y10.4693
G01 X9.7057 Y10.4571
G01 X9.7915 Y10.4531
G00 Z2.0000
G00 X8.9393 Y11.7260
G01 F60.00
G01 Z-0.0499
G01 F60.00
G01 X8.9495 Y11.7476
G01 X8.9530 Y11.7541
G01 X8.9971 Y11.8277
G01 X9.0033 Y11.8368
G01 X9.0501 Y11.8999
G01 X9.0570 Y11.9085
G01 X9.1172 Y11.9748
G01 X9.1808 Y12.0326
G01 X9.1921 Y12.0419
G01 X9.2552 Y12.0887
G01 X9.2643 Y12.0949
G01 X9.3412 Y12.1408
G01 X9.4187 Y12.1777
G01 X9.4323 Y12.1833
G01 X9.5132 Y12.2121
G01 X9.5965 Y12.2331
G01 X9.6109 Y12.2360
G01 X9.6959 Y12.2484
G01 X9.7890 Y12.2530
G01 X9.8821 Y12.2484
G01 X9.9671 Y12.2360
G01 X9.9815 Y12.2331
G01 X10.0648 Y12.2121
G01 X10.1457 Y12.1833
G01 X10.1593 Y12.1777
G01 X10.2368 Y12.1408
G01 X10.3137 Y12.0949
G01 X10.3228 Y12.0887
G01 X10.3859 Y12.0419
G01 X10.3972 Y12.0326
G01 X10.4608 Y11.9748
G01 X10.5210 Y11.9085
G01 X10.5279 Y11.8999
G01 X10.5747 Y11.8368
G01 X10.5809 Y11.8277
G01 X10.6250 Y11.7541
G01 X10.6285 Y11.7476
G01 X10.6387 Y11.7260
G01 X10.6387 Y13.4200
G01 X10.6285 Y13.3984
G01 X10.6250 Y13.3919
G01 X10.5809 Y13.3183
G01 X10.5747 Y13.3092
G01 X10.5279 Y13.2461
G01 X10.5210 Y13.2375
G01 X10.4608 Y13.1712
G01 X10.3972 Y13.1134
G01 X10.3859 Y13.1041
G01 X10.3228 Y13.0573
G01 X10.3137 Y13.0511
G01 X10.2368 Y13.0052
G01 X10.1593 Y12.9683
G01 X10.1457 Y12.9627
G01 X10.0648 Y12.9339
G01 X9.9743 Y12.9113
G01 X9.8894 Y12.8985
G01 X9.8748 Y12.8970
G01 X9.7890 Y12.8930
G01 X9.6959 Y12.8976
G01 X9.6109 Y12.9100
G01 X9.5965 Y12.9129
G01 X9.5132 Y12.9339
G01 X9.4323 Y12.9627
G01 X9.4187 Y12.9683
G01 X9.3412 Y13.0052
G01 X9.2643 Y13.0511
G01 X9.2552 Y13.0573
G01 X9.1921 Y13.1041
G01 X9.1808 Y13.1134
G01 X9.1172 Y13.1712
G01 X9.0570 Y13.2375
G01 X9.0501 Y13.2461
G01 X9.0033 Y13.3092
G01 X8.9971 Y13.3183
G01 X8.9530 Y13.3919
G01 X8.9495 Y13.3984
G01 X8.9393 Y13.4200
G01 X8.9393 Y11.7260
G00 Z2.0000
G00 X9.7915 Y12.9931
G01 F60.00
G01 Z-0.0499
G01 F60.00
G01 X9.8723 Y12.9971
G01 X9.9548 Y13.0093
G01 X10.0357 Y13.0296
G01 X10.1143 Y13.0577
G01 X10.1897 Y13.0934
G01 X10.2612 Y13.1363
G01 X10.3282 Y13.1859
G01 X10.3900 Y13.2420
G01 X10.4461 Y13.3038
G01 X10.4957 Y13.3708
G01 X10.5386 Y13.4423
G01 X10.5743 Y13.5177
G01 X10.6024 Y13.5963
G01 X10.6227 Y13.6772
G01 X10.6349 Y13.7597
G01 X10.6390 Y13.8430
G01 X10.6349 Y13.9263
G01 X10.6227 Y14.0088
G01 X10.6024 Y14.0897
G01 X10.5743 Y14.1683
G01 X10.5386 Y14.2437
G01 X10.4957 Y14.3152
G01 X10.4461 Y14.3822
G01 X10.3900 Y14.4440
G01 X10.3282 Y14.5001
G01 X10.2612 Y14.5497
G01 X10.1897 Y14.5926
G01 X10.1143 Y14.6283
G01 X10.0357 Y14.6564
G01 X9.9548 Y14.6767
G01 X9.8723 Y14.6889
G01 X9.7890 Y14.6930
G01 X9.7057 Y14.6889
G01 X9.6232 Y14.6767
G01 X9.5423 Y14.6564
G01 X9.4637 Y14.6283
G01 X9.3883 Y14.5926
G01 X9.3168 Y14.5497
G01 X9.2498 Y14.5001
G01 X9.1880 Y14.4440
G01 X9.1319 Y14.3822
G01 X9.0823 Y14.3152
G01 X9.0394 Y14.2437
G01 X9.0037 Y14.1683
G01 X8.9756 Y14.0897
G01 X8.9553 Y14.0088
G01 X8.9431 Y13.9263
G01 X8.9390 Y13.8430
G01 X8.9431 Y13.7597
G01 X8.9553 Y13.6772
G01 X8.9756 Y13.5963
G01 X9.0037 Y13.5177
G01 X9.0394 Y13.4423
G01 X9.0823 Y13.3708
G01 X9.1319 Y13.3038
G01 X9.1880 Y13.2420
G01 X9.2498 Y13.1859
G01 X9.3168 Y13.1363
G01 X9.3883 Y13.0934
G01 X9.4637 Y13.0577
G01 X9.5423 Y13.0296
G01 X9.6232 Y13.0093
G01 X9.7057 Y12.9971
G01 X9.7915 Y12.9931
G00 Z2.0000
G00 X8.9393 Y14.2660
G01 F60.00
G01 Z-0.0499
G01 F60.00
G01 X8.9495 Y14.2876
G01 X8.9530 Y14.2941
G01 X8.9971 Y14.3677
G01 X9.0033 Y14.3768
G01 X9.0501 Y14.4399
G01 X9.0570 Y14.4485
G01 X9.1172 Y14.5148
G01 X9.1808 Y14.5726
G01 X9.1921 Y14.5819
G01 X9.2552 Y14.6287
G01 X9.2643 Y14.6349
G01 X9.3412 Y14.6808
G01 X9.4187 Y14.7177
G01 X9.4323 Y14.7233
G01 X9.5132 Y14.7521
G01 X9.5965 Y14.7731
G01 X9.6109 Y14.7760
G01 X9.6959 Y14.7884
G01 X9.7890 Y14.7930
G01 X9.8821 Y14.7884
G01 X9.9671 Y14.7760
G01 X9.9815 Y14.7731
G01 X10.0648 Y14.7521
G01 X10.1457 Y14.7233
G01 X10.1593 Y14.7177
G01 X10.2368 Y14.6808
G01 X10.3137 Y14.6349
G01 X10.3228 Y14.6287
G01 X10.3859 Y14.5819
G01 X10.3972 Y14.5726
G01 X10.4608 Y14.5148
G01 X10.5210 Y14.4485
G01 X10.5279 Y14.4399
G01 X10.5747 Y14.3768
G01 X10.5809 Y14.3677
G01 X10.6250 Y14.2941
G01 X10.6285 Y14.2876
G01 X10.6387 Y14.2660
G01 X10.6387 Y15.9600
G01 X10.6285 Y15.9384
G01 X10.6250 Y15.9319
G01 X10.5809 Y15.8583
G01 X10.5747 Y15.8492
G01 X10.5279 Y15.7861
G01 X10.5210 Y15.7775
G01 X10.4608 Y15.7112
G01 X10.3972 Y15.6534
G01 X10.3859 Y15.6441
G01 X10.3228 Y15.5973
G01 X10.3137 Y15.5911
G01 X10.2368 Y15.5452
G01 X10.1593 Y15.5083
G01 X10.1457 Y15.5027
G01 X10.0648 Y15.4739
G01 X9.9743 Y15.4513
G01 X9.8894 Y15.4385
G01 X9.8748 Y15.4370
G01 X9.7890 Y15.4330
G01 X9.6959 Y15.4376
G01 X9.6109 Y15.4500
G01 X9.5965 Y15.4529
G01 X9.5132 Y15.4739
G01 X9.4323 Y15.5027
G01 X9.4187 Y15.5083
G01 X9.3412 Y15.5452
G01 X9.2643 Y15.5911
G01 X9.2552 Y15.5973
G01 X9.1921 Y15.6441
G01 X9.1808 Y15.6534
G01 X9.1172 Y15.7112
G01 X9.0570 Y15.7775
G01 X9.0501 Y15.7861
G01 X9.0033 Y15.8492
G01 X8.9971 Y15.8583
G01 X8.9530 Y15.9319
G01 X8.9495 Y15.9384
G01 X8.9393 Y15.9600
G01 X8.9393 Y14.2660
G00 Z2.0000
G00 X9.7915 Y15.5331
G01 F60.00
G01 Z-0.0499
G01 F60.00
G01 X9.8723 Y15.5371
G01 X9.9548 Y15.5493
G01 X10.0357 Y15.5696
G01 X10.1143 Y15.5977
G01 X10.1897 Y15.6334
G01 X10.2612 Y15.6763
G01 X10.3282 Y15.7259
G01 X10.3900 Y15.7820
G01 X10.4461 Y15.8438
G01 X10.4957 Y15.9108
G01 X10.5386 Y15.9823
G01 X10.5743 Y16.0577
G01 X10.6024 Y16.1363
G01 X10.6227 Y16.2172
G01 X10.6349 Y16.2997
G01 X10.6390 Y16.3830
G01 X10.6349 Y16.4663
G01 X10.6227 Y16.5488
G01 X10.6024 Y16.6297
G01 X10.5743 Y16.7083
G01 X10.5386 Y16.7837
G01 X10.4957 Y16.8552
G01 X10.4461 Y16.9222
G01 X10.3900 Y16.9840
G01 X10.3282 Y17.0401
G01 X10.2612 Y17.0897
G01 X10.1897 Y17.1326
G01 X10.1143 Y17.1683
G01 X10.0357 Y17.1964
G01 X9.9548 Y17.2167
G01 X9.8723 Y17.2289
G01 X9.7890 Y17.2330
G01 X9.7057 Y17.2289
G01 X9.6232 Y17.2167
G01 X9.5423 Y17.1964
G01 X9.4637 Y17.1683
G01 X9.3883 Y17.1326
G01 X9.3168 Y17.0897
G01 X9.2498 Y17.0401
G01 X9.1880 Y16.9840
G01 X9.1319 Y16.9222
G01 X9.0823 Y16.8552
G01 X9.0394 Y16.7837
G01 X9.0037 Y16.7083
G01 X8.9756 Y16.6297
G01 X8.9553 Y16.5488
G01 X8.9431 Y16.4663
G01 X8.9390 Y16.3830
G01 X8.9431 Y16.2997
G01 X8.9553 Y16.2172
G01 X8.9756 Y16.1363
G01 X9.0037 Y16.0577
G01 X9.0394 Y15.9823
G01 X9.0823 Y15.9108
G01 X9.1319 Y15.8438
G01 X9.1880 Y15.7820
G01 X9.2498 Y15.7259
G01 X9.3168 Y15.6763
G01 X9.3883 Y15.6334
G01 X9.4637 Y15.5977
G01 X9.5423 Y15.5696
G01 X9.6232 Y15.5493
G01 X9.7057 Y15.5371
G01 X9.7915 Y15.5331
G00 Z2.0000
G00 X8.9393 Y16.8060
G01 F60.00
G01 Z-0.0499
G01 F60.00
G01 X8.9495 Y16.8276
G01 X8.9530 Y16.8341
G01 X8.9971 Y16.9077
G01 X9.0033 Y16.9168
G01 X9.0501 Y16.9799
G01 X9.0570 Y16.9885
G01 X9.1172 Y17.0548
G01 X9.1808 Y17.1126
G01 X9.1921 Y17.1219
G01 X9.2552 Y17.1687
G01 X9.2643 Y17.1749
G01 X9.3412 Y17.2208
G01 X9.4187 Y17.2577
G01 X9.4323 Y17.2633
G01 X9.5132 Y17.2921
G01 X9.5965 Y17.3131
G01 X9.6109 Y17.3160
G01 X9.6959 Y17.3284
G01 X9.7890 Y17.3330
G01 X9.8821 Y17.3284
G01 X9.9671 Y17.3160
G01 X9.9815 Y17.3131
G01 X10.0648 Y17.2921
G01 X10.1457 Y17.2633
G01 X10.1593 Y17.2577
G01 X10.2368 Y17.2208
G01 X10.3137 Y17.1749
G01 X10.3228 Y17.1687
G01 X10.3859 Y17.1219
G01 X10.3972 Y17.1126
G01 X10.4608 Y17.0548
G01 X10.5210 Y16.9885
G01 X10.5279 Y16.9799
G01 X10.5747 Y16.9168
G01 X10.5809 Y16.9077
G01 X10.6250 Y16.8341
G01 X10.6285 Y16.8276
G01 X10.6387 Y16.8060
G01 X10.6387 Y18.5000
G01 X10.6285 Y18.4784
G01 X10.6250 Y18.4719
G01 X10.5809 Y18.3983
G01 X10.5747 Y18.3892
G01 X10.5279 Y18.3261
G01 X10.5210 Y18.3175
G01 X10.4608 Y18.2512
G01 X10.3972 Y18.1934
G01 X10.3859 Y18.1841
G01 X10.3228 Y18.1373
G01 X10.3137 Y18.1311
G01 X10.2368 Y18.0852
G01 X10.1593 Y18.0483
G01 X10.1457 Y18.0427
G01 X10.0648 Y18.0139
G01 X9.9743 Y17.9913
G01 X9.8894 Y17.9785
G01 X9.8748 Y17.9770
G01 X9.7890 Y17.9730
G01 X9.6959 Y17.9776
G01 X9.6109 Y17.9900
G01 X9.5965 Y17.9929
G01 X9.5132 Y18.0139
G01 X9.4323 Y18.0427
G01 X9.4187 Y18.0483
G01 X9.3412 Y18.0852
G01 X9.2643 Y18.1311
G01 X9.2552 Y18.1373
G01 X9.1921 Y18.1841
G01 X9.1808 Y18.1934
G01 X9.1172 Y18.2512
G01 X9.0570 Y18.3175
G01 X9.0501 Y18.3261
G01 X9.0033 Y18.3892
G01 X8.9971 Y18.3983
G01 X8.9530 Y18.4719
G01 X8.9495 Y18.4784
G01 X8.9393 Y18.5000
G01 X8.9393 Y16.8060
G00 Z2.0000
G00 X9.7915 Y18.0731
G01 F60.00
G01 Z-0.0499
G01 F60.00
G01 X9.8723 Y18.0771
G01 X9.9548 Y18.0893
G01 X10.0357 Y18.1096
G01 X10.1143 Y18.1377
G01 X10.1897 Y18.1734
G01 X10.2612 Y18.2163
G01 X10.3282 Y18.2659
G01 X10.3900 Y18.3220
G01 X10.4461 Y18.3838
G01 X10.4957 Y18.4508
G01 X10.5386 Y18.5223
G01 X10.5743 Y18.5977
G01 X10.6024 Y18.6763
G01 X10.6227 Y18.7572
G01 X10.6349 Y18.8397
G01 X10.6390 Y18.9230
G01 X10.6349 Y19.0063
G01 X10.6227 Y19.0888
G01 X10.6024 Y19.1697
G01 X10.5743 Y19.2483
G01 X10.5386 Y19.3237
G01 X10.4957 Y19.3952
G01 X10.4461 Y19.4622
G01 X10.3900 Y19.5240
G01 X10.3282 Y19.5801
G01 X10.2612 Y19.6297
G01 X10.1897 Y19.6726
G01 X10.1143 Y19.7083
G01 X10.0357 Y19.7364
G01 X9.9548 Y19.7567
G01 X9.8723 Y19.7689
G01 X9.7890 Y19.7730
G01 X9.7057 Y19.7689
G01 X9.6232 Y19.7567
G01 X9.5423 Y19.7364
G01 X9.4637 Y19.7083
G01 X9.3883 Y19.6726
G01 X9.3168 Y19.6297
G01 X9.2498 Y19.5801
G01 X9.1880 Y19.5240
G01 X9.1319 Y19.4622
G01 X9.0823 Y19.3952
G01 X9.0394 Y19.3237
G01 X9.0037 Y19.2483
G01 X8.9756 Y19.1697
G01 X8.9553 Y19.0888
G01 X8.9431 Y19.0063
G01 X8.9390 Y18.9230
G01 X8.9431 Y18.8397
G01 X8.9553 Y18.7572
G01 X8.9756 Y18.6763
G01 X9.0037 Y18.5977
G01 X9.0394 Y18.5223
G01 X9.0823 Y18.4508
G01 X9.1319 Y18.3838
G01 X9.1880 Y18.3220
G01 X9.2498 Y18.2659
G01 X9.3168 Y18.2163
G01 X9.3883 Y18.1734
G01 X9.4637 Y18.1377
G01 X9.5423 Y18.1096
G01 X9.6232 Y18.0893
G01 X9.7057 Y18.0771
G01 X9.7915 Y18.0731
G00 Z2.0000
G00 X8.9393 Y19.3460
G01 F60.00
G01 Z-0.0499
G01 F60.00
G01 X8.9495 Y19.3676
G01 X8.9530 Y19.3741
G01 X8.9971 Y19.4477
G01 X9.0033 Y19.4568
G01 X9.0523 Y19.5228
G01 X9.0594 Y19.5312
G01 X9.1172 Y19.5948
G01 X9.1808 Y19.6526
G01 X9.1892 Y19.6597
G01 X9.2552 Y19.7087
G01 X9.2674 Y19.7168
G01 X9.3412 Y19.7608
G01 X9.4187 Y19.7977
G01 X9.4323 Y19.8033
G01 X9.5132 Y19.8321
G01 X9.6037 Y19.8547
G01 X9.6959 Y19.8684
G01 X9.7816 Y19.8728
G01 X9.7964 Y19.8728
G01 X9.8748 Y19.8690
G01 X9.8894 Y19.8675
G01 X9.9743 Y19.8547
G01 X10.0648 Y19.8321
G01 X10.1525 Y19.8007
G01 X10.2336 Y19.7625
G01 X10.2432 Y19.7572
G01 X10.3168 Y19.7129
G01 X10.3859 Y19.6619
G01 X10.3972 Y19.6526
G01 X10.4554 Y19.5998
G01 X10.4633 Y19.5921
G01 X10.5234 Y19.5257
G01 X10.5768 Y19.4538
G01 X10.5828 Y19.4446
G01 X10.6250 Y19.3741
G01 X10.6285 Y19.3676
G01 X10.6387 Y19.3460
G01 X10.6387 Y19.6933
G01 X9.8193 Y20.5130
G01 X8.9890 Y20.5130
G01 X8.9743 Y20.5137
G01 X8.9634 Y20.5152
G01 X8.9526 Y20.5175
G01 X8.9393 Y20.5215
G01 X8.9393 Y19.3460
G00 Z2.0000
G00 X8.9390 Y22.2630
G01 F60.00
G01 Z-0.0499
G01 F60.00
G01 X8.9390 Y20.6630
G01 X8.9395 Y20.6557
G01 X8.9412 Y20.6485
G01 X8.9438 Y20.6416
G01 X8.9481 Y20.6342
G01 X8.9511 Y20.6303
G01 X8.9554 Y20.6260
G01 X8.9602 Y20.6221
G01 X8.9654 Y20.6189
G01 X8.9699 Y20.6168
G01 X8.9757 Y20.6148
G01 X8.9817 Y20.6135
G01 X8.9878 Y20.6130
G01 X9.8607 Y20.6130
G01 X10.7387 Y19.7347
G01 X10.7387 Y6.7733
G01 X10.4362 Y6.7733
G01 X10.3900 Y6.8240
G01 X10.3282 Y6.8801
G01 X10.2612 Y6.9297
G01 X10.1897 Y6.9726
G01 X10.1143 Y7.0083
G01 X10.0357 Y7.0364
G01 X9.9548 Y7.0567
G01 X9.8723 Y7.0689
G01 X9.7890 Y7.0730
G01 X9.7081 Y7.0691
G01 X9.6208 Y7.0561
G01 X9.5423 Y7.0364
G01 X9.4637 Y7.0083
G01 X9.3883 Y6.9726
G01 X9.3178 Y6.9304
G01 X9.2498 Y6.8801
G01 X9.1880 Y6.8240
G01 X9.1319 Y6.7622
G01 X9.0823 Y6.6952
G01 X9.0394 Y6.6237
G01 X9.0037 Y6.5483
G01 X8.9756 Y6.4697
G01 X8.9553 Y6.3888
G01 X8.9431 Y6.3063
G01 X8.9390 Y6.2230
G01 X8.9431 Y6.1397
G01 X8.9553 Y6.0572
G01 X8.9756 Y5.9763
G01 X9.0037 Y5.8977
G01 X9.0394 Y5.8223
G01 X9.0837 Y5.7488
G01 X9.1335 Y5.6819
G01 X9.1880 Y5.6220
G01 X9.2479 Y5.5675
G01 X9.3168 Y5.5163
G01 X9.3883 Y5.4734
G01 X9.4637 Y5.4377
G01 X9.5446 Y5.4089
G01 X9.6232 Y5.3893
G01 X9.7032 Y5.3774
G01 X9.7890 Y5.3730
G01 X9.8723 Y5.3771
G01 X9.9548 Y5.3893
G01 X10.0357 Y5.4096
G01 X10.1165 Y5.4387
G01 X10.1897 Y5.4734
G01 X10.2632 Y5.5177
G01 X10.3301 Y5.5675
G01 X10.3900 Y5.6220
G01 X10.4362 Y5.6727
G01 X11.2890 Y5.6727
G01 X11.3405 Y5.6752
G01 X11.3963 Y5.6833
G01 X11.4487 Y5.6964
G01 X11.4996 Y5.7146
G01 X11.5473 Y5.7372
G01 X11.5947 Y5.7655
G01 X11.6381 Y5.7977
G01 X11.6781 Y5.8339
G01 X11.7159 Y5.8759
G01 X11.7465 Y5.9173
G01 X11.7731 Y5.9615
G01 X11.7964 Y6.0102
G01 X11.8156 Y6.0633
G01 X11.8287 Y6.1157
G01 X11.8366 Y6.1691
G01 X11.8393 Y6.2230
G01 X11.8393 Y7.1731
G01 X16.7201 Y7.1731
G01 X20.5999 Y3.2939
G01 X20.6400 Y3.2576
G01 X20.6833 Y3.2255
G01 X20.7318 Y3.1966
G01 X20.7784 Y3.1746
G01 X20.8269 Y3.1572
G01 X20.8817 Y3.1433
G01 X20.9363 Y3.1353
G01 X20.9890 Y3.1327
G01 X21.8418 Y3.1327
G01 X21.8880 Y3.0820
G01 X21.9498 Y3.0259
G01 X22.0168 Y2.9763
G01 X22.0883 Y2.9334
G01 X22.1637 Y2.8977
G01 X22.2423 Y2.8696
G01 X22.3232 Y2.8493
G01 X22.4057 Y2.8371
G01 X22.4890 Y2.8330
G01 X22.5723 Y2.8371
G01 X22.6548 Y2.8493
G01 X22.7334 Y2.8689
G01 X22.8143 Y2.8977
G01 X22.8875 Y2.9323
G01 X22.9632 Y2.9777
G01 X23.0301 Y3.0275
G01 X23.0900 Y3.0820
G01 X23.1445 Y3.1419
G01 X23.1957 Y3.2108
G01 X23.2374 Y3.2802
G01 X23.2743 Y3.3577
G01 X23.3024 Y3.4363
G01 X23.3227 Y3.5172
G01 X23.3349 Y3.5997
G01 X23.3390 Y3.6830
G01 X23.3346 Y3.7688
G01 X23.3227 Y3.8488
G01 X23.3031 Y3.9274
G01 X23.2752 Y4.0060
G01 X23.2386 Y4.0837
G01 X23.1957 Y4.1552
G01 X23.1461 Y4.2222
G01 X23.0883 Y4.2857
G01 X23.0282 Y4.3401
G01 X22.9612 Y4.3897
G01 X22.8897 Y4.4326
G01 X22.8143 Y4.4683
G01 X22.7357 Y4.4964
G01 X22.6548 Y4.5167
G01 X22.5723 Y4.5289
G01 X22.4878 Y4.5330
G01 X22.4057 Y4.5289
G01 X22.3232 Y4.5167
G01 X22.2423 Y4.4964
G01 X22.1615 Y4.4673
G01 X22.0883 Y4.4326
G01 X22.0148 Y4.3883
G01 X21.9479 Y4.3385
G01 X21.8880 Y4.2840
G01 X21.8418 Y4.2333
G01 X21.2169 Y4.2333
G01 X17.3371 Y8.1125
G01 X17.2971 Y8.1488
G01 X17.2557 Y8.1795
G01 X17.2052 Y8.2098
G01 X17.1562 Y8.2327
G01 X17.1077 Y8.2500
G01 X17.0577 Y8.2625
G01 X17.0019 Y8.2710
G01 X16.9480 Y8.2737
G01 X11.8393 Y8.2737
G01 X11.8393 Y19.9626
G01 X11.8366 Y20.0165
G01 X11.8287 Y20.0699
G01 X11.8148 Y20.1247
G01 X11.7974 Y20.1731
G01 X11.7754 Y20.2197
G01 X11.7466 Y20.2682
G01 X11.7127 Y20.3135
G01 X11.6781 Y20.3516
G01 X10.6390 Y21.3910
G01 X10.6390 Y22.2642
G01 X10.6385 Y22.2703
G01 X10.6372 Y22.2763
G01 X10.6356 Y22.2810
G01 X10.6331 Y22.2866
G01 X10.6299 Y22.2918
G01 X10.6269 Y22.2957
G01 X10.6235 Y22.2992
G01 X10.6188 Y22.3032
G01 X10.6115 Y22.3077
G01 X10.6047 Y22.3105
G01 X10.5963 Y22.3125
G01 X10.5890 Y22.3130
G01 X8.9878 Y22.3130
G01 X8.9792 Y22.3120
G01 X8.9699 Y22.3092
G01 X8.9612 Y22.3046
G01 X8.9536 Y22.2984
G01 X8.9474 Y22.2908
G01 X8.9428 Y22.2821
G01 X8.9400 Y22.2728
G01 X8.9390 Y22.2630
G00 Z2.0000
G00 X8.9393 Y22.4045
G01 F60.00
G01 Z-0.0499
G01 F60.00
G01 X8.9393 Y30.2580
G01 X10.2514 Y31.5706
G01 X10.2917 Y31.6152
G01 X10.3254 Y31.6604
G01 X10.3336 Y31.6727
G01 X10.3625 Y31.7212
G01 X10.3898 Y31.7789
G01 X10.4113 Y31.8390
G01 X10.4268 Y31.9009
G01 X10.4352 Y31.9567
G01 X10.4364 Y31.9677
G01 X10.4393 Y32.0277
G01 X10.4393 Y32.8365
G01 X10.4581 Y32.8537
G01 X10.4633 Y32.8589
G01 X10.5210 Y32.9225
G01 X10.5279 Y32.9311
G01 X10.5768 Y32.9972
G01 X10.5828 Y33.0064
G01 X10.6268 Y33.0802
G01 X10.6667 Y33.1645
G01 X10.6981 Y33.2522
G01 X10.7191 Y33.3355
G01 X10.7214 Y33.3463
G01 X10.7335 Y33.4276
G01 X10.7347 Y33.4386
G01 X10.7390 Y33.5243
G01 X10.7390 Y33.5317
G01 X10.7378 Y33.5571
G01 X12.9668 Y35.7859
G01 X13.0048 Y35.8276
G01 X13.0142 Y35.8390
G01 X13.0476 Y35.8844
G01 X13.0768 Y35.9327
G01 X13.0838 Y35.9458
G01 X13.1048 Y35.9901
G01 X13.1104 Y36.0037
G01 X13.1292 Y36.0569
G01 X13.1448 Y36.1188
G01 X13.1541 Y36.1819
G01 X13.1572 Y36.2420
G01 X13.1573 Y59.1550
G01 X13.1541 Y59.2187
G01 X13.1460 Y59.2746
G01 X13.1431 Y59.2891
G01 X13.1312 Y59.3367
G01 X13.1269 Y59.3508
G01 X13.1077 Y59.4039
G01 X13.0805 Y59.4615
G01 X13.0516 Y59.5100
G01 X13.0434 Y59.5223
G01 X13.0096 Y59.5675
G01 X12.9694 Y59.6122
G01 X10.4393 Y62.1421
G01 X10.4393 Y62.6815
G01 X10.4581 Y62.6987
G01 X10.4633 Y62.7039
G01 X10.5210 Y62.7675
G01 X10.5279 Y62.7761
G01 X10.5768 Y62.8422
G01 X10.5828 Y62.8514
G01 X10.6268 Y62.9252
G01 X10.6652 Y63.0061
G01 X10.6693 Y63.0163
G01 X10.6981 Y63.0972
G01 X10.7207 Y63.1877
G01 X10.7344 Y63.2799
G01 X10.7390 Y63.3693
G01 X10.7388 Y63.3804
G01 X10.7344 Y63.4661
G01 X10.7207 Y63.5583
G01 X10.6981 Y63.6488
G01 X10.6667 Y63.7365
G01 X10.6268 Y63.8208
G01 X10.5789 Y63.9008
G01 X10.5234 Y63.9757
G01 X10.4633 Y64.0421
G01 X10.4554 Y64.0498
G01 X10.3917 Y64.1074
G01 X10.3228 Y64.1587
G01 X10.3106 Y64.1668
G01 X10.2368 Y64.2108
G01 X10.1593 Y64.2477
G01 X10.1457 Y64.2533
G01 X10.0648 Y64.2821
G01 X9.9743 Y64.3047
G01 X9.8894 Y64.3175
G01 X9.8748 Y64.3190
G01 X9.7890 Y64.3230
G01 X9.7032 Y64.3190
G01 X9.6886 Y64.3175
G01 X9.6073 Y64.3054
G01 X9.5965 Y64.3031
G01 X9.5132 Y64.2821
G01 X9.4323 Y64.2533
G01 X9.4187 Y64.2477
G01 X9.3412 Y64.2108
G01 X9.2674 Y64.1668
G01 X9.2552 Y64.1587
G01 X9.1892 Y64.1097
G01 X9.1808 Y64.1026
G01 X9.1172 Y64.0448
G01 X9.0594 Y63.9812
G01 X9.0523 Y63.9728
G01 X9.0033 Y63.9068
G01 X8.9971 Y63.8977
G01 X8.9530 Y63.8241
G01 X8.9495 Y63.8176
G01 X8.9393 Y63.7960
G01 X8.9393 Y64.1434
G01 X9.7599 Y64.9642
G01 X9.7853 Y64.9630
G01 X9.7927 Y64.9630
G01 X9.8784 Y64.9673
G01 X9.8894 Y64.9685
G01 X9.9707 Y64.9806
G01 X9.9815 Y64.9829
G01 X10.0648 Y65.0039
G01 X10.1457 Y65.0327
G01 X10.1559 Y65.0368
G01 X10.2303 Y65.0719
G01 X10.2432 Y65.0788
G01 X10.3168 Y65.1231
G01 X10.3859 Y65.1741
G01 X10.3972 Y65.1834
G01 X10.4608 Y65.2412
G01 X10.5210 Y65.3075
G01 X10.5279 Y65.3161
G01 X10.5789 Y65.3852
G01 X10.6268 Y65.4652
G01 X10.6667 Y65.5495
G01 X10.6970 Y65.6337
G01 X10.7001 Y65.6443
G01 X10.7207 Y65.7277
G01 X10.7340 Y65.8162
G01 X10.7350 Y65.8272
G01 X10.7390 Y65.9093
G01 X10.7390 Y65.9167
G01 X10.7378 Y65.9420
G01 X11.7868 Y66.9907
G01 X11.8272 Y67.0351
G01 X11.8342 Y67.0438
G01 X11.8634 Y67.0831
G01 X11.8716 Y67.0955
G01 X11.9005 Y67.1440
G01 X11.9277 Y67.2016
G01 X11.9469 Y67.2547
G01 X11.9512 Y67.2688
G01 X11.9648 Y67.3236
G01 X11.9741 Y67.3868
G01 X11.9773 Y67.4505
G01 X11.9773 Y79.6156
G01 X11.9741 Y79.6792
G01 X11.9648 Y79.7424
G01 X11.9512 Y79.7972
G01 X11.9469 Y79.8113
G01 X11.9277 Y79.8644
G01 X11.9005 Y79.9220
G01 X11.8716 Y79.9705
G01 X11.8634 Y79.9829
G01 X11.8342 Y80.0222
G01 X11.8272 Y80.0309
G01 X11.7868 Y80.0753
G01 X10.7390 Y81.1228
G01 X10.7390 Y81.9530
G01 X10.7386 Y81.9640
G01 X10.7374 Y81.9750
G01 X10.7345 Y81.9894
G01 X10.7314 Y82.0001
G01 X10.7261 Y82.0138
G01 X10.7195 Y82.0269
G01 X10.7137 Y82.0363
G01 X10.7050 Y82.0482
G01 X10.6976 Y82.0564
G01 X10.6870 Y82.0666
G01 X10.6754 Y82.0756
G01 X10.6661 Y82.0817
G01 X10.6564 Y82.0870
G01 X10.6430 Y82.0929
G01 X10.6290 Y82.0976
G01 X10.6183 Y82.1001
G01 X10.6037 Y82.1023
G01 X10.5927 Y82.1030
G01 X8.9816 Y82.1028
G01 X8.9743 Y82.1023
G01 X8.9634 Y82.1008
G01 X8.9526 Y82.0985
G01 X8.9455 Y82.0965
G01 X8.9350 Y82.0929
G01 X8.9249 Y82.0886
G01 X8.9183 Y82.0853
G01 X8.9088 Y82.0797
G01 X8.8996 Y82.0735
G01 X8.8910 Y82.0666
G01 X8.8829 Y82.0591
G01 X8.8779 Y82.0537
G01 X8.8707 Y82.0453
G01 X8.8643 Y82.0363
G01 X8.8585 Y82.0269
G01 X8.8550 Y82.0204
G01 X8.8504 Y82.0104
G01 X8.8478 Y82.0035
G01 X8.8435 Y81.9894
G01 X8.8412 Y81.9786
G01 X8.8401 Y81.9714
G01 X8.8392 Y81.9604
G01 X8.8390 Y81.9530
G01 X8.8390 Y80.3530
G01 X8.8394 Y80.3420
G01 X8.8406 Y80.3310
G01 X8.8419 Y80.3237
G01 X8.8444 Y80.3130
G01 X8.8466 Y80.3059
G01 X8.8504 Y80.2956
G01 X8.8550 Y80.2856
G01 X8.8603 Y80.2759
G01 X8.8685 Y80.2636
G01 X8.8754 Y80.2550
G01 X8.8804 Y80.2496
G01 X8.8856 Y80.2444
G01 X8.8938 Y80.2370
G01 X8.9026 Y80.2304
G01 X8.9088 Y80.2263
G01 X8.9151 Y80.2225
G01 X8.9249 Y80.2174
G01 X8.9316 Y80.2144
G01 X8.9419 Y80.2106
G01 X8.9490 Y80.2084
G01 X8.9597 Y80.2059
G01 X8.9706 Y80.2041
G01 X8.9780 Y80.2034
G01 X8.9890 Y80.2030
G01 X9.8196 Y80.2030
G01 X10.6767 Y79.3461
G01 X10.6767 Y78.9490
G01 X10.6681 Y78.9731
G01 X10.6652 Y78.9799
G01 X10.6301 Y79.0543
G01 X10.6250 Y79.0641
G01 X10.5789 Y79.1408
G01 X10.5279 Y79.2099
G01 X10.5210 Y79.2185
G01 X10.4608 Y79.2848
G01 X10.3917 Y79.3474
G01 X10.3168 Y79.4029
G01 X10.2401 Y79.4490
G01 X10.2303 Y79.4541
G01 X10.1525 Y79.4907
G01 X10.0718 Y79.5198
G01 X10.0577 Y79.5241
G01 X9.9815 Y79.5431
G01 X9.9671 Y79.5460
G01 X9.8821 Y79.5584
G01 X9.7890 Y79.5630
G01 X9.6959 Y79.5584
G01 X9.6073 Y79.5454
G01 X9.5965 Y79.5431
G01 X9.5132 Y79.5221
G01 X9.4323 Y79.4933
G01 X9.4187 Y79.4877
G01 X9.3477 Y79.4541
G01 X9.3348 Y79.4472
G01 X9.2612 Y79.4029
G01 X9.1863 Y79.3474
G01 X9.1172 Y79.2848
G01 X9.0546 Y79.2157
G01 X8.9991 Y79.1408
G01 X8.9512 Y79.0608
G01 X8.9113 Y78.9765
G01 X8.8822 Y78.8958
G01 X8.8779 Y78.8817
G01 X8.8589 Y78.8055
G01 X8.8560 Y78.7911
G01 X8.8436 Y78.7061
G01 X8.8392 Y78.6204
G01 X8.8390 Y78.6093
G01 X8.8436 Y78.5199
G01 X8.8573 Y78.4277
G01 X8.8799 Y78.3372
G01 X8.9087 Y78.2563
G01 X8.9143 Y78.2427
G01 X8.9479 Y78.1717
G01 X8.9548 Y78.1588
G01 X8.9991 Y78.0852
G01 X9.0546 Y78.0103
G01 X9.1172 Y77.9412
G01 X9.1863 Y77.8786
G01 X9.2612 Y77.8231
G01 X9.3348 Y77.7788
G01 X9.3477 Y77.7719
G01 X9.4187 Y77.7383
G01 X9.4323 Y77.7327
G01 X9.5132 Y77.7039
G01 X9.5965 Y77.6829
G01 X9.6073 Y77.6806
G01 X9.6959 Y77.6676
G01 X9.7890 Y77.6630
G01 X9.8821 Y77.6676
G01 X9.9671 Y77.6800
G01 X9.9815 Y77.6829
G01 X10.0577 Y77.7019
G01 X10.0718 Y77.7062
G01 X10.1525 Y77.7353
G01 X10.2303 Y77.7719
G01 X10.2401 Y77.7770
G01 X10.3168 Y77.8231
G01 X10.3917 Y77.8786
G01 X10.4608 Y77.9412
G01 X10.5210 Y78.0075
G01 X10.5279 Y78.0161
G01 X10.5789 Y78.0852
G01 X10.6250 Y78.1619
G01 X10.6301 Y78.1717
G01 X10.6652 Y78.2461
G01 X10.6681 Y78.2529
G01 X10.6767 Y78.2770
G01 X10.6767 Y76.4090
G01 X10.6681 Y76.4331
G01 X10.6652 Y76.4399
G01 X10.6301 Y76.5143
G01 X10.6250 Y76.5241
G01 X10.5789 Y76.6008
G01 X10.5279 Y76.6699
G01 X10.5210 Y76.6785
G01 X10.4608 Y76.7448
G01 X10.3917 Y76.8074
G01 X10.3168 Y76.8629
G01 X10.2401 Y76.9090
G01 X10.2303 Y76.9141
G01 X10.1525 Y76.9507
G01 X10.0718 Y76.9798
G01 X10.0577 Y76.9841
G01 X9.9815 Y77.0031
G01 X9.9671 Y77.0060
G01 X9.8821 Y77.0184
G01 X9.7890 Y77.0230
G01 X9.6959 Y77.0184
G01 X9.6073 Y77.0054
G01 X9.5965 Y77.0031
G01 X9.5132 Y76.9821
G01 X9.4323 Y76.9533
G01 X9.4187 Y76.9477
G01 X9.3477 Y76.9141
G01 X9.3348 Y76.9072
G01 X9.2612 Y76.8629
G01 X9.1863 Y76.8074
G01 X9.1172 Y76.7448
G01 X9.0546 Y76.6757
G01 X8.9991 Y76.6008
G01 X8.9512 Y76.5208
G01 X8.9113 Y76.4365
G01 X8.8822 Y76.3558
G01 X8.8779 Y76.3417
G01 X8.8589 Y76.2655
G01 X8.8560 Y76.2511
G01 X8.8436 Y76.1661
G01 X8.8390 Y76.0730
G01 X8.8436 Y75.9799
G01 X8.8560 Y75.8949
G01 X8.8589 Y75.8805
G01 X8.8779 Y75.8043
G01 X8.8822 Y75.7902
G01 X8.9113 Y75.7095
G01 X8.9512 Y75.6252
G01 X8.9991 Y75.5452
G01 X9.0546 Y75.4703
G01 X9.1172 Y75.4012
G01 X9.1863 Y75.3386
G01 X9.2612 Y75.2831
G01 X9.3348 Y75.2388
G01 X9.3477 Y75.2319
G01 X9.4187 Y75.1983
G01 X9.4323 Y75.1927
G01 X9.5132 Y75.1639
G01 X9.5965 Y75.1429
G01 X9.6073 Y75.1406
G01 X9.6959 Y75.1276
G01 X9.7890 Y75.1230
G01 X9.8821 Y75.1276
G01 X9.9671 Y75.1400
G01 X9.9815 Y75.1429
G01 X10.0577 Y75.1619
G01 X10.0718 Y75.1662
G01 X10.1525 Y75.1953
G01 X10.2303 Y75.2319
G01 X10.2401 Y75.2370
G01 X10.3168 Y75.2831
G01 X10.3917 Y75.3386
G01 X10.4608 Y75.4012
G01 X10.5210 Y75.4675
G01 X10.5279 Y75.4761
G01 X10.5789 Y75.5452
G01 X10.6250 Y75.6219
G01 X10.6301 Y75.6317
G01 X10.6652 Y75.7061
G01 X10.6681 Y75.7129
G01 X10.6767 Y75.7370
G01 X10.6767 Y73.8690
G01 X10.6681 Y73.8931
G01 X10.6652 Y73.8999
G01 X10.6285 Y73.9776
G01 X10.6232 Y73.9872
G01 X10.5828 Y74.0546
G01 X10.5768 Y74.0638
G01 X10.5234 Y74.1357
G01 X10.4658 Y74.1994
G01 X10.4554 Y74.2098
G01 X10.3972 Y74.2626
G01 X10.3888 Y74.2697
G01 X10.3168 Y74.3229
G01 X10.2432 Y74.3672
G01 X10.2303 Y74.3741
G01 X10.1525 Y74.4107
G01 X10.0648 Y74.4421
G01 X9.9815 Y74.4631
G01 X9.9671 Y74.4660
G01 X9.8894 Y74.4775
G01 X9.8784 Y74.4787
G01 X9.7890 Y74.4830
G01 X9.7032 Y74.4790
G01 X9.6886 Y74.4775
G01 X9.6037 Y74.4647
G01 X9.5203 Y74.4441
G01 X9.5062 Y74.4398
G01 X9.4289 Y74.4121
G01 X9.4187 Y74.4077
G01 X9.3412 Y74.3708
G01 X9.2674 Y74.3268
G01 X9.2582 Y74.3208
G01 X9.1921 Y74.2719
G01 X9.1835 Y74.2650
G01 X9.1199 Y74.2073
G01 X9.1147 Y74.2021
G01 X9.0975 Y74.1833
G01 X8.2890 Y74.1833
G01 X8.2253 Y74.1801
G01 X8.1694 Y74.1720
G01 X8.1550 Y74.1691
G01 X8.1002 Y74.1553
G01 X8.0470 Y74.1364
G01 X8.0334 Y74.1308
G01 X7.9825 Y74.1065
G01 X7.9277 Y74.0737
G01 X7.8765 Y74.0357
G01 X7.8292 Y73.9928
G01 X5.8472 Y72.0108
G01 X5.8092 Y71.9691
G01 X5.8020 Y71.9606
G01 X5.7663 Y71.9123
G01 X5.7372 Y71.8639
G01 X5.7302 Y71.8509
G01 X5.7062 Y71.7998
G01 X5.6871 Y71.7467
G01 X5.6828 Y71.7327
G01 X5.6692 Y71.6779
G01 X5.6603 Y71.6184
G01 X5.6593 Y71.6074
G01 X5.6567 Y71.5510
G01 X5.6567 Y70.7781
G01 X4.5560 Y69.6774
G01 X4.5560 Y71.3287
G01 X4.5549 Y71.3434
G01 X4.5524 Y71.3579
G01 X4.5484 Y71.3721
G01 X4.5431 Y71.3858
G01 X4.5365 Y71.3989
G01 X4.5327 Y71.4052
G01 X4.5265 Y71.4144
G01 X4.5171 Y71.4257
G01 X4.5067 Y71.4361
G01 X4.4954 Y71.4455
G01 X4.4862 Y71.4517
G01 X4.4734 Y71.4590
G01 X4.4600 Y71.4649
G01 X4.4460 Y71.4696
G01 X4.4316 Y71.4728
G01 X4.4170 Y71.4746
G01 X4.4060 Y71.4750
G01 X2.7023 Y71.4750
G01 X2.6913 Y71.4743
G01 X2.6767 Y71.4721
G01 X2.6660 Y71.4696
G01 X2.6555 Y71.4662
G01 X2.6452 Y71.4621
G01 X2.6321 Y71.4555
G01 X2.6227 Y71.4497
G01 X2.6137 Y71.4433
G01 X2.6026 Y71.4336
G01 X2.5949 Y71.4257
G01 X2.5900 Y71.4202
G01 X2.5813 Y71.4083
G01 X2.5773 Y71.4021
G01 X2.5720 Y71.3924
G01 X2.5689 Y71.3858
G01 X2.5648 Y71.3755
G01 X2.5625 Y71.3685
G01 X2.5596 Y71.3579
G01 X2.5582 Y71.3506
G01 X2.5567 Y71.3397
G01 X2.5560 Y71.3250
G01 X2.5560 Y69.6213
G01 X2.5567 Y69.6103
G01 X2.5589 Y69.5957
G01 X2.5625 Y69.5815
G01 X2.5661 Y69.5710
G01 X2.5720 Y69.5576
G01 X2.5773 Y69.5479
G01 X2.5855 Y69.5356
G01 X2.5924 Y69.5270
G01 X2.5974 Y69.5216
G01 X2.6053 Y69.5139
G01 X2.6166 Y69.5045
G01 X2.6289 Y69.4963
G01 X2.6419 Y69.4894
G01 X2.6555 Y69.4838
G01 X2.6696 Y69.4795
G01 X2.6840 Y69.4766
G01 X2.6950 Y69.4754
G01 X2.7023 Y69.4750
G01 X4.3535 Y69.4750
G01 X3.7858 Y68.9073
G01 X3.7583 Y68.9142
G01 X3.7475 Y68.9165
G01 X3.6577 Y68.9298
G01 X3.6467 Y68.9307
G01 X3.5634 Y68.9348
G01 X3.5523 Y68.9350
G01 X3.4580 Y68.9302
G01 X3.3682 Y68.9170
G01 X3.3537 Y68.9142
G01 X3.2728 Y68.8939
G01 X3.2622 Y68.8908
G01 X3.1733 Y68.8589
G01 X3.0912 Y68.8202
G01 X3.0782 Y68.8133
G01 X3.0004 Y68.7665
G01 X2.9216 Y68.7080
G01 X2.8542 Y68.6472
G01 X2.8438 Y68.6368
G01 X2.7830 Y68.5694
G01 X2.7288 Y68.4966
G01 X2.7206 Y68.4844
G01 X2.6741 Y68.4064
G01 X2.6321 Y68.3177
G01 X2.6014 Y68.2323
G01 X2.5971 Y68.2182
G01 X2.5752 Y68.1301
G01 X2.5608 Y68.0330
G01 X2.5560 Y67.9350
G01 X2.5603 Y67.8443
G01 X2.5617 Y67.8297
G01 X2.5752 Y67.7399
G01 X2.5971 Y67.6518
G01 X2.6014 Y67.6377
G01 X2.6321 Y67.5523
G01 X2.6708 Y67.4702
G01 X2.6777 Y67.4572
G01 X2.7245 Y67.3794
G01 X2.7785 Y67.3064
G01 X2.7878 Y67.2950
G01 X2.8489 Y67.2279
G01 X2.9160 Y67.1668
G01 X2.9274 Y67.1575
G01 X2.9944 Y67.1078
G01 X3.0066 Y67.0996
G01 X3.0846 Y67.0531
G01 X3.1733 Y67.0111
G01 X3.2657 Y66.9781
G01 X3.3537 Y66.9558
G01 X3.3682 Y66.9530
G01 X3.4507 Y66.9407
G01 X3.4653 Y66.9393
G01 X3.5560 Y66.9350
G01 X3.6467 Y66.9393
G01 X3.6613 Y66.9407
G01 X3.7511 Y66.9542
G01 X3.8463 Y66.9781
G01 X3.9387 Y67.0111
G01 X4.0208 Y67.0498
G01 X4.0338 Y67.0567
G01 X4.1054 Y67.0996
G01 X4.1176 Y67.1078
G01 X4.1904 Y67.1620
G01 X4.2578 Y67.2228
G01 X4.2682 Y67.2332
G01 X4.3290 Y67.3006
G01 X4.3832 Y67.3734
G01 X4.3914 Y67.3856
G01 X4.4343 Y67.4572
G01 X4.4412 Y67.4702
G01 X4.4799 Y67.5523
G01 X4.5129 Y67.6447
G01 X4.5368 Y67.7399
G01 X4.5508 Y67.8331
G01 X6.7668 Y70.0489
G01 X6.8096 Y70.0962
G01 X6.8477 Y70.1474
G01 X6.8768 Y70.1957
G01 X6.8838 Y70.2088
G01 X6.9078 Y70.2599
G01 X6.9269 Y70.3129
G01 X6.9312 Y70.3270
G01 X6.9447 Y70.3818
G01 X6.9541 Y70.4450
G01 X6.9573 Y70.5087
G01 X6.9573 Y71.2817
G01 X8.5583 Y72.8827
G01 X9.0975 Y72.8827
G01 X9.1147 Y72.8639
G01 X9.1199 Y72.8587
G01 X9.1835 Y72.8010
G01 X9.1921 Y72.7941
G01 X9.2552 Y72.7473
G01 X9.2643 Y72.7411
G01 X9.3348 Y72.6988
G01 X9.3477 Y72.6919
G01 X9.4255 Y72.6553
G01 X9.5097 Y72.6250
G01 X9.5203 Y72.6219
G01 X9.6037 Y72.6013
G01 X9.6886 Y72.5885
G01 X9.7032 Y72.5870
G01 X9.7816 Y72.5832
G01 X9.7964 Y72.5832
G01 X9.8821 Y72.5876
G01 X9.9671 Y72.6000
G01 X9.9815 Y72.6029
G01 X10.0648 Y72.6239
G01 X10.1457 Y72.6527
G01 X10.1593 Y72.6583
G01 X10.2368 Y72.6952
G01 X10.3106 Y72.7392
G01 X10.3228 Y72.7473
G01 X10.3917 Y72.7986
G01 X10.4554 Y72.8562
G01 X10.4658 Y72.8666
G01 X10.5234 Y72.9303
G01 X10.5768 Y73.0022
G01 X10.5828 Y73.0114
G01 X10.6232 Y73.0788
G01 X10.6285 Y73.0884
G01 X10.6652 Y73.1661
G01 X10.6681 Y73.1729
G01 X10.6767 Y73.1970
G01 X10.6767 Y71.3290
G01 X10.6681 Y71.3531
G01 X10.6652 Y71.3599
G01 X10.6285 Y71.4376
G01 X10.6232 Y71.4472
G01 X10.5828 Y71.5146
G01 X10.5768 Y71.5238
G01 X10.5234 Y71.5957
G01 X10.4658 Y71.6594
G01 X10.4554 Y71.6698
G01 X10.3972 Y71.7226
G01 X10.3859 Y71.7319
G01 X10.3168 Y71.7829
G01 X10.2432 Y71.8272
G01 X10.2303 Y71.8341
G01 X10.1525 Y71.8707
G01 X10.0648 Y71.9021
G01 X9.9815 Y71.9231
G01 X9.9671 Y71.9260
G01 X9.8894 Y71.9375
G01 X9.8748 Y71.9390
G01 X9.7964 Y71.9428
G01 X9.7816 Y71.9428
G01 X9.6959 Y71.9384
G01 X9.6109 Y71.9260
G01 X9.5965 Y71.9231
G01 X9.5132 Y71.9021
G01 X9.4289 Y71.8721
G01 X9.4187 Y71.8677
G01 X9.3412 Y71.8308
G01 X9.2674 Y71.7868
G01 X9.2582 Y71.7808
G01 X9.1921 Y71.7319
G01 X9.1835 Y71.7250
G01 X9.1199 Y71.6673
G01 X9.1147 Y71.6621
G01 X9.0975 Y71.6433
G01 X8.2890 Y71.6433
G01 X8.2326 Y71.6407
G01 X8.2216 Y71.6397
G01 X8.1621 Y71.6308
G01 X8.1073 Y71.6172
G01 X8.0933 Y71.6129
G01 X8.0402 Y71.5938
G01 X7.9891 Y71.5698
G01 X7.9761 Y71.5628
G01 X7.9277 Y71.5337
G01 X7.8794 Y71.4980
G01 X7.8709 Y71.4908
G01 X7.8292 Y71.4528
G01 X7.7912 Y71.4111
G01 X7.7818 Y71.3997
G01 X7.7526 Y71.3603
G01 X7.7444 Y71.3480
G01 X7.7155 Y71.2995
G01 X7.6882 Y71.2418
G01 X7.6667 Y71.1818
G01 X7.6520 Y71.1235
G01 X7.6500 Y71.1126
G01 X7.6419 Y71.0567
G01 X7.6388 Y70.9967
G01 X7.6387 Y70.4799
G01 X3.5536 Y66.3950
G01 X3.4580 Y66.3902
G01 X3.3609 Y66.3758
G01 X3.2657 Y66.3519
G01 X3.1733 Y66.3189
G01 X3.0846 Y66.2769
G01 X3.0004 Y66.2265
G01 X2.9216 Y66.1680
G01 X2.8542 Y66.1072
G01 X2.8463 Y66.0995
G01 X2.7830 Y66.0294
G01 X2.7245 Y65.9506
G01 X2.6741 Y65.8664
G01 X2.6351 Y65.7844
G01 X2.6295 Y65.7708
G01 X2.5991 Y65.6853
G01 X2.5768 Y65.5973
G01 X2.5740 Y65.5828
G01 X2.5617 Y65.5003
G01 X2.5603 Y65.4857
G01 X2.5560 Y65.3950
G01 X2.5596 Y65.3181
G01 X1.5461 Y64.3043
G01 X1.5057 Y64.2599
G01 X1.4988 Y64.2512
G01 X1.4696 Y64.2119
G01 X1.4614 Y64.1996
G01 X1.4325 Y64.1511
G01 X1.4082 Y64.1002
G01 X1.4026 Y64.0865
G01 X1.3837 Y64.0333
G01 X1.3699 Y63.9786
G01 X1.3670 Y63.9641
G01 X1.3589 Y63.9083
G01 X1.3557 Y63.8446
G01 X1.3557 Y49.8004
G01 X1.3583 Y49.7441
G01 X1.3593 Y49.7330
G01 X1.3682 Y49.6736
G01 X1.3818 Y49.6188
G01 X1.3861 Y49.6047
G01 X1.4052 Y49.5516
G01 X1.4325 Y49.4939
G01 X1.4614 Y49.4454
G01 X1.4696 Y49.4331
G01 X1.4988 Y49.3938
G01 X1.5057 Y49.3851
G01 X1.5461 Y49.3407
G01 X2.5596 Y48.3269
G01 X2.5560 Y48.2500
G01 X2.5603 Y48.1593
G01 X2.5617 Y48.1447
G01 X2.5752 Y48.0549
G01 X2.5971 Y47.9668
G01 X2.6014 Y47.9527
G01 X2.6321 Y47.8673
G01 X2.6708 Y47.7852
G01 X2.6777 Y47.7722
G01 X2.7245 Y47.6944
G01 X2.7785 Y47.6214
G01 X2.7878 Y47.6100
G01 X2.8489 Y47.5429
G01 X2.9160 Y47.4818
G01 X2.9274 Y47.4725
G01 X2.9944 Y47.4228
G01 X3.0035 Y47.4165
G01 X3.0846 Y47.3681
G01 X3.1666 Y47.3291
G01 X3.1802 Y47.3235
G01 X3.2587 Y47.2954
G01 X3.2728 Y47.2911
G01 X3.3609 Y47.2692
G01 X3.4507 Y47.2557
G01 X3.4653 Y47.2543
G01 X3.5560 Y47.2500
G01 X3.6540 Y47.2548
G01 X3.7511 Y47.2692
G01 X3.8427 Y47.2920
G01 X3.8533 Y47.2954
G01 X3.9387 Y47.3261
G01 X4.0274 Y47.3681
G01 X4.1116 Y47.4185
G01 X4.1846 Y47.4725
G01 X4.1932 Y47.4794
G01 X4.2631 Y47.5429
G01 X4.3242 Y47.6100
G01 X4.3313 Y47.6185
G01 X4.3832 Y47.6884
G01 X4.3895 Y47.6975
G01 X4.4361 Y47.7754
G01 X4.4412 Y47.7852
G01 X4.4557 Y47.8159
G01 X4.4557 Y47.5296
G01 X3.6327 Y46.7064
G01 X3.5560 Y46.7100
G01 X3.4580 Y46.7052
G01 X3.3609 Y46.6908
G01 X3.2728 Y46.6689
G01 X3.2587 Y46.6646
G01 X3.1802 Y46.6365
G01 X3.1666 Y46.6309
G01 X3.0846 Y46.5919
G01 X3.0066 Y46.5454
G01 X2.9974 Y46.5394
G01 X2.9216 Y46.4830
G01 X2.8489 Y46.4171
G01 X2.7830 Y46.3444
G01 X2.7288 Y46.2716
G01 X2.7206 Y46.2594
G01 X2.6777 Y46.1878
G01 X2.6708 Y46.1748
G01 X2.6321 Y46.0927
G01 X2.6014 Y46.0073
G01 X2.5971 Y45.9932
G01 X2.5752 Y45.9051
G01 X2.5617 Y45.8153
G01 X2.5603 Y45.8007
G01 X2.5562 Y45.7174
G01 X2.5562 Y45.7026
G01 X2.5608 Y45.6120
G01 X2.5752 Y45.5149
G01 X2.5971 Y45.4268
G01 X2.6014 Y45.4127
G01 X2.6321 Y45.3273
G01 X2.6708 Y45.2452
G01 X2.6777 Y45.2322
G01 X2.7245 Y45.1544
G01 X2.7830 Y45.0756
G01 X2.8438 Y45.0082
G01 X2.8542 Y44.9978
G01 X2.9216 Y44.9370
G01 X2.9944 Y44.8828
G01 X3.0066 Y44.8746
G01 X3.0846 Y44.8281
G01 X3.1733 Y44.7861
G01 X3.2587 Y44.7554
G01 X3.2728 Y44.7511
G01 X3.3609 Y44.7292
G01 X3.4507 Y44.7157
G01 X3.4653 Y44.7143
G01 X3.5560 Y44.7100
G01 X3.6467 Y44.7143
G01 X3.6577 Y44.7152
G01 X3.7511 Y44.7292
G01 X3.8463 Y44.7531
G01 X3.9387 Y44.7861
G01 X4.0274 Y44.8281
G01 X4.1116 Y44.8785
G01 X4.1904 Y44.9370
G01 X4.2631 Y45.0029
G01 X4.3266 Y45.0728
G01 X4.3335 Y45.0814
G01 X4.3875 Y45.1544
G01 X4.4379 Y45.2386
G01 X4.4799 Y45.3273
G01 X4.5129 Y45.4197
G01 X4.5368 Y45.5149
G01 X4.5512 Y45.6120
G01 X4.5560 Y45.7100
G01 X4.5524 Y45.7869
G01 X5.5658 Y46.8005
G01 X5.6063 Y46.8450
G01 X5.6132 Y46.8536
G01 X5.6424 Y46.8930
G01 X5.6506 Y46.9053
G01 X5.6795 Y46.9538
G01 X5.7068 Y47.0115
G01 X5.7259 Y47.0646
G01 X5.7302 Y47.0787
G01 X5.7438 Y47.1335
G01 X5.7531 Y47.1966
G01 X5.7563 Y47.2603
G01 X5.7563 Y65.0012
G01 X8.5583 Y67.8027
G01 X9.0975 Y67.8027
G01 X9.1147 Y67.7839
G01 X9.1199 Y67.7787
G01 X9.1835 Y67.7210
G01 X9.1921 Y67.7141
G01 X9.2552 Y67.6673
G01 X9.2643 Y67.6611
G01 X9.3348 Y67.6188
G01 X9.3477 Y67.6119
G01 X9.4255 Y67.5753
G01 X9.5097 Y67.5450
G01 X9.5203 Y67.5419
G01 X9.6037 Y67.5213
G01 X9.6886 Y67.5085
G01 X9.7032 Y67.5070
G01 X9.7816 Y67.5032
G01 X9.7964 Y67.5032
G01 X9.8821 Y67.5076
G01 X9.9671 Y67.5200
G01 X9.9815 Y67.5229
G01 X10.0648 Y67.5439
G01 X10.1457 Y67.5727
G01 X10.1593 Y67.5783
G01 X10.2368 Y67.6152
G01 X10.3106 Y67.6592
G01 X10.3228 Y67.6673
G01 X10.3917 Y67.7186
G01 X10.4554 Y67.7762
G01 X10.4658 Y67.7866
G01 X10.5234 Y67.8503
G01 X10.5768 Y67.9222
G01 X10.5828 Y67.9314
G01 X10.6232 Y67.9988
G01 X10.6285 Y68.0084
G01 X10.6652 Y68.0861
G01 X10.6681 Y68.0929
G01 X10.6767 Y68.1170
G01 X10.6767 Y67.7199
G01 X9.8183 Y66.8617
G01 X9.7927 Y66.8630
G01 X9.7853 Y66.8630
G01 X9.6996 Y66.8587
G01 X9.6886 Y66.8575
G01 X9.6073 Y66.8454
G01 X9.5965 Y66.8431
G01 X9.5132 Y66.8221
G01 X9.4289 Y66.7921
G01 X9.4187 Y66.7877
G01 X9.3412 Y66.7508
G01 X9.2612 Y66.7029
G01 X9.1863 Y66.6474
G01 X9.1226 Y66.5898
G01 X9.1122 Y66.5794
G01 X9.0546 Y66.5157
G01 X8.9991 Y66.4408
G01 X8.9512 Y66.3608
G01 X8.9143 Y66.2833
G01 X8.9099 Y66.2731
G01 X8.8799 Y66.1888
G01 X8.8589 Y66.1055
G01 X8.8566 Y66.0947
G01 X8.8445 Y66.0134
G01 X8.8433 Y66.0024
G01 X8.8390 Y65.9167
G01 X8.8390 Y65.9093
G01 X8.8403 Y65.8838
G01 X7.8292 Y64.8725
G01 X7.7863 Y64.8252
G01 X7.7483 Y64.7740
G01 X7.7192 Y64.7256
G01 X7.7122 Y64.7126
G01 X7.6912 Y64.6683
G01 X7.6856 Y64.6546
G01 X7.6667 Y64.6014
G01 X7.6512 Y64.5395
G01 X7.6419 Y64.4764
G01 X7.6387 Y64.4127
G01 X7.6387 Y54.3086
G01 X7.6419 Y54.2449
G01 X7.6506 Y54.1854
G01 X7.6529 Y54.1746
G01 X7.6648 Y54.1270
G01 X7.6691 Y54.1129
G01 X7.6882 Y54.0598
G01 X7.7122 Y54.0087
G01 X7.7192 Y53.9957
G01 X7.7483 Y53.9474
G01 X7.7818 Y53.9019
G01 X7.7912 Y53.8905
G01 X7.8292 Y53.8488
G01 X9.1387 Y52.5390
G01 X9.1387 Y52.2580
G01 X8.9816 Y52.2578
G01 X8.9706 Y52.2569
G01 X8.9561 Y52.2544
G01 X8.9419 Y52.2504
G01 X8.9282 Y52.2451
G01 X8.9216 Y52.2420
G01 X8.9119 Y52.2367
G01 X8.9057 Y52.2327
G01 X8.8967 Y52.2263
G01 X8.8883 Y52.2191
G01 X8.8804 Y52.2114
G01 X8.8730 Y52.2032
G01 X8.8685 Y52.1974
G01 X8.8623 Y52.1882
G01 X8.8585 Y52.1819
G01 X8.8534 Y52.1721
G01 X8.8504 Y52.1654
G01 X8.8466 Y52.1551
G01 X8.8444 Y52.1480
G01 X8.8419 Y52.1373
G01 X8.8401 Y52.1264
G01 X8.8392 Y52.1154
G01 X8.8390 Y52.1080
G01 X8.8390 Y50.5043
G01 X8.8397 Y50.4933
G01 X8.8406 Y50.4860
G01 X8.8426 Y50.4751
G01 X8.8455 Y50.4645
G01 X8.8491 Y50.4540
G01 X8.8534 Y50.4439
G01 X8.8585 Y50.4341
G01 X8.8623 Y50.4278
G01 X8.8664 Y50.4216
G01 X8.8730 Y50.4128
G01 X8.8829 Y50.4019
G01 X8.8910 Y50.3944
G01 X8.8967 Y50.3897
G01 X8.9057 Y50.3833
G01 X8.9119 Y50.3793
G01 X8.9216 Y50.3740
G01 X8.9282 Y50.3709
G01 X8.9385 Y50.3668
G01 X8.9455 Y50.3645
G01 X8.9597 Y50.3609
G01 X8.9670 Y50.3596
G01 X8.9780 Y50.3584
G01 X8.9890 Y50.3580
G01 X9.8194 Y50.3580
G01 X10.6477 Y49.5297
G01 X10.6477 Y49.1720
G01 X10.6301 Y49.2093
G01 X10.6250 Y49.2191
G01 X10.5828 Y49.2896
G01 X10.5768 Y49.2988
G01 X10.5234 Y49.3707
G01 X10.4658 Y49.4344
G01 X10.4581 Y49.4423
G01 X10.3917 Y49.5024
G01 X10.3168 Y49.5579
G01 X10.2368 Y49.6058
G01 X10.1593 Y49.6427
G01 X10.1491 Y49.6471
G01 X10.0648 Y49.6771
G01 X9.9743 Y49.6997
G01 X9.8821 Y49.7134
G01 X9.7890 Y49.7180
G01 X9.6959 Y49.7134
G01 X9.6037 Y49.6997
G01 X9.5132 Y49.6771
G01 X9.4255 Y49.6457
G01 X9.3477 Y49.6091
G01 X9.3348 Y49.6022
G01 X9.2612 Y49.5579
G01 X9.1863 Y49.5024
G01 X9.1172 Y49.4398
G01 X9.0594 Y49.3762
G01 X9.0501 Y49.3649
G01 X8.9991 Y49.2958
G01 X8.9548 Y49.2222
G01 X8.9479 Y49.2093
G01 X8.9113 Y49.1315
G01 X8.8799 Y49.0438
G01 X8.8589 Y48.9605
G01 X8.8560 Y48.9461
G01 X8.8436 Y48.8611
G01 X8.8390 Y48.7680
G01 X8.8436 Y48.6749
G01 X8.8560 Y48.5899
G01 X8.8589 Y48.5755
G01 X8.8779 Y48.4993
G01 X8.8822 Y48.4852
G01 X8.9113 Y48.4045
G01 X8.9512 Y48.3202
G01 X8.9991 Y48.2402
G01 X9.0546 Y48.1653
G01 X9.1172 Y48.0962
G01 X9.1808 Y48.0384
G01 X9.1921 Y48.0291
G01 X9.2552 Y47.9823
G01 X9.2674 Y47.9742
G01 X9.3412 Y47.9302
G01 X9.4255 Y47.8903
G01 X9.5132 Y47.8589
G01 X9.6001 Y47.8370
G01 X9.6109 Y47.8350
G01 X9.6959 Y47.8226
G01 X9.7816 Y47.8182
G01 X9.7964 Y47.8182
G01 X9.8748 Y47.8220
G01 X9.8894 Y47.8235
G01 X9.9743 Y47.8363
G01 X10.0648 Y47.8589
G01 X10.1525 Y47.8903
G01 X10.2336 Y47.9285
G01 X10.2432 Y47.9338
G01 X10.3168 Y47.9781
G01 X10.3859 Y48.0291
G01 X10.3972 Y48.0384
G01 X10.4554 Y48.0912
G01 X10.4633 Y48.0989
G01 X10.5234 Y48.1653
G01 X10.5768 Y48.2372
G01 X10.5828 Y48.2464
G01 X10.6250 Y48.3169
G01 X10.6301 Y48.3267
G01 X10.6477 Y48.3640
G01 X10.6477 Y46.6320
G01 X10.6301 Y46.6693
G01 X10.6250 Y46.6791
G01 X10.5809 Y46.7527
G01 X10.5747 Y46.7618
G01 X10.5279 Y46.8249
G01 X10.5210 Y46.8335
G01 X10.4608 Y46.8998
G01 X10.3972 Y46.9576
G01 X10.3859 Y46.9669
G01 X10.3198 Y47.0158
G01 X10.3106 Y47.0218
G01 X10.2432 Y47.0622
G01 X10.2303 Y47.0691
G01 X10.1525 Y47.1057
G01 X10.0718 Y47.1348
G01 X10.0577 Y47.1391
G01 X9.9743 Y47.1597
G01 X9.8894 Y47.1725
G01 X9.8748 Y47.1740
G01 X9.7964 Y47.1778
G01 X9.7816 Y47.1778
G01 X9.6959 Y47.1734
G01 X9.6109 Y47.1610
G01 X9.5965 Y47.1581
G01 X9.5132 Y47.1371
G01 X9.4289 Y47.1071
G01 X9.4187 Y47.1027
G01 X9.3412 Y47.0658
G01 X9.2674 Y47.0218
G01 X9.2582 Y47.0158
G01 X9.1921 Y46.9669
G01 X9.1835 Y46.9600
G01 X9.1199 Y46.9023
G01 X9.1147 Y46.8971
G01 X9.0975 Y46.8783
G01 X7.6126 Y46.8781
G01 X7.5636 Y46.8757
G01 X7.5490 Y46.8742
G01 X7.4931 Y46.8658
G01 X7.4383 Y46.8522
G01 X7.4243 Y46.8479
G01 X7.3712 Y46.8288
G01 X7.3135 Y46.8015
G01 X7.2587 Y46.7687
G01 X7.2133 Y46.7352
G01 X7.2019 Y46.7258
G01 X7.1602 Y46.6878
G01 X3.0962 Y42.6238
G01 X3.0533 Y42.5765
G01 X3.0174 Y42.5283
G01 X3.0114 Y42.5190
G01 X2.9862 Y42.4769
G01 X2.9792 Y42.4639
G01 X2.9552 Y42.4128
G01 X2.9337 Y42.3528
G01 X2.9199 Y42.2980
G01 X2.9170 Y42.2836
G01 X2.9089 Y42.2277
G01 X2.9058 Y42.1677
G01 X2.9057 Y37.1850
G01 X2.7023 Y37.1850
G01 X2.6913 Y37.1843
G01 X2.6804 Y37.1828
G01 X2.6696 Y37.1805
G01 X2.6555 Y37.1762
G01 X2.6452 Y37.1721
G01 X2.6353 Y37.1673
G01 X2.6258 Y37.1617
G01 X2.6196 Y37.1576
G01 X2.6108 Y37.1510
G01 X2.6053 Y37.1461
G01 X2.5999 Y37.1411
G01 X2.5924 Y37.1330
G01 X2.5855 Y37.1244
G01 X2.5793 Y37.1152
G01 X2.5755 Y37.1089
G01 X2.5704 Y37.0991
G01 X2.5661 Y37.0890
G01 X2.5625 Y37.0785
G01 X2.5596 Y37.0679
G01 X2.5582 Y37.0606
G01 X2.5567 Y37.0497
G01 X2.5560 Y37.0350
G01 X2.5560 Y35.3313
G01 X2.5567 Y35.3203
G01 X2.5582 Y35.3094
G01 X2.5614 Y35.2950
G01 X2.5648 Y35.2845
G01 X2.5689 Y35.2742
G01 X2.5755 Y35.2611
G01 X2.5813 Y35.2517
G01 X2.5877 Y35.2427
G01 X2.5924 Y35.2370
G01 X2.5999 Y35.2289
G01 X2.6108 Y35.2190
G01 X2.6227 Y35.2103
G01 X2.6289 Y35.2063
G01 X2.6386 Y35.2010
G01 X2.6520 Y35.1951
G01 X2.6589 Y35.1926
G01 X2.6696 Y35.1895
G01 X2.6767 Y35.1879
G01 X2.6876 Y35.1861
G01 X2.7023 Y35.1850
G01 X4.4097 Y35.1850
G01 X4.4170 Y35.1854
G01 X4.4280 Y35.1866
G01 X4.4389 Y35.1886
G01 X4.4495 Y35.1915
G01 X4.4600 Y35.1951
G01 X4.4701 Y35.1994
G01 X4.4767 Y35.2027
G01 X4.4862 Y35.2083
G01 X4.4954 Y35.2145
G01 X4.5012 Y35.2190
G01 X4.5094 Y35.2264
G01 X4.5171 Y35.2343
G01 X4.5243 Y35.2427
G01 X4.5307 Y35.2517
G01 X4.5347 Y35.2579
G01 X4.5400 Y35.2676
G01 X4.5431 Y35.2742
G01 X4.5472 Y35.2845
G01 X4.5506 Y35.2950
G01 X4.5524 Y35.3021
G01 X4.5549 Y35.3166
G01 X4.5558 Y35.3276
G01 X4.5560 Y35.3350
G01 X4.5560 Y37.0350
G01 X4.5553 Y37.0497
G01 X4.5538 Y37.0606
G01 X4.5515 Y37.0714
G01 X4.5484 Y37.0821
G01 X4.5459 Y37.0890
G01 X4.5416 Y37.0991
G01 X4.5365 Y37.1089
G01 X4.5307 Y37.1183
G01 X4.5243 Y37.1273
G01 X4.5196 Y37.1330
G01 X4.5121 Y37.1411
G01 X4.5067 Y37.1461
G01 X4.4983 Y37.1533
G01 X4.4924 Y37.1576
G01 X4.4831 Y37.1637
G01 X4.4767 Y37.1673
G01 X4.4668 Y37.1721
G01 X4.4565 Y37.1762
G01 X4.4460 Y37.1796
G01 X4.4316 Y37.1828
G01 X4.4207 Y37.1843
G01 X4.4097 Y37.1850
G01 X4.2063 Y37.1850
G01 X4.2063 Y41.8947
G01 X7.8893 Y45.5777
G01 X9.0975 Y45.5777
G01 X9.1147 Y45.5589
G01 X9.1199 Y45.5537
G01 X9.1835 Y45.4960
G01 X9.1921 Y45.4891
G01 X9.2582 Y45.4402
G01 X9.2674 Y45.4342
G01 X9.3412 Y45.3902
G01 X9.4187 Y45.3533
G01 X9.4289 Y45.3489
G01 X9.5062 Y45.3212
G01 X9.5203 Y45.3169
G01 X9.6037 Y45.2963
G01 X9.6886 Y45.2835
G01 X9.7032 Y45.2820
G01 X9.7890 Y45.2780
G01 X9.8821 Y45.2826
G01 X9.9671 Y45.2950
G01 X9.9815 Y45.2979
G01 X10.0648 Y45.3189
G01 X10.1457 Y45.3477
G01 X10.1593 Y45.3533
G01 X10.2368 Y45.3902
G01 X10.3106 Y45.4342
G01 X10.3198 Y45.4402
G01 X10.3859 Y45.4891
G01 X10.3972 Y45.4984
G01 X10.4608 Y45.5562
G01 X10.5210 Y45.6225
G01 X10.5279 Y45.6311
G01 X10.5747 Y45.6942
G01 X10.5809 Y45.7033
G01 X10.6250 Y45.7769
G01 X10.6301 Y45.7867
G01 X10.6477 Y45.8240
G01 X10.6477 Y44.0920
G01 X10.6301 Y44.1293
G01 X10.6250 Y44.1391
G01 X10.5828 Y44.2096
G01 X10.5768 Y44.2188
G01 X10.5234 Y44.2907
G01 X10.4633 Y44.3571
G01 X10.4554 Y44.3648
G01 X10.3972 Y44.4176
G01 X10.3859 Y44.4269
G01 X10.3168 Y44.4779
G01 X10.2432 Y44.5222
G01 X10.2336 Y44.5275
G01 X10.1525 Y44.5657
G01 X10.0648 Y44.5971
G01 X9.9743 Y44.6197
G01 X9.8894 Y44.6325
G01 X9.8748 Y44.6340
G01 X9.7964 Y44.6378
G01 X9.7816 Y44.6378
G01 X9.6959 Y44.6334
G01 X9.6109 Y44.6210
G01 X9.6001 Y44.6190
G01 X9.5132 Y44.5971
G01 X9.4255 Y44.5657
G01 X9.3412 Y44.5258
G01 X9.2674 Y44.4818
G01 X9.2552 Y44.4737
G01 X9.1921 Y44.4269
G01 X9.1808 Y44.4176
G01 X9.1172 Y44.3598
G01 X9.0546 Y44.2907
G01 X8.9991 Y44.2158
G01 X8.9512 Y44.1358
G01 X8.9113 Y44.0515
G01 X8.8822 Y43.9708
G01 X8.8779 Y43.9567
G01 X8.8589 Y43.8805
G01 X8.8560 Y43.8661
G01 X8.8436 Y43.7811
G01 X8.8390 Y43.6880
G01 X8.8436 Y43.5949
G01 X8.8560 Y43.5099
G01 X8.8589 Y43.4955
G01 X8.8779 Y43.4193
G01 X8.8822 Y43.4052
G01 X8.9113 Y43.3245
G01 X8.9512 Y43.2402
G01 X8.9991 Y43.1602
G01 X9.0546 Y43.0853
G01 X9.1172 Y43.0162
G01 X9.1808 Y42.9584
G01 X9.1921 Y42.9491
G01 X9.2552 Y42.9023
G01 X9.2674 Y42.8942
G01 X9.3412 Y42.8502
G01 X9.4255 Y42.8103
G01 X9.5132 Y42.7789
G01 X9.6001 Y42.7570
G01 X9.6109 Y42.7550
G01 X9.6959 Y42.7426
G01 X9.7816 Y42.7382
G01 X9.7964 Y42.7382
G01 X9.8748 Y42.7420
G01 X9.8894 Y42.7435
G01 X9.9743 Y42.7563
G01 X10.0648 Y42.7789
G01 X10.1525 Y42.8103
G01 X10.2336 Y42.8485
G01 X10.2432 Y42.8538
G01 X10.3168 Y42.8981
G01 X10.3859 Y42.9491
G01 X10.3972 Y42.9584
G01 X10.4554 Y43.0112
G01 X10.4633 Y43.0189
G01 X10.5234 Y43.0853
G01 X10.5768 Y43.1572
G01 X10.5828 Y43.1664
G01 X10.6250 Y43.2369
G01 X10.6301 Y43.2467
G01 X10.6477 Y43.2840
G01 X10.6477 Y41.5520
G01 X10.6301 Y41.5893
G01 X10.6250 Y41.5991
G01 X10.5809 Y41.6727
G01 X10.5747 Y41.6818
G01 X10.5257 Y41.7478
G01 X10.5186 Y41.7562
G01 X10.4608 Y41.8198
G01 X10.3945 Y41.8800
G01 X10.3859 Y41.8869
G01 X10.3168 Y41.9379
G01 X10.2368 Y41.9858
G01 X10.1525 Y42.0257
G01 X10.0718 Y42.0548
G01 X10.0612 Y42.0581
G01 X9.9743 Y42.0797
G01 X9.8894 Y42.0925
G01 X9.8748 Y42.0940
G01 X9.7964 Y42.0978
G01 X9.7816 Y42.0978
G01 X9.6959 Y42.0934
G01 X9.6109 Y42.0810
G01 X9.5965 Y42.0781
G01 X9.5132 Y42.0571
G01 X9.4255 Y42.0257
G01 X9.3412 Y41.9858
G01 X9.2674 Y41.9418
G01 X9.2552 Y41.9337
G01 X9.1921 Y41.8869
G01 X9.1808 Y41.8776
G01 X9.1172 Y41.8198
G01 X9.0594 Y41.7562
G01 X9.0501 Y41.7449
G01 X8.9991 Y41.6758
G01 X8.9548 Y41.6022
G01 X8.9495 Y41.5926
G01 X8.9113 Y41.5115
G01 X8.8822 Y41.4308
G01 X8.8779 Y41.4167
G01 X8.8580 Y41.3369
G01 X8.8560 Y41.3261
G01 X8.8445 Y41.2484
G01 X8.8433 Y41.2374
G01 X8.8390 Y41.1517
G01 X8.8390 Y41.1443
G01 X8.8402 Y41.1192
G01 X5.4952 Y37.7742
G01 X5.4523 Y37.7269
G01 X5.4164 Y37.6787
G01 X5.4104 Y37.6694
G01 X5.3852 Y37.6273
G01 X5.3782 Y37.6143
G01 X5.3542 Y37.5632
G01 X5.3327 Y37.5032
G01 X5.3189 Y37.4484
G01 X5.3160 Y37.4340
G01 X5.3079 Y37.3781
G01 X5.3048 Y37.3181
G01 X5.3047 Y33.7737
G01 X3.6327 Y32.1014
G01 X3.5560 Y32.1050
G01 X3.4653 Y32.1007
G01 X3.4507 Y32.0993
G01 X3.3609 Y32.0858
G01 X3.2728 Y32.0639
G01 X3.2587 Y32.0596
G01 X3.1733 Y32.0289
G01 X3.0912 Y31.9902
G01 X3.0782 Y31.9833
G01 X3.0004 Y31.9365
G01 X2.9274 Y31.8825
G01 X2.9160 Y31.8732
G01 X2.8489 Y31.8121
G01 X2.7878 Y31.7450
G01 X2.7785 Y31.7336
G01 X2.7266 Y31.6636
G01 X2.7206 Y31.6544
G01 X2.6741 Y31.5764
G01 X2.6321 Y31.4877
G01 X2.5991 Y31.3953
G01 X2.5768 Y31.3073
G01 X2.5740 Y31.2928
G01 X2.5617 Y31.2103
G01 X2.5603 Y31.1957
G01 X2.5560 Y31.1050
G01 X2.5603 Y31.0143
G01 X2.5617 Y30.9997
G01 X2.5752 Y30.9099
G01 X2.5991 Y30.8147
G01 X2.6321 Y30.7223
G01 X2.6741 Y30.6336
G01 X2.7245 Y30.5494
G01 X2.7830 Y30.4706
G01 X2.8489 Y30.3979
G01 X2.9160 Y30.3368
G01 X2.9274 Y30.3275
G01 X2.9944 Y30.2778
G01 X3.0066 Y30.2696
G01 X3.0846 Y30.2231
G01 X3.1666 Y30.1841
G01 X3.1802 Y30.1785
G01 X3.2657 Y30.1481
G01 X3.3609 Y30.1242
G01 X3.4580 Y30.1098
G01 X3.5560 Y30.1050
G01 X3.6540 Y30.1098
G01 X3.7438 Y30.1230
G01 X3.7583 Y30.1258
G01 X3.8392 Y30.1461
G01 X3.8533 Y30.1504
G01 X3.9387 Y30.1811
G01 X4.0274 Y30.2231
G01 X4.1116 Y30.2735
G01 X4.1875 Y30.3297
G01 X4.1960 Y30.3368
G01 X4.2631 Y30.3979
G01 X4.3242 Y30.4650
G01 X4.3335 Y30.4764
G01 X4.3875 Y30.5494
G01 X4.4343 Y30.6272
G01 X4.4412 Y30.6402
G01 X4.4799 Y30.7223
G01 X4.5129 Y30.8147
G01 X4.5352 Y30.9027
G01 X4.5380 Y30.9172
G01 X4.5503 Y30.9997
G01 X4.5517 Y31.0143
G01 X4.5560 Y31.1050
G01 X4.5524 Y31.1819
G01 X6.4148 Y33.0446
G01 X6.4528 Y33.0863
G01 X6.4622 Y33.0977
G01 X6.4957 Y33.1432
G01 X6.5285 Y33.1979
G01 X6.5558 Y33.2556
G01 X6.5749 Y33.3087
G01 X6.5792 Y33.3228
G01 X6.5911 Y33.3704
G01 X6.5940 Y33.3848
G01 X6.6021 Y33.4407
G01 X6.6052 Y33.5007
G01 X6.6053 Y37.0451
G01 X9.7595 Y40.1993
G01 X9.7816 Y40.1982
G01 X9.7927 Y40.1980
G01 X9.8748 Y40.2020
G01 X9.8858 Y40.2030
G01 X9.9743 Y40.2163
G01 X10.0612 Y40.2379
G01 X10.0718 Y40.2412
G01 X10.1457 Y40.2677
G01 X10.1593 Y40.2733
G01 X10.2368 Y40.3102
G01 X10.3106 Y40.3542
G01 X10.3228 Y40.3623
G01 X10.3859 Y40.4091
G01 X10.3972 Y40.4184
G01 X10.4608 Y40.4762
G01 X10.5210 Y40.5425
G01 X10.5279 Y40.5511
G01 X10.5747 Y40.6142
G01 X10.5809 Y40.6233
G01 X10.6250 Y40.6969
G01 X10.6301 Y40.7067
G01 X10.6477 Y40.7440
G01 X10.6477 Y39.0120
G01 X10.6301 Y39.0493
G01 X10.6250 Y39.0591
G01 X10.5809 Y39.1327
G01 X10.5747 Y39.1418
G01 X10.5257 Y39.2078
G01 X10.5186 Y39.2162
G01 X10.4608 Y39.2798
G01 X10.3945 Y39.3400
G01 X10.3859 Y39.3469
G01 X10.3168 Y39.3979
G01 X10.2368 Y39.4458
G01 X10.1525 Y39.4857
G01 X10.0718 Y39.5148
G01 X10.0612 Y39.5181
G01 X9.9743 Y39.5397
G01 X9.8894 Y39.5525
G01 X9.8748 Y39.5540
G01 X9.7964 Y39.5578
G01 X9.7816 Y39.5578
G01 X9.6959 Y39.5534
G01 X9.6109 Y39.5410
G01 X9.5965 Y39.5381
G01 X9.5132 Y39.5171
G01 X9.4255 Y39.4857
G01 X9.3412 Y39.4458
G01 X9.2643 Y39.3999
G01 X9.2552 Y39.3937
G01 X9.1921 Y39.3469
G01 X9.1808 Y39.3376
G01 X9.1172 Y39.2798
G01 X9.0594 Y39.2162
G01 X9.0501 Y39.2049
G01 X8.9991 Y39.1358
G01 X8.9548 Y39.0622
G01 X8.9495 Y39.0526
G01 X8.9113 Y38.9715
G01 X8.8822 Y38.8908
G01 X8.8779 Y38.8767
G01 X8.8580 Y38.7969
G01 X8.8560 Y38.7861
G01 X8.8445 Y38.7084
G01 X8.8433 Y38.6974
G01 X8.8390 Y38.6117
G01 X8.8390 Y38.6043
G01 X8.8402 Y38.5789
G01 X7.0132 Y36.7521
G01 X6.9752 Y36.7104
G01 X6.9658 Y36.6990
G01 X6.9323 Y36.6536
G01 X6.8995 Y36.5988
G01 X6.8723 Y36.5412
G01 X6.8531 Y36.4881
G01 X6.8488 Y36.4740
G01 X6.8369 Y36.4264
G01 X6.8340 Y36.4119
G01 X6.8259 Y36.3560
G01 X6.8228 Y36.2960
G01 X6.8227 Y32.7516
G01 X3.6328 Y29.5614
G01 X3.5560 Y29.5650
G01 X3.4653 Y29.5607
G01 X3.4507 Y29.5593
G01 X3.3682 Y29.5470
G01 X3.3537 Y29.5442
G01 X3.2657 Y29.5219
G01 X3.1802 Y29.4915
G01 X3.1666 Y29.4859
G01 X3.0846 Y29.4469
G01 X3.0004 Y29.3965
G01 X2.9216 Y29.3380
G01 X2.8542 Y29.2772
G01 X2.8463 Y29.2695
G01 X2.7878 Y29.2050
G01 X2.7785 Y29.1936
G01 X2.7245 Y29.1206
G01 X2.6777 Y29.0428
G01 X2.6708 Y29.0298
G01 X2.6321 Y28.9477
G01 X2.5991 Y28.8553
G01 X2.5752 Y28.7601
G01 X2.5617 Y28.6703
G01 X2.5603 Y28.6557
G01 X2.5560 Y28.5650
G01 X2.5603 Y28.4743
G01 X2.5617 Y28.4597
G01 X2.5740 Y28.3772
G01 X2.5768 Y28.3627
G01 X2.5991 Y28.2747
G01 X2.6295 Y28.1892
G01 X2.6351 Y28.1756
G01 X2.6741 Y28.0936
G01 X2.7206 Y28.0156
G01 X2.7288 Y28.0034
G01 X2.7830 Y27.9306
G01 X2.8438 Y27.8632
G01 X2.8542 Y27.8528
G01 X2.9216 Y27.7920
G01 X2.9944 Y27.7378
G01 X3.0066 Y27.7296
G01 X3.0846 Y27.6831
G01 X3.1733 Y27.6411
G01 X3.2587 Y27.6104
G01 X3.2728 Y27.6061
G01 X3.3609 Y27.5842
G01 X3.4507 Y27.5707
G01 X3.4653 Y27.5693
G01 X3.5560 Y27.5650
G01 X3.6540 Y27.5698
G01 X3.7511 Y27.5842
G01 X3.8392 Y27.6061
G01 X3.8533 Y27.6104
G01 X3.9387 Y27.6411
G01 X4.0208 Y27.6798
G01 X4.0338 Y27.6867
G01 X4.1116 Y27.7335
G01 X4.1846 Y27.7875
G01 X4.1960 Y27.7968
G01 X4.2631 Y27.8579
G01 X4.3242 Y27.9250
G01 X4.3335 Y27.9364
G01 X4.3875 Y28.0094
G01 X4.4343 Y28.0872
G01 X4.4412 Y28.1002
G01 X4.4799 Y28.1823
G01 X4.5106 Y28.2677
G01 X4.5149 Y28.2818
G01 X4.5368 Y28.3699
G01 X4.5503 Y28.4597
G01 X4.5517 Y28.4743
G01 X4.5560 Y28.5650
G01 X4.5524 Y28.6419
G01 X7.9328 Y32.0225
G01 X7.9708 Y32.0642
G01 X7.9780 Y32.0727
G01 X8.0137 Y32.1210
G01 X8.0428 Y32.1694
G01 X8.0498 Y32.1824
G01 X8.0708 Y32.2267
G01 X8.0764 Y32.2404
G01 X8.0953 Y32.2936
G01 X8.1108 Y32.3555
G01 X8.1201 Y32.4186
G01 X8.1232 Y32.4786
G01 X8.1233 Y36.0229
G01 X9.7598 Y37.6593
G01 X9.7853 Y37.6580
G01 X9.7927 Y37.6580
G01 X9.8748 Y37.6620
G01 X9.8858 Y37.6630
G01 X9.9743 Y37.6763
G01 X10.0612 Y37.6979
G01 X10.0718 Y37.7012
G01 X10.1457 Y37.7277
G01 X10.1593 Y37.7333
G01 X10.2368 Y37.7702
G01 X10.3106 Y37.8142
G01 X10.3228 Y37.8223
G01 X10.3859 Y37.8691
G01 X10.3972 Y37.8784
G01 X10.4608 Y37.9362
G01 X10.5210 Y38.0025
G01 X10.5279 Y38.0111
G01 X10.5747 Y38.0742
G01 X10.5809 Y38.0833
G01 X10.6250 Y38.1569
G01 X10.6301 Y38.1667
G01 X10.6477 Y38.2040
G01 X10.6477 Y37.8463
G01 X9.8182 Y37.0167
G01 X9.7927 Y37.0180
G01 X9.7853 Y37.0180
G01 X9.7032 Y37.0140
G01 X9.6922 Y37.0130
G01 X9.6037 Y36.9997
G01 X9.5203 Y36.9791
G01 X9.5097 Y36.9760
G01 X9.4255 Y36.9457
G01 X9.3412 Y36.9058
G01 X9.2612 Y36.8579
G01 X9.1921 Y36.8069
G01 X9.1835 Y36.8000
G01 X9.1172 Y36.7398
G01 X9.0594 Y36.6762
G01 X9.0501 Y36.6649
G01 X8.9991 Y36.5958
G01 X8.9548 Y36.5222
G01 X8.9479 Y36.5093
G01 X8.9113 Y36.4315
G01 X8.8810 Y36.3473
G01 X8.8779 Y36.3367
G01 X8.8573 Y36.2533
G01 X8.8436 Y36.1611
G01 X8.8390 Y36.0680
G01 X8.8436 Y35.9749
G01 X8.8573 Y35.8827
G01 X8.8799 Y35.7922
G01 X8.9113 Y35.7045
G01 X8.9479 Y35.6267
G01 X8.9548 Y35.6138
G01 X8.9991 Y35.5402
G01 X9.0501 Y35.4711
G01 X9.0594 Y35.4598
G01 X9.1172 Y35.3962
G01 X9.1808 Y35.3384
G01 X9.1921 Y35.3291
G01 X9.2552 Y35.2823
G01 X9.2674 Y35.2742
G01 X9.3412 Y35.2302
G01 X9.4255 Y35.1903
G01 X9.5132 Y35.1589
G01 X9.6037 Y35.1363
G01 X9.6959 Y35.1226
G01 X9.7816 Y35.1182
G01 X9.7964 Y35.1182
G01 X9.8821 Y35.1226
G01 X9.9671 Y35.1350
G01 X9.9815 Y35.1379
G01 X10.0648 Y35.1589
G01 X10.1525 Y35.1903
G01 X10.2303 Y35.2269
G01 X10.2432 Y35.2338
G01 X10.3168 Y35.2781
G01 X10.3859 Y35.3291
G01 X10.3972 Y35.3384
G01 X10.4581 Y35.3937
G01 X10.4658 Y35.4016
G01 X10.5234 Y35.4653
G01 X10.5789 Y35.5402
G01 X10.6268 Y35.6202
G01 X10.6637 Y35.6977
G01 X10.6681 Y35.7079
G01 X10.6981 Y35.7922
G01 X10.7191 Y35.8755
G01 X10.7214 Y35.8863
G01 X10.7335 Y35.9676
G01 X10.7347 Y35.9786
G01 X10.7390 Y36.0643
G01 X10.7390 Y36.0717
G01 X10.7377 Y36.0971
G01 X11.7604 Y37.1197
G01 X11.7958 Y37.1588
G01 X11.8029 Y37.1673
G01 X11.8366 Y37.2126
G01 X11.8426 Y37.2219
G01 X11.8567 Y37.2455
G01 X11.8567 Y36.5151
G01 X9.8182 Y34.4767
G01 X9.7927 Y34.4780
G01 X9.7853 Y34.4780
G01 X9.6996 Y34.4737
G01 X9.6886 Y34.4725
G01 X9.6109 Y34.4610
G01 X9.6001 Y34.4590
G01 X9.5203 Y34.4391
G01 X9.5062 Y34.4348
G01 X9.4255 Y34.4057
G01 X9.3444 Y34.3675
G01 X9.3348 Y34.3622
G01 X9.2612 Y34.3179
G01 X9.1921 Y34.2669
G01 X9.1808 Y34.2576
G01 X9.1172 Y34.1998
G01 X9.0594 Y34.1362
G01 X9.0501 Y34.1249
G01 X9.0033 Y34.0618
G01 X8.9971 Y34.0527
G01 X8.9512 Y33.9758
G01 X8.9143 Y33.8983
G01 X8.9087 Y33.8847
G01 X8.8822 Y33.8108
G01 X8.8779 Y33.7967
G01 X8.8573 Y33.7133
G01 X8.8436 Y33.6211
G01 X8.8390 Y33.5280
G01 X8.8433 Y33.4386
G01 X8.8445 Y33.4276
G01 X8.8573 Y33.3427
G01 X8.8799 Y33.2522
G01 X8.9113 Y33.1645
G01 X8.9495 Y33.0834
G01 X8.9548 Y33.0738
G01 X8.9991 Y33.0002
G01 X9.0523 Y32.9282
G01 X9.0594 Y32.9198
G01 X9.1147 Y32.8589
G01 X9.1199 Y32.8537
G01 X9.1387 Y32.8365
G01 X9.1387 Y32.2970
G01 X7.8291 Y30.9870
G01 X7.7887 Y30.9426
G01 X7.7818 Y30.9339
G01 X7.7526 Y30.8946
G01 X7.7444 Y30.8823
G01 X7.7155 Y30.8338
G01 X7.6882 Y30.7761
G01 X7.6691 Y30.7230
G01 X7.6648 Y30.7089
G01 X7.6512 Y30.6541
G01 X7.6423 Y30.5947
G01 X7.6413 Y30.5836
G01 X7.6387 Y30.5273
G01 X7.6387 Y5.1830
G01 X7.6419 Y5.1193
G01 X7.6500 Y5.0634
G01 X7.6529 Y5.0490
G01 X7.6648 Y5.0013
G01 X7.6679 Y4.9907
G01 X7.6882 Y4.9342
G01 X7.7122 Y4.8831
G01 X7.7192 Y4.8701
G01 X7.7483 Y4.8217
G01 X7.7818 Y4.7763
G01 X7.7912 Y4.7649
G01 X7.8241 Y4.7285
G01 X8.8403 Y3.7122
G01 X8.8390 Y3.6867
G01 X8.8390 Y3.6793
G01 X8.8433 Y3.5936
G01 X8.8445 Y3.5826
G01 X8.8566 Y3.5013
G01 X8.8589 Y3.4905
G01 X8.8799 Y3.4072
G01 X8.9099 Y3.3229
G01 X8.9143 Y3.3127
G01 X8.9512 Y3.2352
G01 X8.9991 Y3.1552
G01 X9.0546 Y3.0803
G01 X9.1122 Y3.0166
G01 X9.1199 Y3.0087
G01 X9.1808 Y2.9534
G01 X9.1921 Y2.9441
G01 X9.2612 Y2.8931
G01 X9.3348 Y2.8488
G01 X9.3477 Y2.8419
G01 X9.4255 Y2.8053
G01 X9.5132 Y2.7739
G01 X9.5965 Y2.7529
G01 X9.6109 Y2.7500
G01 X9.6959 Y2.7376
G01 X9.7816 Y2.7332
G01 X9.7964 Y2.7332
G01 X9.8821 Y2.7376
G01 X9.9671 Y2.7500
G01 X9.9779 Y2.7520
G01 X10.0648 Y2.7739
G01 X10.1525 Y2.8053
G01 X10.2368 Y2.8452
G01 X10.3106 Y2.8892
G01 X10.3228 Y2.8973
G01 X10.3859 Y2.9441
G01 X10.3972 Y2.9534
G01 X10.4608 Y3.0112
G01 X10.5186 Y3.0748
G01 X10.5279 Y3.0861
G01 X10.5789 Y3.1552
G01 X10.6232 Y3.2288
G01 X10.6301 Y3.2417
G01 X10.6667 Y3.3195
G01 X10.6981 Y3.4072
G01 X10.7207 Y3.4977
G01 X10.7344 Y3.5899
G01 X10.7390 Y3.6830
G01 X10.7344 Y3.7761
G01 X10.7207 Y3.8683
G01 X10.7001 Y3.9517
G01 X10.6970 Y3.9623
G01 X10.6667 Y4.0465
G01 X10.6301 Y4.1243
G01 X10.6232 Y4.1372
G01 X10.5789 Y4.2108
G01 X10.5279 Y4.2799
G01 X10.5186 Y4.2912
G01 X10.4608 Y4.3548
G01 X10.3945 Y4.4150
G01 X10.3859 Y4.4219
G01 X10.3168 Y4.4729
G01 X10.2368 Y4.5208
G01 X10.1525 Y4.5607
G01 X10.0683 Y4.5910
G01 X10.0577 Y4.5941
G01 X9.9743 Y4.6147
G01 X9.8858 Y4.6280
G01 X9.8748 Y4.6290
G01 X9.7927 Y4.6330
G01 X9.7853 Y4.6330
G01 X9.7598 Y4.6317
G01 X8.9393 Y5.4523
G01 X8.9393 Y5.8000
G01 X8.9495 Y5.7784
G01 X8.9530 Y5.7719
G01 X8.9971 Y5.6983
G01 X9.0033 Y5.6892
G01 X9.0501 Y5.6261
G01 X9.0570 Y5.6175
G01 X9.1172 Y5.5512
G01 X9.1808 Y5.4934
G01 X9.1921 Y5.4841
G01 X9.2582 Y5.4352
G01 X9.2674 Y5.4292
G01 X9.3348 Y5.3888
G01 X9.3477 Y5.3819
G01 X9.4255 Y5.3453
G01 X9.5062 Y5.3162
G01 X9.5203 Y5.3119
G01 X9.6037 Y5.2913
G01 X9.6886 Y5.2785
G01 X9.6996 Y5.2773
G01 X9.7890 Y5.2730
G01 X9.8748 Y5.2770
G01 X9.8894 Y5.2785
G01 X9.9743 Y5.2913
G01 X10.0577 Y5.3119
G01 X10.0718 Y5.3162
G01 X10.1491 Y5.3439
G01 X10.1593 Y5.3483
G01 X10.2368 Y5.3852
G01 X10.3106 Y5.4292
G01 X10.3198 Y5.4352
G01 X10.3859 Y5.4841
G01 X10.3945 Y5.4910
G01 X10.4581 Y5.5487
G01 X10.4633 Y5.5539
G01 X10.4805 Y5.5727
G01 X11.2964 Y5.5729
G01 X11.3527 Y5.5759
G01 X11.4159 Y5.5852
G01 X11.4778 Y5.6007
G01 X11.5378 Y5.6222
G01 X11.5955 Y5.6495
G01 X11.6440 Y5.6784
G01 X11.6563 Y5.6866
G01 X11.6957 Y5.7158
G01 X11.7071 Y5.7252
G01 X11.7488 Y5.7632
G01 X11.7868 Y5.8049
G01 X11.7962 Y5.8163
G01 X11.8297 Y5.8617
G01 X11.8625 Y5.9165
G01 X11.8898 Y5.9742
G01 X11.9089 Y6.0273
G01 X11.9123 Y6.0378
G01 X11.9251 Y6.0890
G01 X11.9280 Y6.1034
G01 X11.9361 Y6.1593
G01 X11.9392 Y6.2193
G01 X11.9393 Y7.0731
G01 X16.6787 Y7.0731
G01 X20.5292 Y3.2232
G01 X20.5765 Y3.1803
G01 X20.6278 Y3.1423
G01 X20.6761 Y3.1132
G01 X20.6891 Y3.1062
G01 X20.7402 Y3.0822
G01 X20.7933 Y3.0631
G01 X20.8074 Y3.0588
G01 X20.8621 Y3.0452
G01 X20.9253 Y3.0359
G01 X20.9890 Y3.0327
G01 X21.7975 Y3.0327
G01 X21.8147 Y3.0139
G01 X21.8199 Y3.0087
G01 X21.8808 Y2.9534
G01 X21.8892 Y2.9463
G01 X21.9612 Y2.8931
G01 X22.0348 Y2.8488
G01 X22.0444 Y2.8435
G01 X22.1255 Y2.8053
G01 X22.2132 Y2.7739
G01 X22.3037 Y2.7513
G01 X22.3959 Y2.7376
G01 X22.4890 Y2.7330
G01 X22.5821 Y2.7376
G01 X22.6743 Y2.7513
G01 X22.7577 Y2.7719
G01 X22.7718 Y2.7762
G01 X22.8457 Y2.8027
G01 X22.8593 Y2.8083
G01 X22.9368 Y2.8452
G01 X23.0106 Y2.8892
G01 X23.0198 Y2.8952
G01 X23.0917 Y2.9486
G01 X23.1554 Y3.0062
G01 X23.1658 Y3.0166
G01 X23.2186 Y3.0748
G01 X23.2279 Y3.0861
G01 X23.2789 Y3.1552
G01 X23.3232 Y3.2288
G01 X23.3301 Y3.2417
G01 X23.3667 Y3.3195
G01 X23.3981 Y3.4072
G01 X23.4207 Y3.4977
G01 X23.4344 Y3.5899
G01 X23.4390 Y3.6830
G01 X23.4350 Y3.7688
G01 X23.4335 Y3.7834
G01 X23.4207 Y3.8683
G01 X23.4001 Y3.9517
G01 X23.3958 Y3.9658
G01 X23.3693 Y4.0397
G01 X23.3637 Y4.0533
G01 X23.3268 Y4.1308
G01 X23.2789 Y4.2108
G01 X23.2234 Y4.2857
G01 X23.1658 Y4.3494
G01 X23.1581 Y4.3573
G01 X23.0917 Y4.4174
G01 X23.0168 Y4.4729
G01 X22.9368 Y4.5208
G01 X22.8525 Y4.5607
G01 X22.7648 Y4.5921
G01 X22.6743 Y4.6147
G01 X22.5821 Y4.6284
G01 X22.4964 Y4.6328
G01 X22.4853 Y4.6330
G01 X22.3959 Y4.6284
G01 X22.3037 Y4.6147
G01 X22.2132 Y4.5921
G01 X22.1323 Y4.5633
G01 X22.1221 Y4.5592
G01 X22.0412 Y4.5208
G01 X21.9674 Y4.4768
G01 X21.9582 Y4.4708
G01 X21.8921 Y4.4219
G01 X21.8835 Y4.4150
G01 X21.8199 Y4.3573
G01 X21.8147 Y4.3521
G01 X21.7975 Y4.3333
G01 X21.2583 Y4.3333
G01 X17.4078 Y8.1832
G01 X17.3605 Y8.2261
G01 X17.3153 Y8.2598
G01 X17.3030 Y8.2680
G01 X17.2609 Y8.2932
G01 X17.2512 Y8.2986
G01 X17.1968 Y8.3242
G01 X17.1437 Y8.3433
G01 X17.1296 Y8.3476
G01 X17.0749 Y8.3612
G01 X17.0190 Y8.3696
G01 X17.0043 Y8.3711
G01 X16.9517 Y8.3736
G01 X11.9393 Y8.3737
G01 X11.9393 Y19.9626
G01 X11.9361 Y20.0263
G01 X11.9280 Y20.0821
G01 X11.9260 Y20.0931
G01 X11.9132 Y20.1442
G01 X11.9089 Y20.1583
G01 X11.8898 Y20.2114
G01 X11.8658 Y20.2625
G01 X11.8588 Y20.2755
G01 X11.8297 Y20.3238
G01 X11.7962 Y20.3692
G01 X11.7868 Y20.3807
G01 X11.7489 Y20.4223
G01 X10.7390 Y21.4325
G01 X10.7388 Y22.2704
G01 X10.7383 Y22.2777
G01 X10.7368 Y22.2886
G01 X10.7336 Y22.3030
G01 X10.7289 Y22.3170
G01 X10.7246 Y22.3271
G01 X10.7213 Y22.3337
G01 X10.7137 Y22.3463
G01 X10.7050 Y22.3582
G01 X10.6976 Y22.3664
G01 X10.6924 Y22.3716
G01 X10.6813 Y22.3813
G01 X10.6723 Y22.3877
G01 X10.6597 Y22.3953
G01 X10.6498 Y22.4001
G01 X10.6395 Y22.4042
G01 X10.6290 Y22.4076
G01 X10.6146 Y22.4108
G01 X10.6037 Y22.4123
G01 X10.5927 Y22.4130
G01 X8.9890 Y22.4130
G01 X8.9743 Y22.4123
G01 X8.9634 Y22.4108
G01 X8.9526 Y22.4085
G01 X8.9393 Y22.4045
G00 Z2.0000
G00 X3.5585 Y27.6651
G01 F60.00
G01 Z-0.0499
G01 F60.00
G01 X3.6442 Y27.6693
G01 X3.7316 Y27.6823
G01 X3.8173 Y27.7038
G01 X3.9004 Y27.7335
G01 X3.9803 Y27.7713
G01 X4.0560 Y27.8167
G01 X4.1270 Y27.8693
G01 X4.1933 Y27.9295
G01 X4.2517 Y27.9940
G01 X4.3056 Y28.0671
G01 X4.3497 Y28.1407
G01 X4.3865 Y28.2183
G01 X4.4169 Y28.3026
G01 X4.4387 Y28.3894
G01 X4.4518 Y28.4780
G01 X4.4560 Y28.5662
G01 X4.4518 Y28.6520
G01 X4.4479 Y28.6788
G01 X7.8621 Y32.0932
G01 X7.8999 Y32.1352
G01 X7.9305 Y32.1766
G01 X7.9577 Y32.2218
G01 X7.9814 Y32.2717
G01 X8.0002 Y32.3250
G01 X8.0127 Y32.3750
G01 X8.0203 Y32.4259
G01 X8.0232 Y32.4811
G01 X8.0233 Y36.0644
G01 X9.7204 Y37.7613
G01 X9.7890 Y37.7580
G01 X9.8699 Y37.7619
G01 X9.9548 Y37.7743
G01 X10.0381 Y37.7954
G01 X10.1143 Y37.8227
G01 X10.1875 Y37.8573
G01 X10.2612 Y37.9013
G01 X10.3301 Y37.9525
G01 X10.3900 Y38.0070
G01 X10.4445 Y38.0669
G01 X10.4957 Y38.1358
G01 X10.5386 Y38.2073
G01 X10.5743 Y38.2827
G01 X10.6024 Y38.3613
G01 X10.6227 Y38.4422
G01 X10.6349 Y38.5247
G01 X10.6390 Y38.6080
G01 X10.6349 Y38.6913
G01 X10.6221 Y38.7762
G01 X10.6016 Y38.8571
G01 X10.5743 Y38.9333
G01 X10.5397 Y39.0065
G01 X10.4957 Y39.0802
G01 X10.4476 Y39.1453
G01 X10.3900 Y39.2090
G01 X10.3282 Y39.2651
G01 X10.2612 Y39.3147
G01 X10.1908 Y39.3570
G01 X10.1120 Y39.3942
G01 X10.0357 Y39.4214
G01 X9.9548 Y39.4417
G01 X9.8723 Y39.4539
G01 X9.7915 Y39.4579
G01 X9.7057 Y39.4539
G01 X9.6232 Y39.4417
G01 X9.5446 Y39.4221
G01 X9.4637 Y39.3933
G01 X9.3883 Y39.3576
G01 X9.3188 Y39.3161
G01 X9.2488 Y39.2643
G01 X9.1863 Y39.2073
G01 X9.1319 Y39.1472
G01 X9.0837 Y39.0822
G01 X9.0394 Y39.0087
G01 X9.0037 Y38.9333
G01 X8.9756 Y38.8547
G01 X8.9549 Y38.7714
G01 X8.9429 Y38.6889
G01 X8.9390 Y38.6080
G01 X8.9423 Y38.5395
G01 X7.0839 Y36.6814
G01 X7.0461 Y36.6394
G01 X7.0155 Y36.5980
G01 X6.9883 Y36.5528
G01 X6.9646 Y36.5029
G01 X6.9458 Y36.4497
G01 X6.9333 Y36.3997
G01 X6.9257 Y36.3487
G01 X6.9228 Y36.2936
G01 X6.9227 Y32.7102
G01 X3.6697 Y29.4569
G01 X3.6430 Y29.4608
G01 X3.5572 Y29.4650
G01 X3.4666 Y29.4605
G01 X3.3804 Y29.4477
G01 X3.2971 Y29.4269
G01 X3.2105 Y29.3960
G01 X3.1317 Y29.3587
G01 X3.0581 Y29.3146
G01 X2.9850 Y29.2607
G01 X2.9196 Y29.2014
G01 X2.8619 Y29.1378
G01 X2.8077 Y29.0650
G01 X2.7612 Y28.9871
G01 X2.7245 Y28.9094
G01 X2.6955 Y28.8286
G01 X2.6733 Y28.7406
G01 X2.6602 Y28.6508
G01 X2.6560 Y28.5650
G01 X2.6602 Y28.4792
G01 X2.6733 Y28.3894
G01 X2.6955 Y28.3014
G01 X2.7245 Y28.2206
G01 X2.7623 Y28.1407
G01 X2.8091 Y28.0630
G01 X2.8603 Y27.9940
G01 X2.9196 Y27.9286
G01 X2.9870 Y27.8678
G01 X3.0560 Y27.8167
G01 X3.1296 Y27.7725
G01 X3.2116 Y27.7335
G01 X3.2971 Y27.7031
G01 X3.3804 Y27.6823
G01 X3.4653 Y27.6696
G01 X3.5585 Y27.6651
G00 Z2.0000
G00 X3.5585 Y30.2051
G01 F60.00
G01 Z-0.0499
G01 F60.00
G01 X3.6442 Y30.2093
G01 X3.7316 Y30.2223
G01 X3.8173 Y30.2438
G01 X3.9004 Y30.2735
G01 X3.9803 Y30.3113
G01 X4.0560 Y30.3567
G01 X4.1270 Y30.4093
G01 X4.1933 Y30.4695
G01 X4.2517 Y30.5340
G01 X4.3056 Y30.6071
G01 X4.3497 Y30.6807
G01 X4.3865 Y30.7583
G01 X4.4169 Y30.8426
G01 X4.4387 Y30.9294
G01 X4.4518 Y31.0180
G01 X4.4560 Y31.1062
G01 X4.4518 Y31.1920
G01 X4.4479 Y31.2188
G01 X6.3441 Y33.1153
G01 X6.3819 Y33.1573
G01 X6.4125 Y33.1987
G01 X6.4397 Y33.2439
G01 X6.4634 Y33.2939
G01 X6.4822 Y33.3471
G01 X6.4947 Y33.3971
G01 X6.5023 Y33.4480
G01 X6.5052 Y33.5032
G01 X6.5053 Y37.0865
G01 X9.7201 Y40.3013
G01 X9.7890 Y40.2980
G01 X9.8699 Y40.3019
G01 X9.9524 Y40.3139
G01 X10.0357 Y40.3346
G01 X10.1143 Y40.3627
G01 X10.1918 Y40.3996
G01 X10.2612 Y40.4413
G01 X10.3263 Y40.4894
G01 X10.3900 Y40.5470
G01 X10.4468 Y40.6097
G01 X10.4957 Y40.6758
G01 X10.5397 Y40.7495
G01 X10.5743 Y40.8227
G01 X10.6016 Y40.8989
G01 X10.6221 Y40.9798
G01 X10.6349 Y41.0647
G01 X10.6390 Y41.1480
G01 X10.6349 Y41.2313
G01 X10.6227 Y41.3138
G01 X10.6024 Y41.3947
G01 X10.5743 Y41.4733
G01 X10.5386 Y41.5487
G01 X10.4943 Y41.6222
G01 X10.4445 Y41.6891
G01 X10.3900 Y41.7490
G01 X10.3301 Y41.8035
G01 X10.2612 Y41.8547
G01 X10.1908 Y41.8970
G01 X10.1120 Y41.9342
G01 X10.0357 Y41.9614
G01 X9.9548 Y41.9817
G01 X9.8723 Y41.9939
G01 X9.7915 Y41.9979
G01 X9.7032 Y41.9936
G01 X9.6232 Y41.9817
G01 X9.5423 Y41.9614
G01 X9.4637 Y41.9333
G01 X9.3905 Y41.8987
G01 X9.3148 Y41.8533
G01 X9.2498 Y41.8051
G01 X9.1897 Y41.7507
G01 X9.1319 Y41.6872
G01 X9.0823 Y41.6202
G01 X9.0394 Y41.5487
G01 X9.0028 Y41.4710
G01 X8.9756 Y41.3947
G01 X8.9549 Y41.3114
G01 X8.9429 Y41.2289
G01 X8.9390 Y41.1480
G01 X8.9423 Y41.0799
G01 X5.5659 Y37.7035
G01 X5.5281 Y37.6615
G01 X5.4975 Y37.6201
G01 X5.4703 Y37.5749
G01 X5.4466 Y37.5250
G01 X5.4278 Y37.4718
G01 X5.4153 Y37.4217
G01 X5.4077 Y37.3708
G01 X5.4048 Y37.3156
G01 X5.4047 Y33.7323
G01 X3.6697 Y31.9969
G01 X3.6430 Y32.0008
G01 X3.5548 Y32.0050
G01 X3.4678 Y32.0007
G01 X3.3792 Y31.9875
G01 X3.2947 Y31.9662
G01 X3.2116 Y31.9365
G01 X3.1317 Y31.8987
G01 X3.0570 Y31.8540
G01 X2.9850 Y31.8007
G01 X2.9196 Y31.7414
G01 X2.8603 Y31.6760
G01 X2.8091 Y31.6070
G01 X2.7612 Y31.5271
G01 X2.7245 Y31.4494
G01 X2.6941 Y31.3639
G01 X2.6733 Y31.2806
G01 X2.6606 Y31.1957
G01 X2.6561 Y31.1075
G01 X2.6603 Y31.0168
G01 X2.6733 Y30.9294
G01 X2.6948 Y30.8437
G01 X2.7255 Y30.7583
G01 X2.7623 Y30.6807
G01 X2.8064 Y30.6071
G01 X2.8588 Y30.5360
G01 X2.9196 Y30.4686
G01 X2.9850 Y30.4093
G01 X3.0560 Y30.3567
G01 X3.1339 Y30.3102
G01 X3.2116 Y30.2735
G01 X3.2924 Y30.2445
G01 X3.3780 Y30.2228
G01 X3.4678 Y30.2093
G01 X3.5585 Y30.2051
G00 Z2.0000
G00 X3.5634 Y32.6452
G01 F60.00
G01 Z-0.0499
G01 F60.00
G01 X3.6540 Y32.6498
G01 X3.7511 Y32.6642
G01 X3.8463 Y32.6881
G01 X3.9387 Y32.7211
G01 X4.0274 Y32.7631
G01 X4.1116 Y32.8135
G01 X4.1904 Y32.8720
G01 X4.2631 Y32.9379
G01 X4.3290 Y33.0106
G01 X4.3875 Y33.0894
G01 X4.4379 Y33.1736
G01 X4.4799 Y33.2623
G01 X4.5129 Y33.3547
G01 X4.5368 Y33.4499
G01 X4.5512 Y33.5470
G01 X4.5560 Y33.6450
G01 X4.5512 Y33.7430
G01 X4.5368 Y33.8401
G01 X4.5129 Y33.9353
G01 X4.4799 Y34.0277
G01 X4.4379 Y34.1164
G01 X4.3875 Y34.2006
G01 X4.3290 Y34.2794
G01 X4.2631 Y34.3521
G01 X4.1904 Y34.4180
G01 X4.1116 Y34.4765
G01 X4.0274 Y34.5269
G01 X3.9387 Y34.5689
G01 X3.8463 Y34.6019
G01 X3.7511 Y34.6258
G01 X3.6540 Y34.6402
G01 X3.5560 Y34.6450
G01 X3.4580 Y34.6402
G01 X3.3609 Y34.6258
G01 X3.2657 Y34.6019
G01 X3.1733 Y34.5689
G01 X3.0846 Y34.5269
G01 X3.0004 Y34.4765
G01 X2.9216 Y34.4180
G01 X2.8489 Y34.3521
G01 X2.7830 Y34.2794
G01 X2.7245 Y34.2006
G01 X2.6741 Y34.1164
G01 X2.6321 Y34.0277
G01 X2.5991 Y33.9353
G01 X2.5752 Y33.8401
G01 X2.5608 Y33.7430
G01 X2.5560 Y33.6450
G01 X2.5608 Y33.5470
G01 X2.5752 Y33.4499
G01 X2.5991 Y33.3547
G01 X2.6321 Y33.2623
G01 X2.6741 Y33.1736
G01 X2.7245 Y33.0894
G01 X2.7830 Y33.0106
G01 X2.8489 Y32.9379
G01 X2.9216 Y32.8720
G01 X3.0004 Y32.8135
G01 X3.0846 Y32.7631
G01 X3.1733 Y32.7211
G01 X3.2657 Y32.6881
G01 X3.3609 Y32.6642
G01 X3.4580 Y32.6498
G01 X3.5486 Y32.6452
G01 X3.5634 Y32.6452
G00 Z2.0000
G00 X3.5585 Y32.7451
G01 F60.00
G01 Z-0.0499
G01 F60.00
G01 X3.6442 Y32.7493
G01 X3.7316 Y32.7623
G01 X3.8173 Y32.7838
G01 X3.9004 Y32.8135
G01 X3.9803 Y32.8513
G01 X4.0560 Y32.8967
G01 X4.1270 Y32.9493
G01 X4.1924 Y33.0086
G01 X4.2517 Y33.0740
G01 X4.3043 Y33.1450
G01 X4.3497 Y33.2207
G01 X4.3875 Y33.3006
G01 X4.4172 Y33.3837
G01 X4.4387 Y33.4694
G01 X4.4517 Y33.5568
G01 X4.4560 Y33.6450
G01 X4.4517 Y33.7332
G01 X4.4387 Y33.8206
G01 X4.4172 Y33.9063
G01 X4.3875 Y33.9894
G01 X4.3497 Y34.0693
G01 X4.3043 Y34.1450
G01 X4.2517 Y34.2160
G01 X4.1924 Y34.2814
G01 X4.1270 Y34.3407
G01 X4.0560 Y34.3933
G01 X3.9803 Y34.4387
G01 X3.9004 Y34.4765
G01 X3.8173 Y34.5062
G01 X3.7316 Y34.5277
G01 X3.6442 Y34.5407
G01 X3.5560 Y34.5450
G01 X3.4678 Y34.5407
G01 X3.3804 Y34.5277
G01 X3.2947 Y34.5062
G01 X3.2116 Y34.4765
G01 X3.1317 Y34.4387
G01 X3.0560 Y34.3933
G01 X2.9850 Y34.3407
G01 X2.9196 Y34.2814
G01 X2.8603 Y34.2160
G01 X2.8077 Y34.1450
G01 X2.7623 Y34.0693
G01 X2.7245 Y33.9894
G01 X2.6948 Y33.9063
G01 X2.6733 Y33.8206
G01 X2.6603 Y33.7332
G01 X2.6560 Y33.6450
G01 X2.6603 Y33.5568
G01 X2.6733 Y33.4694
G01 X2.6948 Y33.3837
G01 X2.7245 Y33.3006
G01 X2.7623 Y33.2207
G01 X2.8077 Y33.1450
G01 X2.8603 Y33.0740
G01 X2.9196 Y33.0086
G01 X2.9850 Y32.9493
G01 X3.0560 Y32.8967
G01 X3.1317 Y32.8513
G01 X3.2116 Y32.8135
G01 X3.2947 Y32.7838
G01 X3.3804 Y32.7623
G01 X3.4678 Y32.7493
G01 X3.5585 Y32.7451
G00 Z2.0000
G00 X2.6560 Y37.0350
G01 F60.00
G01 Z-0.0499
G01 F60.00
G01 X2.6560 Y35.3350
G01 X2.6570 Y35.3252
G01 X2.6598 Y35.3159
G01 X2.6619 Y35.3114
G01 X2.6651 Y35.3062
G01 X2.6715 Y35.2988
G01 X2.6793 Y35.2928
G01 X2.6880 Y35.2884
G01 X2.6975 Y35.2857
G01 X2.7060 Y35.2850
G01 X4.4060 Y35.2850
G01 X4.4158 Y35.2860
G01 X4.4205 Y35.2872
G01 X4.4263 Y35.2893
G01 X4.4348 Y35.2941
G01 X4.4422 Y35.3005
G01 X4.4476 Y35.3072
G01 X4.4522 Y35.3159
G01 X4.4550 Y35.3252
G01 X4.4560 Y35.3350
G01 X4.4560 Y37.0350
G01 X4.4550 Y37.0448
G01 X4.4531 Y37.0518
G01 X4.4495 Y37.0596
G01 X4.4454 Y37.0658
G01 X4.4405 Y37.0712
G01 X4.4338 Y37.0766
G01 X4.4274 Y37.0802
G01 X4.4193 Y37.0832
G01 X4.4121 Y37.0846
G01 X4.4060 Y37.0850
G01 X4.1063 Y37.0850
G01 X4.1063 Y41.9361
G01 X7.8479 Y45.6777
G01 X9.1418 Y45.6777
G01 X9.1880 Y45.6270
G01 X9.2479 Y45.5725
G01 X9.3148 Y45.5227
G01 X9.3883 Y45.4784
G01 X9.4615 Y45.4437
G01 X9.5423 Y45.4146
G01 X9.6232 Y45.3943
G01 X9.7057 Y45.3821
G01 X9.7865 Y45.3781
G01 X9.8723 Y45.3821
G01 X9.9524 Y45.3939
G01 X10.0381 Y45.4154
G01 X10.1143 Y45.4427
G01 X10.1897 Y45.4784
G01 X10.2612 Y45.5213
G01 X10.3273 Y45.5702
G01 X10.3900 Y45.6270
G01 X10.4461 Y45.6888
G01 X10.4957 Y45.7558
G01 X10.5397 Y45.8295
G01 X10.5743 Y45.9027
G01 X10.6016 Y45.9789
G01 X10.6221 Y46.0598
G01 X10.6349 Y46.1447
G01 X10.6390 Y46.2280
G01 X10.6349 Y46.3113
G01 X10.6221 Y46.3962
G01 X10.6016 Y46.4771
G01 X10.5743 Y46.5533
G01 X10.5397 Y46.6265
G01 X10.4957 Y46.7002
G01 X10.4461 Y46.7672
G01 X10.3900 Y46.8290
G01 X10.3273 Y46.8858
G01 X10.2612 Y46.9347
G01 X10.1897 Y46.9776
G01 X10.1143 Y47.0133
G01 X10.0357 Y47.0414
G01 X9.9548 Y47.0617
G01 X9.8723 Y47.0739
G01 X9.7890 Y47.0780
G01 X9.7069 Y47.0740
G01 X9.6232 Y47.0617
G01 X9.5423 Y47.0414
G01 X9.4637 Y47.0133
G01 X9.3883 Y46.9776
G01 X9.3168 Y46.9347
G01 X9.2498 Y46.8851
G01 X9.1880 Y46.8290
G01 X9.1418 Y46.7783
G01 X7.6200 Y46.7783
G01 X7.5685 Y46.7758
G01 X7.5127 Y46.7677
G01 X7.4579 Y46.7538
G01 X7.4094 Y46.7364
G01 X7.3628 Y46.7144
G01 X7.3164 Y46.6868
G01 X7.2709 Y46.6533
G01 X7.2309 Y46.6171
G01 X3.1669 Y42.5531
G01 X3.1299 Y42.5121
G01 X3.0985 Y42.4697
G01 X3.0707 Y42.4234
G01 X3.0476 Y42.3746
G01 X3.0302 Y42.3261
G01 X3.0159 Y42.2689
G01 X3.0084 Y42.2179
G01 X3.0058 Y42.1652
G01 X3.0057 Y37.0850
G01 X2.7060 Y37.0850
G01 X2.6987 Y37.0845
G01 X2.6903 Y37.0825
G01 X2.6824 Y37.0791
G01 X2.6743 Y37.0737
G01 X2.6681 Y37.0677
G01 X2.6631 Y37.0607
G01 X2.6594 Y37.0530
G01 X2.6570 Y37.0448
G01 X2.6560 Y37.0350
G00 Z2.0000
G00 X3.5585 Y44.8101
G01 F60.00
G01 Z-0.0499
G01 F60.00
G01 X3.6467 Y44.8146
G01 X3.7316 Y44.8273
G01 X3.8149 Y44.8481
G01 X3.9004 Y44.8785
G01 X3.9781 Y44.9152
G01 X4.0560 Y44.9617
G01 X4.1270 Y45.0143
G01 X4.1924 Y45.0736
G01 X4.2509 Y45.1381
G01 X4.3043 Y45.2100
G01 X4.3497 Y45.2857
G01 X4.3875 Y45.3656
G01 X4.4176 Y45.4499
G01 X4.4387 Y45.5344
G01 X4.4518 Y45.6230
G01 X4.4560 Y45.7112
G01 X4.4518 Y45.7970
G01 X4.4479 Y45.8239
G01 X5.4951 Y46.8713
G01 X5.5306 Y46.9103
G01 X5.5649 Y46.9567
G01 X5.5913 Y47.0010
G01 X5.6144 Y47.0497
G01 X5.6332 Y47.1030
G01 X5.6457 Y47.1530
G01 X5.6536 Y47.2064
G01 X5.6563 Y47.2603
G01 X5.6563 Y65.0426
G01 X8.5169 Y67.9027
G01 X9.1418 Y67.9027
G01 X9.1880 Y67.8520
G01 X9.2479 Y67.7975
G01 X9.3148 Y67.7477
G01 X9.3883 Y67.7034
G01 X9.4615 Y67.6687
G01 X9.5423 Y67.6396
G01 X9.6232 Y67.6193
G01 X9.7057 Y67.6071
G01 X9.7878 Y67.6030
G01 X9.8723 Y67.6071
G01 X9.9548 Y67.6193
G01 X10.0357 Y67.6396
G01 X10.1143 Y67.6677
G01 X10.1897 Y67.7034
G01 X10.2612 Y67.7463
G01 X10.3282 Y67.7959
G01 X10.3892 Y67.8511
G01 X10.4476 Y67.9157
G01 X10.4957 Y67.9808
G01 X10.5374 Y68.0502
G01 X10.5743 Y68.1277
G01 X10.6031 Y68.2086
G01 X10.6227 Y68.2872
G01 X10.6346 Y68.3672
G01 X10.6390 Y68.4530
G01 X10.6346 Y68.5388
G01 X10.6227 Y68.6188
G01 X10.6031 Y68.6974
G01 X10.5743 Y68.7783
G01 X10.5374 Y68.8558
G01 X10.4957 Y68.9252
G01 X10.4476 Y68.9903
G01 X10.3900 Y69.0540
G01 X10.3263 Y69.1116
G01 X10.2612 Y69.1597
G01 X10.1918 Y69.2014
G01 X10.1143 Y69.2383
G01 X10.0346 Y69.2667
G01 X9.9548 Y69.2867
G01 X9.8748 Y69.2986
G01 X9.7890 Y69.3030
G01 X9.7057 Y69.2989
G01 X9.6256 Y69.2871
G01 X9.5423 Y69.2664
G01 X9.4637 Y69.2383
G01 X9.3905 Y69.2037
G01 X9.3168 Y69.1597
G01 X9.2479 Y69.1085
G01 X9.1880 Y69.0540
G01 X9.1418 Y69.0033
G01 X8.2890 Y69.0033
G01 X8.2351 Y69.0006
G01 X8.1817 Y68.9927
G01 X8.1317 Y68.9802
G01 X8.0784 Y68.9614
G01 X8.0297 Y68.9383
G01 X7.9854 Y68.9119
G01 X7.9399 Y68.8784
G01 X7.9000 Y68.8421
G01 X4.7169 Y65.6597
G01 X4.6807 Y65.6197
G01 X4.6478 Y65.5753
G01 X4.6207 Y65.5300
G01 X4.5986 Y65.4835
G01 X4.5795 Y65.4304
G01 X4.5659 Y65.3755
G01 X4.5584 Y65.3245
G01 X4.5558 Y65.2731
G01 X4.5557 Y63.4053
G01 X4.2671 Y63.4053
G01 X4.2509 Y63.4269
G01 X4.1915 Y63.4923
G01 X4.1270 Y63.5507
G01 X4.0570 Y63.6026
G01 X3.9781 Y63.6498
G01 X3.9004 Y63.6865
G01 X3.8161 Y63.7166
G01 X3.7316 Y63.7377
G01 X3.6418 Y63.7508
G01 X3.5560 Y63.7550
G01 X3.4702 Y63.7508
G01 X3.3828 Y63.7381
G01 X3.2924 Y63.7155
G01 X3.2116 Y63.6865
G01 X3.1339 Y63.6498
G01 X3.0560 Y63.6033
G01 X2.9832 Y63.5491
G01 X2.9196 Y63.4914
G01 X2.8619 Y63.4278
G01 X2.8077 Y63.3550
G01 X2.7623 Y63.2793
G01 X2.7255 Y63.2017
G01 X2.6944 Y63.1151
G01 X2.6733 Y63.0306
G01 X2.6603 Y62.9432
G01 X2.6560 Y62.8550
G01 X2.6603 Y62.7668
G01 X2.6733 Y62.6794
G01 X2.6948 Y62.5937
G01 X2.7245 Y62.5106
G01 X2.7612 Y62.4329
G01 X2.8091 Y62.3530
G01 X2.8603 Y62.2840
G01 X2.9214 Y62.2169
G01 X2.9850 Y62.1593
G01 X3.0560 Y62.1067
G01 X3.1317 Y62.0613
G01 X3.2105 Y62.0240
G01 X3.2971 Y61.9931
G01 X3.3804 Y61.9723
G01 X3.4678 Y61.9593
G01 X3.5560 Y61.9550
G01 X3.6418 Y61.9592
G01 X3.7316 Y61.9723
G01 X3.8173 Y61.9938
G01 X3.9004 Y62.0235
G01 X3.9803 Y62.0613
G01 X4.0550 Y62.1060
G01 X4.1270 Y62.1593
G01 X4.1915 Y62.2177
G01 X4.2509 Y62.2831
G01 X4.2671 Y62.3047
G01 X4.5557 Y62.3047
G01 X4.5557 Y47.4882
G01 X3.6697 Y46.6019
G01 X3.6430 Y46.6058
G01 X3.5572 Y46.6100
G01 X3.4690 Y46.6058
G01 X3.3804 Y46.5927
G01 X3.2959 Y46.5716
G01 X3.2116 Y46.5415
G01 X3.1317 Y46.5037
G01 X3.0560 Y46.4583
G01 X2.9832 Y46.4041
G01 X2.9196 Y46.3464
G01 X2.8603 Y46.2810
G01 X2.8077 Y46.2100
G01 X2.7623 Y46.1343
G01 X2.7245 Y46.0544
G01 X2.6948 Y45.9713
G01 X2.6733 Y45.8856
G01 X2.6602 Y45.7958
G01 X2.6560 Y45.7100
G01 X2.6603 Y45.6218
G01 X2.6733 Y45.5344
G01 X2.6955 Y45.4464
G01 X2.7245 Y45.3656
G01 X2.7612 Y45.2879
G01 X2.8064 Y45.2121
G01 X2.8603 Y45.1390
G01 X2.9179 Y45.0754
G01 X2.9850 Y45.0143
G01 X3.0560 Y44.9617
G01 X3.1317 Y44.9163
G01 X3.2116 Y44.8785
G01 X3.2947 Y44.8488
G01 X3.3804 Y44.8273
G01 X3.4678 Y44.8143
G01 X3.5585 Y44.8101
G00 Z2.0000
G00 X3.5634 Y49.7902
G01 F60.00
G01 Z-0.0499
G01 F60.00
G01 X3.5486 Y49.7902
G01 X3.4653 Y49.7943
G01 X3.4507 Y49.7957
G01 X3.3609 Y49.8092
G01 X3.2657 Y49.8331
G01 X3.1802 Y49.8635
G01 X3.1666 Y49.8691
G01 X3.0846 Y49.9081
G01 X3.0035 Y49.9565
G01 X2.9944 Y49.9628
G01 X2.9274 Y50.0125
G01 X2.9160 Y50.0218
G01 X2.8489 Y50.0829
G01 X2.7854 Y50.1528
G01 X2.7785 Y50.1614
G01 X2.7288 Y50.2284
G01 X2.7225 Y50.2375
G01 X2.6759 Y50.3154
G01 X2.6708 Y50.3252
G01 X2.6563 Y50.3559
G01 X2.6563 Y50.0697
G01 X3.4793 Y49.2464
G01 X3.5560 Y49.2500
G01 X3.6467 Y49.2457
G01 X3.6613 Y49.2443
G01 X3.7511 Y49.2308
G01 X3.8463 Y49.2069
G01 X3.9318 Y49.1765
G01 X3.9454 Y49.1709
G01 X4.0208 Y49.1352
G01 X4.0306 Y49.1301
G01 X4.1116 Y49.0815
G01 X4.1846 Y49.0275
G01 X4.1960 Y49.0182
G01 X4.2578 Y48.9622
G01 X4.2657 Y48.9545
G01 X4.3290 Y48.8844
G01 X4.3854 Y48.8086
G01 X4.3914 Y48.7994
G01 X4.4361 Y48.7246
G01 X4.4412 Y48.7148
G01 X4.4557 Y48.6841
G01 X4.4557 Y50.3559
G01 X4.4412 Y50.3252
G01 X4.4361 Y50.3154
G01 X4.3895 Y50.2375
G01 X4.3832 Y50.2284
G01 X4.3335 Y50.1614
G01 X4.3266 Y50.1528
G01 X4.2631 Y50.0829
G01 X4.1960 Y50.0218
G01 X4.1846 Y50.0125
G01 X4.1176 Y49.9628
G01 X4.1085 Y49.9565
G01 X4.0274 Y49.9081
G01 X3.9454 Y49.8691
G01 X3.9318 Y49.8635
G01 X3.8463 Y49.8331
G01 X3.7583 Y49.8108
G01 X3.7438 Y49.8080
G01 X3.6540 Y49.7948
G01 X3.5634 Y49.7902
G00 Z2.0000
G00 X3.5585 Y49.8901
G01 F60.00
G01 Z-0.0499
G01 F60.00
G01 X3.6442 Y49.8943
G01 X3.7316 Y49.9073
G01 X3.8173 Y49.9288
G01 X3.9004 Y49.9585
G01 X3.9803 Y49.9963
G01 X4.0560 Y50.0417
G01 X4.1270 Y50.0943
G01 X4.1924 Y50.1536
G01 X4.2517 Y50.2190
G01 X4.3043 Y50.2900
G01 X4.3497 Y50.3657
G01 X4.3875 Y50.4456
G01 X4.4172 Y50.5287
G01 X4.4387 Y50.6144
G01 X4.4517 Y50.7018
G01 X4.4560 Y50.7900
G01 X4.4517 Y50.8782
G01 X4.4387 Y50.9656
G01 X4.4172 Y51.0513
G01 X4.3875 Y51.1344
G01 X4.3497 Y51.2143
G01 X4.3043 Y51.2900
G01 X4.2517 Y51.3610
G01 X4.1924 Y51.4264
G01 X4.1270 Y51.4857
G01 X4.0560 Y51.5383
G01 X3.9803 Y51.5837
G01 X3.9004 Y51.6215
G01 X3.8173 Y51.6512
G01 X3.7316 Y51.6727
G01 X3.6442 Y51.6857
G01 X3.5560 Y51.6900
G01 X3.4678 Y51.6857
G01 X3.3804 Y51.6727
G01 X3.2947 Y51.6512
G01 X3.2116 Y51.6215
G01 X3.1317 Y51.5837
G01 X3.0560 Y51.5383
G01 X2.9850 Y51.4857
G01 X2.9196 Y51.4264
G01 X2.8603 Y51.3610
G01 X2.8077 Y51.2900
G01 X2.7623 Y51.2143
G01 X2.7245 Y51.1344
G01 X2.6948 Y51.0513
G01 X2.6733 Y50.9656
G01 X2.6603 Y50.8782
G01 X2.6560 Y50.7900
G01 X2.6603 Y50.7018
G01 X2.6733 Y50.6144
G01 X2.6948 Y50.5287
G01 X2.7245 Y50.4456
G01 X2.7623 Y50.3657
G01 X2.8077 Y50.2900
G01 X2.8603 Y50.2190
G01 X2.9196 Y50.1536
G01 X2.9850 Y50.0943
G01 X3.0560 Y50.0417
G01 X3.1317 Y49.9963
G01 X3.2116 Y49.9585
G01 X3.2947 Y49.9288
G01 X3.3804 Y49.9073
G01 X3.4678 Y49.8943
G01 X3.5585 Y49.8901
G00 Z2.0000
G00 X2.6563 Y51.2241
G01 F60.00
G01 Z-0.0499
G01 F60.00
G01 X2.6708 Y51.2548
G01 X2.6759 Y51.2646
G01 X2.7225 Y51.3425
G01 X2.7288 Y51.3516
G01 X2.7785 Y51.4186
G01 X2.7854 Y51.4272
G01 X2.8489 Y51.4971
G01 X2.9160 Y51.5582
G01 X2.9274 Y51.5675
G01 X2.9944 Y51.6172
G01 X3.0035 Y51.6235
G01 X3.0846 Y51.6719
G01 X3.1666 Y51.7109
G01 X3.1802 Y51.7165
G01 X3.2657 Y51.7469
G01 X3.3609 Y51.7708
G01 X3.4507 Y51.7843
G01 X3.4653 Y51.7857
G01 X3.5560 Y51.7900
G01 X3.6467 Y51.7857
G01 X3.6613 Y51.7843
G01 X3.7511 Y51.7708
G01 X3.8463 Y51.7469
G01 X3.9318 Y51.7165
G01 X3.9454 Y51.7109
G01 X4.0274 Y51.6719
G01 X4.1085 Y51.6235
G01 X4.1176 Y51.6172
G01 X4.1846 Y51.5675
G01 X4.1960 Y51.5582
G01 X4.2631 Y51.4971
G01 X4.3266 Y51.4272
G01 X4.3335 Y51.4186
G01 X4.3832 Y51.3516
G01 X4.3895 Y51.3425
G01 X4.4361 Y51.2646
G01 X4.4412 Y51.2548
G01 X4.4557 Y51.2241
G01 X4.4557 Y52.3385
G01 X4.4424 Y52.3345
G01 X4.4316 Y52.3322
G01 X4.4170 Y52.3304
G01 X4.4060 Y52.3300
G01 X2.7060 Y52.3300
G01 X2.6913 Y52.3307
G01 X2.6804 Y52.3322
G01 X2.6696 Y52.3345
G01 X2.6563 Y52.3385
G01 X2.6563 Y51.2241
G00 Z2.0000
G00 X2.7060 Y52.4300
G01 F60.00
G01 Z-0.0499
G01 F60.00
G01 X4.4060 Y52.4300
G01 X4.4158 Y52.4310
G01 X4.4205 Y52.4322
G01 X4.4263 Y52.4343
G01 X4.4348 Y52.4391
G01 X4.4422 Y52.4455
G01 X4.4482 Y52.4533
G01 X4.4522 Y52.4609
G01 X4.4550 Y52.4702
G01 X4.4560 Y52.4800
G01 X4.4560 Y54.1800
G01 X4.4550 Y54.1898
G01 X4.4538 Y54.1945
G01 X4.4517 Y54.2003
G01 X4.4469 Y54.2088
G01 X4.4405 Y54.2162
G01 X4.4327 Y54.2222
G01 X4.4240 Y54.2266
G01 X4.4145 Y54.2293
G01 X4.4060 Y54.2300
G01 X2.7060 Y54.2300
G01 X2.6962 Y54.2290
G01 X2.6869 Y54.2262
G01 X2.6782 Y54.2216
G01 X2.6743 Y54.2187
G01 X2.6698 Y54.2145
G01 X2.6644 Y54.2078
G01 X2.6598 Y54.1991
G01 X2.6570 Y54.1898
G01 X2.6560 Y54.1800
G01 X2.6560 Y52.4788
G01 X2.6572 Y52.4690
G01 X2.6603 Y52.4597
G01 X2.6644 Y52.4522
G01 X2.6706 Y52.4446
G01 X2.6782 Y52.4384
G01 X2.6869 Y52.4338
G01 X2.6962 Y52.4310
G01 X2.7060 Y52.4300
G00 Z2.0000
G00 X2.6563 Y54.3215
G01 F60.00
G01 Z-0.0499
G01 F60.00
G01 X2.6696 Y54.3255
G01 X2.6804 Y54.3278
G01 X2.6913 Y54.3293
G01 X2.7060 Y54.3300
G01 X4.4060 Y54.3300
G01 X4.4207 Y54.3293
G01 X4.4316 Y54.3278
G01 X4.4424 Y54.3255
G01 X4.4557 Y54.3215
G01 X4.4557 Y62.2047
G01 X4.3149 Y62.2047
G01 X4.2631 Y62.1479
G01 X4.1960 Y62.0868
G01 X4.1846 Y62.0775
G01 X4.1116 Y62.0235
G01 X4.0338 Y61.9767
G01 X4.0208 Y61.9698
G01 X3.9387 Y61.9311
G01 X3.8533 Y61.9004
G01 X3.8392 Y61.8961
G01 X3.7511 Y61.8742
G01 X3.6540 Y61.8598
G01 X3.5560 Y61.8550
G01 X3.4653 Y61.8593
G01 X3.4543 Y61.8602
G01 X3.3682 Y61.8730
G01 X3.3537 Y61.8758
G01 X3.2657 Y61.8981
G01 X3.1802 Y61.9285
G01 X3.1666 Y61.9341
G01 X3.0846 Y61.9731
G01 X3.0066 Y62.0196
G01 X2.9974 Y62.0256
G01 X2.9274 Y62.0775
G01 X2.9160 Y62.0868
G01 X2.8489 Y62.1479
G01 X2.7854 Y62.2178
G01 X2.7785 Y62.2264
G01 X2.7288 Y62.2934
G01 X2.7225 Y62.3025
G01 X2.6759 Y62.3804
G01 X2.6708 Y62.3902
G01 X2.6563 Y62.4209
G01 X2.6563 Y54.3215
G00 Z2.0000
G00 X1.4570 Y49.7735
G01 F60.00
G01 Z-0.0499
G01 F60.00
G01 X1.4585 Y49.7452
G01 X1.4666 Y49.6919
G01 X1.4794 Y49.6407
G01 X1.4972 Y49.5910
G01 X1.5219 Y49.5389
G01 X1.5485 Y49.4947
G01 X1.5814 Y49.4504
G01 X1.6169 Y49.4114
G01 X2.6641 Y48.3639
G01 X2.6602 Y48.3370
G01 X2.6560 Y48.2512
G01 X2.6605 Y48.1606
G01 X2.6733 Y48.0744
G01 X2.6941 Y47.9911
G01 X2.7250 Y47.9045
G01 X2.7623 Y47.8257
G01 X2.8064 Y47.7521
G01 X2.8603 Y47.6790
G01 X2.9214 Y47.6119
G01 X2.9850 Y47.5543
G01 X3.0550 Y47.5024
G01 X3.1317 Y47.4563
G01 X3.2116 Y47.4185
G01 X3.2947 Y47.3888
G01 X3.3804 Y47.3673
G01 X3.4678 Y47.3543
G01 X3.5560 Y47.3500
G01 X3.6442 Y47.3543
G01 X3.7316 Y47.3673
G01 X3.8173 Y47.3888
G01 X3.9004 Y47.4185
G01 X3.9803 Y47.4563
G01 X4.0560 Y47.5017
G01 X4.1270 Y47.5543
G01 X4.1924 Y47.6136
G01 X4.2517 Y47.6790
G01 X4.3036 Y47.7490
G01 X4.3508 Y47.8279
G01 X4.3875 Y47.9056
G01 X4.4172 Y47.9887
G01 X4.4387 Y48.0744
G01 X4.4514 Y48.1593
G01 X4.4559 Y48.2525
G01 X4.4517 Y48.3382
G01 X4.4387 Y48.4256
G01 X4.4172 Y48.5113
G01 X4.3884 Y48.5921
G01 X4.3485 Y48.6764
G01 X4.3043 Y48.7500
G01 X4.2525 Y48.8200
G01 X4.1906 Y48.8881
G01 X4.1270 Y48.9457
G01 X4.0580 Y48.9969
G01 X3.9803 Y49.0437
G01 X3.8993 Y49.0819
G01 X3.8149 Y49.1119
G01 X3.7316 Y49.1327
G01 X3.6454 Y49.1455
G01 X3.5548 Y49.1500
G01 X3.4690 Y49.1458
G01 X3.4423 Y49.1420
G01 X2.5563 Y50.0283
G01 X2.5563 Y63.6167
G01 X3.4423 Y64.5030
G01 X3.4690 Y64.4992
G01 X3.5548 Y64.4950
G01 X3.6430 Y64.4992
G01 X3.7316 Y64.5123
G01 X3.8184 Y64.5341
G01 X3.9027 Y64.5645
G01 X3.9803 Y64.6013
G01 X4.0539 Y64.6454
G01 X4.1270 Y64.6993
G01 X4.1941 Y64.7604
G01 X4.2517 Y64.8240
G01 X4.3029 Y64.8930
G01 X4.3485 Y64.9686
G01 X4.3875 Y65.0506
G01 X4.4172 Y65.1337
G01 X4.4391 Y65.2218
G01 X4.4517 Y65.3068
G01 X4.4559 Y65.3925
G01 X4.4517 Y65.4832
G01 X4.4391 Y65.5682
G01 X4.4364 Y65.5800
G01 X8.6781 Y69.8214
G01 X8.7127 Y69.8596
G01 X8.7465 Y69.9048
G01 X8.7754 Y69.9533
G01 X8.7974 Y69.9999
G01 X8.8148 Y70.0484
G01 X8.8284 Y70.1019
G01 X8.8366 Y70.1565
G01 X8.8392 Y70.2093
G01 X8.8393 Y70.4427
G01 X9.1418 Y70.4427
G01 X9.1880 Y70.3920
G01 X9.2479 Y70.3375
G01 X9.3148 Y70.2877
G01 X9.3883 Y70.2434
G01 X9.4615 Y70.2087
G01 X9.5423 Y70.1796
G01 X9.6232 Y70.1593
G01 X9.7057 Y70.1471
G01 X9.7878 Y70.1430
G01 X9.8723 Y70.1471
G01 X9.9548 Y70.1593
G01 X10.0357 Y70.1796
G01 X10.1143 Y70.2077
G01 X10.1897 Y70.2434
G01 X10.2612 Y70.2863
G01 X10.3282 Y70.3359
G01 X10.3917 Y70.3937
G01 X10.4476 Y70.4557
G01 X10.4957 Y70.5208
G01 X10.5374 Y70.5902
G01 X10.5743 Y70.6677
G01 X10.6024 Y70.7463
G01 X10.6231 Y70.8296
G01 X10.6349 Y70.9097
G01 X10.6389 Y70.9905
G01 X10.6349 Y71.0763
G01 X10.6227 Y71.1588
G01 X10.6016 Y71.2421
G01 X10.5743 Y71.3183
G01 X10.5397 Y71.3915
G01 X10.4957 Y71.4652
G01 X10.4461 Y71.5322
G01 X10.3883 Y71.5957
G01 X10.3282 Y71.6501
G01 X10.2632 Y71.6983
G01 X10.1897 Y71.7426
G01 X10.1131 Y71.7788
G01 X10.0357 Y71.8064
G01 X9.9572 Y71.8261
G01 X9.8723 Y71.8389
G01 X9.7865 Y71.8429
G01 X9.7057 Y71.8389
G01 X9.6244 Y71.8269
G01 X9.5423 Y71.8064
G01 X9.4660 Y71.7792
G01 X9.3862 Y71.7414
G01 X9.3168 Y71.6997
G01 X9.2498 Y71.6501
G01 X9.1880 Y71.5940
G01 X9.1418 Y71.5433
G01 X8.2890 Y71.5433
G01 X8.2351 Y71.5406
G01 X8.1793 Y71.5321
G01 X8.1293 Y71.5196
G01 X8.0784 Y71.5014
G01 X8.0296 Y71.4783
G01 X7.9854 Y71.4518
G01 X7.9381 Y71.4167
G01 X7.8999 Y71.3821
G01 X7.8637 Y71.3421
G01 X7.8315 Y71.2987
G01 X7.8049 Y71.2545
G01 X7.7798 Y71.2013
G01 X7.7624 Y71.1527
G01 X7.7493 Y71.1003
G01 X7.7414 Y71.0469
G01 X7.7388 Y70.9942
G01 X7.7387 Y70.4384
G01 X3.5933 Y66.2932
G01 X3.5548 Y66.2950
G01 X3.4690 Y66.2908
G01 X3.3816 Y66.2779
G01 X3.2947 Y66.2562
G01 X3.2127 Y66.2269
G01 X3.1317 Y66.1887
G01 X3.0560 Y66.1433
G01 X2.9850 Y66.0907
G01 X2.9196 Y66.0314
G01 X2.8603 Y65.9660
G01 X2.8064 Y65.8929
G01 X2.7623 Y65.8193
G01 X2.7255 Y65.7417
G01 X2.6951 Y65.6574
G01 X2.6733 Y65.5706
G01 X2.6602 Y65.4820
G01 X2.6560 Y65.3938
G01 X2.6602 Y65.3080
G01 X2.6641 Y65.2811
G01 X1.6160 Y64.2328
G01 X1.5806 Y64.1936
G01 X1.5484 Y64.1502
G01 X1.5207 Y64.1039
G01 X1.4972 Y64.0540
G01 X1.4794 Y64.0043
G01 X1.4663 Y63.9519
G01 X1.4584 Y63.8985
G01 X1.4557 Y63.8446
G01 X1.4557 Y49.8004
G01 X1.4570 Y49.7735
G00 Z2.0000
G00 X9.7915 Y47.9181
G01 F60.00
G01 Z-0.0499
G01 F60.00
G01 X9.8723 Y47.9221
G01 X9.9548 Y47.9343
G01 X10.0357 Y47.9546
G01 X10.1143 Y47.9827
G01 X10.1897 Y48.0184
G01 X10.2612 Y48.0613
G01 X10.3282 Y48.1109
G01 X10.3900 Y48.1670
G01 X10.4461 Y48.2288
G01 X10.4957 Y48.2958
G01 X10.5386 Y48.3673
G01 X10.5743 Y48.4427
G01 X10.6024 Y48.5213
G01 X10.6227 Y48.6022
G01 X10.6349 Y48.6847
G01 X10.6390 Y48.7680
G01 X10.6349 Y48.8513
G01 X10.6227 Y48.9338
G01 X10.6024 Y49.0147
G01 X10.5743 Y49.0933
G01 X10.5386 Y49.1687
G01 X10.4957 Y49.2402
G01 X10.4461 Y49.3072
G01 X10.3900 Y49.3690
G01 X10.3282 Y49.4251
G01 X10.2612 Y49.4747
G01 X10.1897 Y49.5176
G01 X10.1143 Y49.5533
G01 X10.0357 Y49.5814
G01 X9.9548 Y49.6017
G01 X9.8723 Y49.6139
G01 X9.7890 Y49.6180
G01 X9.7057 Y49.6139
G01 X9.6232 Y49.6017
G01 X9.5423 Y49.5814
G01 X9.4637 Y49.5533
G01 X9.3883 Y49.5176
G01 X9.3168 Y49.4747
G01 X9.2498 Y49.4251
G01 X9.1880 Y49.3690
G01 X9.1319 Y49.3072
G01 X9.0823 Y49.2402
G01 X9.0394 Y49.1687
G01 X9.0037 Y49.0933
G01 X8.9756 Y49.0147
G01 X8.9553 Y48.9338
G01 X8.9431 Y48.8513
G01 X8.9390 Y48.7680
G01 X8.9431 Y48.6847
G01 X8.9553 Y48.6022
G01 X8.9756 Y48.5213
G01 X9.0037 Y48.4427
G01 X9.0394 Y48.3673
G01 X9.0823 Y48.2958
G01 X9.1319 Y48.2288
G01 X9.1880 Y48.1670
G01 X9.2498 Y48.1109
G01 X9.3168 Y48.0613
G01 X9.3883 Y48.0184
G01 X9.4637 Y47.9827
G01 X9.5423 Y47.9546
G01 X9.6232 Y47.9343
G01 X9.7057 Y47.9221
G01 X9.7915 Y47.9181
G00 Z2.0000
G00 X11.8567 Y50.1305
G01 F60.00
G01 Z-0.0499
G01 F60.00
G01 X11.8567 Y58.8856
G01 X9.3292 Y61.4129
G01 X9.2864 Y61.4602
G01 X9.2504 Y61.5084
G01 X9.2444 Y61.5177
G01 X9.2155 Y61.5662
G01 X9.1912 Y61.6171
G01 X9.1856 Y61.6307
G01 X9.1668 Y61.6839
G01 X9.1529 Y61.7386
G01 X9.1500 Y61.7531
G01 X9.1419 Y61.8090
G01 X9.1387 Y61.8727
G01 X9.1387 Y62.6815
G01 X9.1199 Y62.6987
G01 X9.1147 Y62.7039
G01 X9.0594 Y62.7648
G01 X9.0501 Y62.7761
G01 X9.0033 Y62.8392
G01 X8.9971 Y62.8483
G01 X8.9530 Y62.9219
G01 X8.9495 Y62.9284
G01 X8.9393 Y62.9500
G01 X8.9393 Y54.5779
G01 X10.2488 Y53.2681
G01 X10.2917 Y53.2208
G01 X10.3297 Y53.1695
G01 X10.3625 Y53.1148
G01 X10.3868 Y53.0639
G01 X10.3924 Y53.0502
G01 X10.4113 Y52.9970
G01 X10.4251 Y52.9423
G01 X10.4280 Y52.9278
G01 X10.4357 Y52.8757
G01 X10.4367 Y52.8646
G01 X10.4393 Y52.8083
G01 X10.4393 Y52.2580
G01 X10.5964 Y52.2578
G01 X10.6074 Y52.2569
G01 X10.6183 Y52.2551
G01 X10.6325 Y52.2515
G01 X10.6430 Y52.2479
G01 X10.6498 Y52.2451
G01 X10.6597 Y52.2403
G01 X10.6661 Y52.2367
G01 X10.6754 Y52.2306
G01 X10.6813 Y52.2263
G01 X10.6897 Y52.2191
G01 X10.6976 Y52.2114
G01 X10.7026 Y52.2060
G01 X10.7073 Y52.2003
G01 X10.7137 Y52.1913
G01 X10.7177 Y52.1851
G01 X10.7230 Y52.1754
G01 X10.7276 Y52.1654
G01 X10.7302 Y52.1585
G01 X10.7336 Y52.1480
G01 X10.7354 Y52.1409
G01 X10.7379 Y52.1264
G01 X10.7386 Y52.1190
G01 X10.7390 Y52.1080
G01 X10.7390 Y51.2776
G01 X11.7604 Y50.2563
G01 X11.7958 Y50.2172
G01 X11.8029 Y50.2087
G01 X11.8366 Y50.1634
G01 X11.8426 Y50.1541
G01 X11.8567 Y50.1305
G00 Z2.0000
G00 X9.7915 Y42.8381
G01 F60.00
G01 Z-0.0499
G01 F60.00
G01 X9.8723 Y42.8421
G01 X9.9548 Y42.8543
G01 X10.0357 Y42.8746
G01 X10.1143 Y42.9027
G01 X10.1897 Y42.9384
G01 X10.2612 Y42.9813
G01 X10.3282 Y43.0309
G01 X10.3900 Y43.0870
G01 X10.4461 Y43.1488
G01 X10.4957 Y43.2158
G01 X10.5386 Y43.2873
G01 X10.5743 Y43.3627
G01 X10.6024 Y43.4413
G01 X10.6227 Y43.5222
G01 X10.6349 Y43.6047
G01 X10.6390 Y43.6880
G01 X10.6349 Y43.7713
G01 X10.6227 Y43.8538
G01 X10.6024 Y43.9347
G01 X10.5743 Y44.0133
G01 X10.5386 Y44.0887
G01 X10.4957 Y44.1602
G01 X10.4461 Y44.2272
G01 X10.3900 Y44.2890
G01 X10.3282 Y44.3451
G01 X10.2612 Y44.3947
G01 X10.1897 Y44.4376
G01 X10.1143 Y44.4733
G01 X10.0357 Y44.5014
G01 X9.9548 Y44.5217
G01 X9.8723 Y44.5339
G01 X9.7890 Y44.5380
G01 X9.7057 Y44.5339
G01 X9.6232 Y44.5217
G01 X9.5423 Y44.5014
G01 X9.4637 Y44.4733
G01 X9.3883 Y44.4376
G01 X9.3168 Y44.3947
G01 X9.2498 Y44.3451
G01 X9.1880 Y44.2890
G01 X9.1319 Y44.2272
G01 X9.0823 Y44.1602
G01 X9.0394 Y44.0887
G01 X9.0037 Y44.0133
G01 X8.9756 Y43.9347
G01 X8.9553 Y43.8538
G01 X8.9431 Y43.7713
G01 X8.9390 Y43.6880
G01 X8.9431 Y43.6047
G01 X8.9553 Y43.5222
G01 X8.9756 Y43.4413
G01 X9.0037 Y43.3627
G01 X9.0394 Y43.2873
G01 X9.0823 Y43.2158
G01 X9.1319 Y43.1488
G01 X9.1880 Y43.0870
G01 X9.2498 Y43.0309
G01 X9.3168 Y42.9813
G01 X9.3883 Y42.9384
G01 X9.4637 Y42.9027
G01 X9.5423 Y42.8746
G01 X9.6232 Y42.8543
G01 X9.7057 Y42.8421
G01 X9.7915 Y42.8381
G00 Z2.0000
G00 X21.6263 Y45.8324
G01 F60.00
G01 Z-0.0499
G01 F60.00
