(G-CODE GENERATED BY FLATCAM v8.994 - www.flatcam.org - Version Date: 2020/11/7)

(Name: WB-B_Cu.gbr_iso_combined_cnc)
(Type: G-code from Geometry)
(Units: MM)

(Created on Thursday, 10 November 2022 at 21:38)

(This preprocessor is the default preprocessor used by FlatCAM.)
(It is made to work with MACH3 compatible motion controllers.)

(TOOL DIAMETER: 0.2176 mm)
(Feedrate_XY: 60.0 mm/min)
(Feedrate_Z: 60.0 mm/min)
(Feedrate rapids 1500.0 mm/min)

(Z_Cut: -0.0499 mm)
(Z_Move: 2.0 mm)
(Z Start: None mm)
(Z End: 15.0 mm)
(X,Y End: None mm)
(Steps per circle: 64)
(Preprocessor Geometry: default)

(X range:    1.3553 ...   86.6866  mm)
(Y range:    2.5397 ...   83.1704  mm)

(Spindle Speed: 0.0 RPM)
G21
G90
G94

G01 F60.00

M5
G00 Z15.0000
G00 X0.0000 Y0.0000
T1
M6    
(MSG, Change to Tool Dia = 0.2176)
M0
G00 Z15.0000

M03
G01 F60.00
G00 X11.6463 Y3.8100
G01 F60.00
G01 Z-0.0499
G01 F60.00
G01 X11.5931 Y3.7908
G01 X11.5420 Y3.7668
G01 X11.5290 Y3.7598
G01 X11.4806 Y3.7307
G01 X11.4352 Y3.6972
G01 X11.4238 Y3.6878
G01 X11.3821 Y3.6498
G01 X11.3392 Y3.6025
G01 X11.3012 Y3.5513
G01 X11.2721 Y3.5029
G01 X11.2651 Y3.4899
G01 X11.2411 Y3.4388
G01 X11.2220 Y3.3857
G01 X11.2177 Y3.3717
G01 X11.2041 Y3.3169
G01 X11.1957 Y3.2610
G01 X11.1942 Y3.2464
G01 X11.1916 Y3.1900
G01 X11.1942 Y3.1336
G01 X11.1957 Y3.1190
G01 X11.2041 Y3.0631
G01 X11.2177 Y3.0083
G01 X11.2220 Y2.9943
G01 X11.2385 Y2.9480
G01 X11.2441 Y2.9344
G01 X11.2684 Y2.8835
G01 X11.2973 Y2.8350
G01 X11.3055 Y2.8227
G01 X11.3392 Y2.7775
G01 X11.3770 Y2.7355
G01 X11.3874 Y2.7251
G01 X11.4294 Y2.6873
G01 X11.4776 Y2.6514
G01 X11.4869 Y2.6454
G01 X11.5290 Y2.6202
G01 X11.5420 Y2.6132
G01 X11.5931 Y2.5892
G01 X11.6531 Y2.5677
G01 X11.7079 Y2.5539
G01 X11.7223 Y2.5510
G01 X11.7782 Y2.5429
G01 X11.8382 Y2.5398
G01 X13.0422 Y2.5397
G01 X13.0986 Y2.5423
G01 X13.1132 Y2.5438
G01 X13.1691 Y2.5522
G01 X13.2310 Y2.5677
G01 X13.2910 Y2.5892
G01 X13.3455 Y2.6148
G01 X13.3551 Y2.6202
G01 X13.3972 Y2.6454
G01 X13.4095 Y2.6536
G01 X13.4547 Y2.6873
G01 X13.5020 Y2.7302
G01 X17.3817 Y6.6099
G01 X17.4246 Y6.6572
G01 X17.4583 Y6.7024
G01 X17.4665 Y6.7147
G01 X17.4954 Y6.7632
G01 X17.5197 Y6.8141
G01 X17.5253 Y6.8277
G01 X17.5442 Y6.8809
G01 X17.5580 Y6.9357
G01 X17.5609 Y6.9501
G01 X17.5690 Y7.0060
G01 X17.5721 Y7.0660
G01 X17.5722 Y11.7120
G01 X17.6012 Y11.7336
G01 X17.6099 Y11.7405
G01 X17.6829 Y11.8068
G01 X17.6907 Y11.8147
G01 X17.7544 Y11.8850
G01 X17.7613 Y11.8937
G01 X17.8199 Y11.9730
G01 X17.8707 Y12.0575
G01 X17.8761 Y12.0672
G01 X17.9167 Y12.1530
G01 X17.9223 Y12.1666
G01 X17.9554 Y12.2595
G01 X17.9795 Y12.3551
G01 X17.9824 Y12.3696
G01 X17.9967 Y12.4671
G01 X18.0019 Y12.5730
G01 X17.9967 Y12.6789
G01 X17.9824 Y12.7764
G01 X17.9795 Y12.7909
G01 X17.9554 Y12.8865
G01 X17.9223 Y12.9794
G01 X17.9167 Y12.9930
G01 X17.8744 Y13.0821
G01 X17.8238 Y13.1668
G01 X17.8156 Y13.1790
G01 X17.7568 Y13.2581
G01 X17.6907 Y13.3313
G01 X17.6802 Y13.3418
G01 X17.6070 Y13.4079
G01 X17.5279 Y13.4667
G01 X17.5157 Y13.4749
G01 X17.4310 Y13.5255
G01 X17.3419 Y13.5678
G01 X17.3283 Y13.5734
G01 X17.2424 Y13.6042
G01 X17.2283 Y13.6085
G01 X17.1326 Y13.6322
G01 X17.0278 Y13.6478
G01 X16.9293 Y13.6528
G01 X16.9145 Y13.6528
G01 X16.8160 Y13.6478
G01 X16.7185 Y13.6335
G01 X16.7040 Y13.6306
G01 X16.6084 Y13.6065
G01 X16.5086 Y13.5708
G01 X16.4194 Y13.5288
G01 X16.4064 Y13.5218
G01 X16.3219 Y13.4710
G01 X16.2426 Y13.4124
G01 X16.2312 Y13.4030
G01 X16.1582 Y13.3367
G01 X16.0870 Y13.2581
G01 X16.0282 Y13.1790
G01 X16.0200 Y13.1668
G01 X15.9694 Y13.0821
G01 X15.9271 Y12.9930
G01 X15.9215 Y12.9794
G01 X15.8884 Y12.8865
G01 X15.8627 Y12.7837
G01 X15.8471 Y12.6789
G01 X15.8421 Y12.5804
G01 X15.8421 Y12.5656
G01 X15.8471 Y12.4671
G01 X15.8614 Y12.3696
G01 X15.8643 Y12.3551
G01 X15.8884 Y12.2595
G01 X15.9227 Y12.1631
G01 X15.9271 Y12.1530
G01 X15.9661 Y12.0705
G01 X15.9731 Y12.0575
G01 X16.0239 Y11.9730
G01 X16.0847 Y11.8907
G01 X16.0919 Y11.8823
G01 X16.1531 Y11.8147
G01 X16.1609 Y11.8068
G01 X16.2339 Y11.7405
G01 X16.2426 Y11.7336
G01 X16.2716 Y11.7120
G01 X16.2716 Y7.3390
G01 X12.7729 Y3.8403
G01 X12.4322 Y3.8403
G01 X12.4453 Y3.8514
G01 X12.4530 Y3.8593
G01 X12.4579 Y3.8648
G01 X12.4645 Y3.8736
G01 X12.4686 Y3.8798
G01 X12.4759 Y3.8926
G01 X12.4818 Y3.9060
G01 X12.4854 Y3.9165
G01 X12.4874 Y3.9236
G01 X12.4897 Y3.9344
G01 X12.4908 Y3.9416
G01 X12.4917 Y3.9526
G01 X12.4919 Y3.9600
G01 X12.4917 Y4.9674
G01 X12.4903 Y4.9820
G01 X12.4874 Y4.9964
G01 X12.4831 Y5.0105
G01 X12.4790 Y5.0208
G01 X12.4759 Y5.0274
G01 X12.4686 Y5.0402
G01 X12.4624 Y5.0494
G01 X12.4579 Y5.0552
G01 X12.4480 Y5.0661
G01 X12.4371 Y5.0760
G01 X12.4283 Y5.0826
G01 X12.4158 Y5.0905
G01 X12.4027 Y5.0971
G01 X12.3924 Y5.1012
G01 X12.3819 Y5.1046
G01 X12.3675 Y5.1078
G01 X12.3566 Y5.1093
G01 X12.3419 Y5.1100
G01 X11.3382 Y5.1100
G01 X11.3272 Y5.1093
G01 X11.3163 Y5.1078
G01 X11.3055 Y5.1055
G01 X11.2914 Y5.1012
G01 X11.2811 Y5.0971
G01 X11.2680 Y5.0905
G01 X11.2586 Y5.0847
G01 X11.2496 Y5.0783
G01 X11.2385 Y5.0686
G01 X11.2308 Y5.0607
G01 X11.2259 Y5.0552
G01 X11.2172 Y5.0433
G01 X11.2096 Y5.0307
G01 X11.2033 Y5.0174
G01 X11.2007 Y5.0105
G01 X11.1973 Y5.0000
G01 X11.1955 Y4.9929
G01 X11.1935 Y4.9820
G01 X11.1921 Y4.9674
G01 X11.1919 Y3.9600
G01 X11.1923 Y3.9490
G01 X11.1935 Y3.9380
G01 X11.1955 Y3.9271
G01 X11.1984 Y3.9165
G01 X11.2007 Y3.9095
G01 X11.2048 Y3.8992
G01 X11.2079 Y3.8926
G01 X11.2132 Y3.8829
G01 X11.2193 Y3.8736
G01 X11.2259 Y3.8648
G01 X11.2308 Y3.8593
G01 X11.2385 Y3.8514
G01 X11.2439 Y3.8464
G01 X11.2525 Y3.8395
G01 X11.2617 Y3.8333
G01 X11.2712 Y3.8277
G01 X11.2811 Y3.8229
G01 X11.2879 Y3.8201
G01 X11.2984 Y3.8165
G01 X11.3055 Y3.8145
G01 X11.3199 Y3.8116
G01 X11.3272 Y3.8107
G01 X11.3382 Y3.8100
G01 X11.6463 Y3.8100
G00 Z2.0000
G00 X12.3419 Y3.9100
G01 F60.00
G01 Z-0.0499
G01 F60.00
G01 X12.3517 Y3.9110
G01 X12.3599 Y3.9134
G01 X12.3686 Y3.9178
G01 X12.3764 Y3.9238
G01 X12.3828 Y3.9312
G01 X12.3876 Y3.9397
G01 X12.3907 Y3.9490
G01 X12.3919 Y3.9588
G01 X12.3919 Y4.9612
G01 X12.3907 Y4.9710
G01 X12.3881 Y4.9791
G01 X12.3841 Y4.9867
G01 X12.3781 Y4.9945
G01 X12.3707 Y5.0009
G01 X12.3655 Y5.0041
G01 X12.3610 Y5.0062
G01 X12.3517 Y5.0090
G01 X12.3419 Y5.0100
G01 X11.3407 Y5.0100
G01 X11.3309 Y5.0088
G01 X11.3228 Y5.0062
G01 X11.3141 Y5.0016
G01 X11.3074 Y4.9962
G01 X11.3010 Y4.9888
G01 X11.2984 Y4.9846
G01 X11.2957 Y4.9791
G01 X11.2929 Y4.9698
G01 X11.2919 Y4.9600
G01 X11.2919 Y3.9588
G01 X11.2929 Y3.9502
G01 X11.2957 Y3.9409
G01 X11.3003 Y3.9322
G01 X11.3057 Y3.9255
G01 X11.3131 Y3.9191
G01 X11.3216 Y3.9143
G01 X11.3309 Y3.9112
G01 X11.3407 Y3.9100
G01 X12.3419 Y3.9100
G00 Z2.0000
G00 X17.8058 Y3.8100
G01 F60.00
G01 Z-0.0499
G01 F60.00
G01 X17.7526 Y3.7908
G01 X17.6949 Y3.7635
G01 X17.6401 Y3.7307
G01 X17.5947 Y3.6972
G01 X17.5833 Y3.6878
G01 X17.5469 Y3.6549
G01 X17.5365 Y3.6445
G01 X17.4987 Y3.6025
G01 X17.4607 Y3.5513
G01 X17.4279 Y3.4965
G01 X17.4006 Y3.4388
G01 X17.3791 Y3.3788
G01 X17.3653 Y3.3240
G01 X17.3624 Y3.3096
G01 X17.3552 Y3.2610
G01 X17.3537 Y3.2464
G01 X17.3511 Y3.1900
G01 X17.3543 Y3.1263
G01 X17.3636 Y3.0631
G01 X17.3791 Y3.0012
G01 X17.4006 Y2.9412
G01 X17.4246 Y2.8901
G01 X17.4316 Y2.8771
G01 X17.4568 Y2.8350
G01 X17.4650 Y2.8227
G01 X17.4987 Y2.7775
G01 X17.5416 Y2.7302
G01 X17.5889 Y2.6873
G01 X17.6341 Y2.6536
G01 X17.6464 Y2.6454
G01 X17.6885 Y2.6202
G01 X17.7015 Y2.6132
G01 X17.7526 Y2.5892
G01 X17.8126 Y2.5677
G01 X17.8745 Y2.5522
G01 X17.9377 Y2.5429
G01 X18.0014 Y2.5397
G01 X24.1609 Y2.5397
G01 X24.2210 Y2.5426
G01 X24.2319 Y2.5438
G01 X24.2878 Y2.5522
G01 X24.3426 Y2.5658
G01 X24.3566 Y2.5701
G01 X24.4029 Y2.5866
G01 X24.4165 Y2.5922
G01 X24.4674 Y2.6165
G01 X24.5222 Y2.6493
G01 X24.5734 Y2.6873
G01 X24.6207 Y2.7302
G01 X24.6636 Y2.7775
G01 X24.6973 Y2.8227
G01 X24.7055 Y2.8350
G01 X24.7307 Y2.8771
G01 X24.7377 Y2.8901
G01 X24.7617 Y2.9412
G01 X24.7832 Y3.0012
G01 X24.7987 Y3.0631
G01 X24.8076 Y3.1226
G01 X24.8086 Y3.1336
G01 X24.8112 Y3.1900
G01 X24.8086 Y3.2464
G01 X24.8071 Y3.2610
G01 X24.7999 Y3.3096
G01 X24.7970 Y3.3240
G01 X24.7832 Y3.3788
G01 X24.7617 Y3.4388
G01 X24.7344 Y3.4965
G01 X24.7016 Y3.5513
G01 X24.6636 Y3.6025
G01 X24.6258 Y3.6445
G01 X24.6154 Y3.6549
G01 X24.5790 Y3.6878
G01 X24.5676 Y3.6972
G01 X24.5222 Y3.7307
G01 X24.4674 Y3.7635
G01 X24.4097 Y3.7908
G01 X24.3565 Y3.8100
G01 X24.6646 Y3.8100
G01 X24.6756 Y3.8107
G01 X24.6865 Y3.8122
G01 X24.6973 Y3.8145
G01 X24.7080 Y3.8176
G01 X24.7217 Y3.8229
G01 X24.7316 Y3.8277
G01 X24.7411 Y3.8333
G01 X24.7503 Y3.8395
G01 X24.7589 Y3.8464
G01 X24.7670 Y3.8539
G01 X24.7745 Y3.8620
G01 X24.7814 Y3.8706
G01 X24.7876 Y3.8798
G01 X24.7932 Y3.8893
G01 X24.7980 Y3.8992
G01 X24.8033 Y3.9129
G01 X24.8064 Y3.9236
G01 X24.8087 Y3.9344
G01 X24.8102 Y3.9453
G01 X24.8109 Y3.9563
G01 X24.8112 Y4.4600
G01 X24.8112 Y38.8141
G01 X26.2353 Y40.2382
G01 X26.2756 Y40.2829
G01 X26.3093 Y40.3281
G01 X26.3175 Y40.3404
G01 X26.3464 Y40.3889
G01 X26.3737 Y40.4466
G01 X26.3952 Y40.5066
G01 X26.4107 Y40.5685
G01 X26.4191 Y40.6244
G01 X26.4206 Y40.6390
G01 X26.4232 Y40.6954
G01 X26.4232 Y41.8107
G01 X29.0037 Y44.3912
G01 X29.0573 Y44.4106
G01 X29.1154 Y44.4379
G01 X29.1284 Y44.4448
G01 X29.1772 Y44.4741
G01 X29.1895 Y44.4823
G01 X29.2410 Y44.5207
G01 X29.2888 Y44.5637
G01 X29.2967 Y44.5714
G01 X29.3422 Y44.6219
G01 X29.3849 Y44.6794
G01 X29.4217 Y44.7409
G01 X29.4523 Y44.8056
G01 X29.4765 Y44.8731
G01 X29.4939 Y44.9426
G01 X29.5044 Y45.0134
G01 X29.5079 Y45.0850
G01 X29.5049 Y45.1492
G01 X29.5035 Y45.1639
G01 X29.4939 Y45.2274
G01 X29.4784 Y45.2898
G01 X29.4742 Y45.3039
G01 X29.4523 Y45.3644
G01 X29.4250 Y45.4225
G01 X29.4181 Y45.4355
G01 X29.3849 Y45.4906
G01 X29.3467 Y45.5423
G01 X29.3374 Y45.5537
G01 X29.2941 Y45.6012
G01 X29.2466 Y45.6445
G01 X29.2352 Y45.6538
G01 X29.1835 Y45.6920
G01 X29.1220 Y45.7288
G01 X29.0640 Y45.7564
G01 X29.0504 Y45.7621
G01 X28.9898 Y45.7836
G01 X28.9275 Y45.7994
G01 X28.9131 Y45.8022
G01 X28.8495 Y45.8115
G01 X28.7853 Y45.8148
G01 X28.7705 Y45.8148
G01 X28.7063 Y45.8115
G01 X28.6427 Y45.8022
G01 X28.6283 Y45.7994
G01 X28.5660 Y45.7836
G01 X28.5054 Y45.7621
G01 X28.4918 Y45.7564
G01 X28.4338 Y45.7288
G01 X28.3754 Y45.6940
G01 X28.3663 Y45.6877
G01 X28.3148 Y45.6493
G01 X28.2670 Y45.6063
G01 X28.2566 Y45.5959
G01 X28.2184 Y45.5537
G01 X28.2091 Y45.5423
G01 X28.1709 Y45.4906
G01 X28.1341 Y45.4291
G01 X28.1035 Y45.3644
G01 X28.0841 Y45.3108
G01 X25.3131 Y42.5398
G01 X25.2751 Y42.4981
G01 X25.2679 Y42.4896
G01 X25.2343 Y42.4443
G01 X25.2229 Y42.4259
G01 X25.2229 Y45.6904
G01 X29.0037 Y49.4712
G01 X29.0573 Y49.4906
G01 X29.1154 Y49.5179
G01 X29.1284 Y49.5248
G01 X29.1772 Y49.5541
G01 X29.1895 Y49.5623
G01 X29.2410 Y49.6007
G01 X29.2888 Y49.6437
G01 X29.2967 Y49.6514
G01 X29.3422 Y49.7019
G01 X29.3849 Y49.7594
G01 X29.4217 Y49.8209
G01 X29.4523 Y49.8856
G01 X29.4765 Y49.9531
G01 X29.4939 Y50.0226
G01 X29.5044 Y50.0934
G01 X29.5077 Y50.1576
G01 X29.5079 Y50.1687
G01 X29.5044 Y50.2366
G01 X29.4951 Y50.3002
G01 X29.4923 Y50.3146
G01 X29.4765 Y50.3769
G01 X29.4550 Y50.4375
G01 X29.4493 Y50.4511
G01 X29.4217 Y50.5091
G01 X29.3888 Y50.5643
G01 X29.3806 Y50.5766
G01 X29.3422 Y50.6281
G01 X29.2992 Y50.6759
G01 X29.2888 Y50.6863
G01 X29.2410 Y50.7293
G01 X29.1895 Y50.7677
G01 X29.1772 Y50.7759
G01 X29.1220 Y50.8088
G01 X29.0640 Y50.8364
G01 X29.0504 Y50.8421
G01 X28.9898 Y50.8636
G01 X28.9203 Y50.8810
G01 X28.8568 Y50.8906
G01 X28.8421 Y50.8920
G01 X28.7779 Y50.8950
G01 X28.7137 Y50.8920
G01 X28.6990 Y50.8906
G01 X28.6355 Y50.8810
G01 X28.5731 Y50.8655
G01 X28.5590 Y50.8613
G01 X28.4985 Y50.8394
G01 X28.4404 Y50.8121
G01 X28.4274 Y50.8052
G01 X28.3786 Y50.7759
G01 X28.3693 Y50.7699
G01 X28.3148 Y50.7293
G01 X28.2670 Y50.6863
G01 X28.2566 Y50.6759
G01 X28.2184 Y50.6337
G01 X28.2091 Y50.6223
G01 X28.1709 Y50.5706
G01 X28.1341 Y50.5091
G01 X28.1035 Y50.4444
G01 X28.0841 Y50.3908
G01 X24.1128 Y46.4195
G01 X24.0748 Y46.3778
G01 X24.0676 Y46.3693
G01 X24.0340 Y46.3240
G01 X24.0226 Y46.3056
G01 X24.0226 Y51.3811
G01 X28.0727 Y55.4312
G01 X28.0635 Y55.3946
G01 X28.0613 Y55.3838
G01 X28.0523 Y55.3239
G01 X28.0511 Y55.3129
G01 X28.0479 Y55.2450
G01 X28.0511 Y55.1771
G01 X28.0523 Y55.1661
G01 X28.0607 Y55.1098
G01 X28.0635 Y55.0954
G01 X28.0793 Y55.0331
G01 X28.1008 Y54.9725
G01 X28.1049 Y54.9623
G01 X28.1341 Y54.9009
G01 X28.1670 Y54.8457
G01 X28.1752 Y54.8334
G01 X28.2091 Y54.7877
G01 X28.2184 Y54.7763
G01 X28.2617 Y54.7288
G01 X28.3148 Y54.6807
G01 X28.3723 Y54.6380
G01 X28.4306 Y54.6030
G01 X28.4404 Y54.5979
G01 X28.4918 Y54.5736
G01 X28.5054 Y54.5679
G01 X28.5660 Y54.5464
G01 X28.6355 Y54.5290
G01 X28.7063 Y54.5185
G01 X28.7705 Y54.5152
G01 X28.7853 Y54.5152
G01 X28.8421 Y54.5180
G01 X28.8568 Y54.5194
G01 X28.9203 Y54.5290
G01 X28.9898 Y54.5464
G01 X29.0573 Y54.5706
G01 X29.1154 Y54.5979
G01 X29.1284 Y54.6048
G01 X29.1772 Y54.6341
G01 X29.1895 Y54.6423
G01 X29.2410 Y54.6807
G01 X29.2941 Y54.7288
G01 X29.3422 Y54.7819
G01 X29.3806 Y54.8334
G01 X29.3888 Y54.8457
G01 X29.4181 Y54.8945
G01 X29.4250 Y54.9075
G01 X29.4523 Y54.9656
G01 X29.4765 Y55.0331
G01 X29.4939 Y55.1026
G01 X29.5035 Y55.1661
G01 X29.5049 Y55.1808
G01 X29.5077 Y55.2376
G01 X29.5077 Y55.2524
G01 X29.5044 Y55.3166
G01 X29.4939 Y55.3874
G01 X29.4765 Y55.4569
G01 X29.4550 Y55.5175
G01 X29.4493 Y55.5311
G01 X29.4250 Y55.5825
G01 X29.4199 Y55.5923
G01 X29.3849 Y55.6506
G01 X29.3422 Y55.7081
G01 X29.2941 Y55.7612
G01 X29.2466 Y55.8045
G01 X29.2352 Y55.8138
G01 X29.1895 Y55.8477
G01 X29.1772 Y55.8559
G01 X29.1220 Y55.8888
G01 X29.0606 Y55.9180
G01 X29.0504 Y55.9221
G01 X28.9968 Y55.9413
G01 X28.9827 Y55.9455
G01 X28.9203 Y55.9610
G01 X28.8568 Y55.9706
G01 X28.8458 Y55.9718
G01 X28.7779 Y55.9750
G01 X28.7100 Y55.9718
G01 X28.6990 Y55.9706
G01 X28.6391 Y55.9616
G01 X28.6283 Y55.9594
G01 X28.5917 Y55.9502
G01 X33.2498 Y60.6083
G01 X33.2927 Y60.6556
G01 X33.3307 Y60.7068
G01 X33.3598 Y60.7552
G01 X33.3668 Y60.7682
G01 X33.3908 Y60.8193
G01 X33.4123 Y60.8793
G01 X33.4261 Y60.9341
G01 X33.4290 Y60.9485
G01 X33.4371 Y61.0044
G01 X33.4402 Y61.0644
G01 X33.4403 Y67.5068
G01 X35.8357 Y69.9023
G01 X35.8612 Y69.9010
G01 X35.8686 Y69.9010
G01 X35.9543 Y69.9053
G01 X35.9653 Y69.9065
G01 X36.0466 Y69.9186
G01 X36.0574 Y69.9209
G01 X36.1407 Y69.9419
G01 X36.2250 Y69.9719
G01 X36.2352 Y69.9763
G01 X36.3127 Y70.0132
G01 X36.3927 Y70.0611
G01 X36.4676 Y70.1166
G01 X36.5340 Y70.1767
G01 X36.5417 Y70.1846
G01 X36.5993 Y70.2483
G01 X36.6506 Y70.3172
G01 X36.6587 Y70.3294
G01 X36.6991 Y70.3968
G01 X36.7060 Y70.4097
G01 X36.7426 Y70.4875
G01 X36.7740 Y70.5752
G01 X36.7966 Y70.6657
G01 X36.8103 Y70.7579
G01 X36.8147 Y70.8436
G01 X36.8147 Y70.8584
G01 X36.8103 Y70.9441
G01 X36.7966 Y71.0363
G01 X36.7760 Y71.1197
G01 X36.7717 Y71.1338
G01 X36.7426 Y71.2145
G01 X36.7060 Y71.2923
G01 X36.6991 Y71.3052
G01 X36.6548 Y71.3788
G01 X36.6038 Y71.4479
G01 X36.5945 Y71.4592
G01 X36.5367 Y71.5228
G01 X36.4731 Y71.5806
G01 X36.4618 Y71.5899
G01 X36.3927 Y71.6409
G01 X36.3191 Y71.6852
G01 X36.3062 Y71.6921
G01 X36.2284 Y71.7287
G01 X36.1407 Y71.7601
G01 X36.0574 Y71.7811
G01 X36.0430 Y71.7840
G01 X35.9580 Y71.7964
G01 X35.8723 Y71.8008
G01 X35.8575 Y71.8008
G01 X35.7718 Y71.7964
G01 X35.6868 Y71.7840
G01 X35.6724 Y71.7811
G01 X35.5891 Y71.7601
G01 X35.5082 Y71.7313
G01 X35.4946 Y71.7257
G01 X35.4236 Y71.6921
G01 X35.4138 Y71.6870
G01 X35.3371 Y71.6409
G01 X35.2680 Y71.5899
G01 X35.2567 Y71.5806
G01 X35.1931 Y71.5228
G01 X35.1353 Y71.4592
G01 X35.1260 Y71.4479
G01 X35.0750 Y71.3788
G01 X35.0289 Y71.3021
G01 X35.0238 Y71.2923
G01 X34.9902 Y71.2213
G01 X34.9846 Y71.2077
G01 X34.9558 Y71.1268
G01 X34.9339 Y71.0399
G01 X34.9319 Y71.0291
G01 X34.9204 Y70.9514
G01 X34.9192 Y70.9404
G01 X34.9149 Y70.8547
G01 X34.9149 Y70.8473
G01 X34.9162 Y70.8218
G01 X32.3302 Y68.2359
G01 X32.2922 Y68.1942
G01 X32.2828 Y68.1828
G01 X32.2493 Y68.1374
G01 X32.2165 Y68.0826
G01 X32.1892 Y68.0249
G01 X32.1701 Y67.9718
G01 X32.1658 Y67.9578
G01 X32.1539 Y67.9101
G01 X32.1510 Y67.8957
G01 X32.1429 Y67.8398
G01 X32.1398 Y67.7798
G01 X32.1397 Y61.3374
G01 X22.9125 Y52.1102
G01 X22.8696 Y52.0629
G01 X22.8359 Y52.0177
G01 X22.8277 Y52.0054
G01 X22.8025 Y51.9633
G01 X22.7955 Y51.9503
G01 X22.7745 Y51.9060
G01 X22.7689 Y51.8924
G01 X22.7500 Y51.8392
G01 X22.7362 Y51.7844
G01 X22.7333 Y51.7700
G01 X22.7252 Y51.7141
G01 X22.7220 Y51.6504
G01 X22.7220 Y42.4841
G01 X20.5093 Y40.2714
G01 X20.4690 Y40.2267
G01 X20.4310 Y40.1755
G01 X20.3982 Y40.1207
G01 X20.3724 Y40.0664
G01 X20.3683 Y40.0562
G01 X20.3494 Y40.0030
G01 X20.3339 Y39.9411
G01 X20.3246 Y39.8779
G01 X20.3215 Y39.8179
G01 X20.3214 Y36.2074
G01 X20.3078 Y36.2115
G01 X20.2970 Y36.2138
G01 X20.2861 Y36.2153
G01 X20.2751 Y36.2160
G01 X19.9917 Y36.2160
G01 X19.9917 Y41.3096
G01 X21.4315 Y42.7494
G01 X21.4695 Y42.7911
G01 X21.4789 Y42.8025
G01 X21.5081 Y42.8419
G01 X21.5163 Y42.8542
G01 X21.5452 Y42.9027
G01 X21.5725 Y42.9604
G01 X21.5940 Y43.0204
G01 X21.6078 Y43.0752
G01 X21.6107 Y43.0896
G01 X21.6188 Y43.1455
G01 X21.6220 Y43.2092
G01 X21.6220 Y52.7051
G01 X31.3239 Y62.4070
G01 X31.3668 Y62.4543
G01 X31.4005 Y62.4995
G01 X31.4087 Y62.5118
G01 X31.4339 Y62.5539
G01 X31.4409 Y62.5669
G01 X31.4649 Y62.6180
G01 X31.4864 Y62.6780
G01 X31.5002 Y62.7328
G01 X31.5031 Y62.7472
G01 X31.5112 Y62.8031
G01 X31.5143 Y62.8631
G01 X31.5144 Y68.1209
G01 X35.8357 Y72.4423
G01 X35.8612 Y72.4410
G01 X35.8686 Y72.4410
G01 X35.9543 Y72.4453
G01 X35.9653 Y72.4465
G01 X36.0466 Y72.4586
G01 X36.0574 Y72.4609
G01 X36.1407 Y72.4819
G01 X36.2250 Y72.5119
G01 X36.2352 Y72.5163
G01 X36.3127 Y72.5532
G01 X36.3927 Y72.6011
G01 X36.4676 Y72.6566
G01 X36.5367 Y72.7192
G01 X36.5993 Y72.7883
G01 X36.6506 Y72.8572
G01 X36.6587 Y72.8694
G01 X36.6991 Y72.9368
G01 X36.7060 Y72.9497
G01 X36.7426 Y73.0275
G01 X36.7740 Y73.1152
G01 X36.7966 Y73.2057
G01 X36.8099 Y73.2942
G01 X36.8109 Y73.3052
G01 X36.8147 Y73.3836
G01 X36.8147 Y73.3984
G01 X36.8103 Y73.4841
G01 X36.7966 Y73.5763
G01 X36.7760 Y73.6597
G01 X36.7717 Y73.6738
G01 X36.7426 Y73.7545
G01 X36.7027 Y73.8388
G01 X36.6548 Y73.9188
G01 X36.6038 Y73.9879
G01 X36.5945 Y73.9992
G01 X36.5367 Y74.0628
G01 X36.4731 Y74.1206
G01 X36.4618 Y74.1299
G01 X36.3927 Y74.1809
G01 X36.3191 Y74.2252
G01 X36.3062 Y74.2321
G01 X36.2284 Y74.2687
G01 X36.1477 Y74.2978
G01 X36.1336 Y74.3021
G01 X36.0502 Y74.3227
G01 X35.9653 Y74.3355
G01 X35.9507 Y74.3370
G01 X35.8723 Y74.3408
G01 X35.8575 Y74.3408
G01 X35.7718 Y74.3364
G01 X35.6868 Y74.3240
G01 X35.6724 Y74.3211
G01 X35.5891 Y74.3001
G01 X35.5014 Y74.2687
G01 X35.4236 Y74.2321
G01 X35.4107 Y74.2252
G01 X35.3433 Y74.1848
G01 X35.3341 Y74.1788
G01 X35.2680 Y74.1299
G01 X35.2567 Y74.1206
G01 X35.1931 Y74.0628
G01 X35.1353 Y73.9992
G01 X35.1260 Y73.9879
G01 X35.0750 Y73.9188
G01 X35.0307 Y73.8452
G01 X35.0254 Y73.8356
G01 X34.9872 Y73.7545
G01 X34.9581 Y73.6738
G01 X34.9538 Y73.6597
G01 X34.9339 Y73.5799
G01 X34.9319 Y73.5691
G01 X34.9204 Y73.4914
G01 X34.9192 Y73.4804
G01 X34.9149 Y73.3947
G01 X34.9149 Y73.3873
G01 X34.9162 Y73.3618
G01 X30.4043 Y68.8500
G01 X30.3663 Y68.8083
G01 X30.3591 Y68.7998
G01 X30.3255 Y68.7545
G01 X30.3141 Y68.7361
G01 X30.3141 Y69.4606
G01 X35.8357 Y74.9823
G01 X35.8612 Y74.9810
G01 X35.8686 Y74.9810
G01 X35.9543 Y74.9853
G01 X35.9653 Y74.9865
G01 X36.0466 Y74.9986
G01 X36.0574 Y75.0009
G01 X36.1407 Y75.0219
G01 X36.2216 Y75.0507
G01 X36.2318 Y75.0548
G01 X36.3062 Y75.0899
G01 X36.3191 Y75.0968
G01 X36.3927 Y75.1411
G01 X36.4618 Y75.1921
G01 X36.4731 Y75.2014
G01 X36.5367 Y75.2592
G01 X36.5993 Y75.3283
G01 X36.6548 Y75.4032
G01 X36.7027 Y75.4832
G01 X36.7426 Y75.5675
G01 X36.7717 Y75.6482
G01 X36.7760 Y75.6623
G01 X36.7950 Y75.7385
G01 X36.7979 Y75.7529
G01 X36.8103 Y75.8379
G01 X36.8149 Y75.9310
G01 X36.8103 Y76.0241
G01 X36.7979 Y76.1091
G01 X36.7950 Y76.1235
G01 X36.7760 Y76.1997
G01 X36.7717 Y76.2138
G01 X36.7426 Y76.2945
G01 X36.7027 Y76.3788
G01 X36.6548 Y76.4588
G01 X36.6016 Y76.5308
G01 X36.5945 Y76.5392
G01 X36.5367 Y76.6028
G01 X36.4676 Y76.6654
G01 X36.3927 Y76.7209
G01 X36.3127 Y76.7688
G01 X36.2284 Y76.8087
G01 X36.1407 Y76.8401
G01 X36.0502 Y76.8627
G01 X35.9580 Y76.8764
G01 X35.8649 Y76.8810
G01 X35.7718 Y76.8764
G01 X35.6796 Y76.8627
G01 X35.5891 Y76.8401
G01 X35.5014 Y76.8087
G01 X35.4171 Y76.7688
G01 X35.3371 Y76.7209
G01 X35.2651 Y76.6677
G01 X35.2567 Y76.6606
G01 X35.1931 Y76.6028
G01 X35.1353 Y76.5392
G01 X35.1260 Y76.5279
G01 X35.0750 Y76.4588
G01 X35.0307 Y76.3852
G01 X35.0238 Y76.3723
G01 X34.9887 Y76.2979
G01 X34.9846 Y76.2877
G01 X34.9558 Y76.2068
G01 X34.9348 Y76.1235
G01 X34.9325 Y76.1127
G01 X34.9204 Y76.0314
G01 X34.9192 Y76.0204
G01 X34.9149 Y75.9347
G01 X34.9149 Y75.9273
G01 X34.9162 Y75.9018
G01 X29.2040 Y70.1897
G01 X29.1660 Y70.1480
G01 X29.1588 Y70.1395
G01 X29.1252 Y70.0942
G01 X29.1138 Y70.0758
G01 X29.1138 Y70.8003
G01 X35.8357 Y77.5223
G01 X35.8612 Y77.5210
G01 X35.8686 Y77.5210
G01 X35.9543 Y77.5253
G01 X35.9653 Y77.5265
G01 X36.0466 Y77.5386
G01 X36.0574 Y77.5409
G01 X36.1407 Y77.5619
G01 X36.2250 Y77.5919
G01 X36.2352 Y77.5963
G01 X36.3127 Y77.6332
G01 X36.3927 Y77.6811
G01 X36.4676 Y77.7366
G01 X36.5313 Y77.7942
G01 X36.5392 Y77.8019
G01 X36.5993 Y77.8683
G01 X36.6506 Y77.9372
G01 X36.6587 Y77.9494
G01 X36.6991 Y78.0168
G01 X36.7060 Y78.0297
G01 X36.7426 Y78.1075
G01 X36.7740 Y78.1952
G01 X36.7966 Y78.2857
G01 X36.8094 Y78.3706
G01 X36.8109 Y78.3852
G01 X36.8147 Y78.4636
G01 X36.8147 Y78.4784
G01 X36.8103 Y78.5641
G01 X36.7966 Y78.6563
G01 X36.7760 Y78.7397
G01 X36.7717 Y78.7538
G01 X36.7426 Y78.8345
G01 X36.7027 Y78.9188
G01 X36.6548 Y78.9988
G01 X36.5993 Y79.0737
G01 X36.5367 Y79.1428
G01 X36.4731 Y79.2006
G01 X36.4618 Y79.2099
G01 X36.3927 Y79.2609
G01 X36.3191 Y79.3052
G01 X36.3062 Y79.3121
G01 X36.2352 Y79.3457
G01 X36.2216 Y79.3513
G01 X36.1407 Y79.3801
G01 X36.0502 Y79.4027
G01 X35.9580 Y79.4164
G01 X35.8723 Y79.4208
G01 X35.8575 Y79.4208
G01 X35.7718 Y79.4164
G01 X35.6868 Y79.4040
G01 X35.6724 Y79.4011
G01 X35.5962 Y79.3821
G01 X35.5821 Y79.3778
G01 X35.5014 Y79.3487
G01 X35.4171 Y79.3088
G01 X35.3371 Y79.2609
G01 X35.2680 Y79.2099
G01 X35.2594 Y79.2030
G01 X35.1931 Y79.1428
G01 X35.1353 Y79.0792
G01 X35.1260 Y79.0679
G01 X35.0750 Y78.9988
G01 X35.0307 Y78.9252
G01 X35.0238 Y78.9123
G01 X34.9887 Y78.8379
G01 X34.9846 Y78.8277
G01 X34.9558 Y78.7468
G01 X34.9348 Y78.6635
G01 X34.9325 Y78.6527
G01 X34.9204 Y78.5714
G01 X34.9192 Y78.5604
G01 X34.9149 Y78.4747
G01 X34.9149 Y78.4673
G01 X34.9162 Y78.4418
G01 X28.0037 Y71.5294
G01 X27.9608 Y71.4821
G01 X27.9271 Y71.4369
G01 X27.9208 Y71.4278
G01 X27.8937 Y71.3825
G01 X27.8883 Y71.3729
G01 X27.8642 Y71.3218
G01 X27.8555 Y71.2986
G01 X27.8554 Y74.4344
G01 X27.8523 Y74.4944
G01 X27.8442 Y74.5503
G01 X27.8413 Y74.5647
G01 X27.8275 Y74.6195
G01 X27.8086 Y74.6727
G01 X27.8030 Y74.6863
G01 X27.7787 Y74.7372
G01 X27.7479 Y74.7889
G01 X27.7416 Y74.7980
G01 X27.7079 Y74.8432
G01 X27.6650 Y74.8905
G01 X26.6536 Y75.9018
G01 X26.6549 Y75.9273
G01 X26.6549 Y75.9347
G01 X26.6506 Y76.0204
G01 X26.6494 Y76.0314
G01 X26.6379 Y76.1091
G01 X26.6359 Y76.1199
G01 X26.6140 Y76.2068
G01 X26.5852 Y76.2877
G01 X26.5796 Y76.3013
G01 X26.5460 Y76.3723
G01 X26.5391 Y76.3852
G01 X26.4948 Y76.4588
G01 X26.4438 Y76.5279
G01 X26.4345 Y76.5392
G01 X26.3767 Y76.6028
G01 X26.3076 Y76.6654
G01 X26.2387 Y76.7167
G01 X26.2265 Y76.7248
G01 X26.1591 Y76.7652
G01 X26.1462 Y76.7721
G01 X26.0684 Y76.8087
G01 X25.9877 Y76.8378
G01 X25.9736 Y76.8421
G01 X25.8974 Y76.8611
G01 X25.8830 Y76.8640
G01 X25.7980 Y76.8764
G01 X25.7123 Y76.8808
G01 X25.6975 Y76.8808
G01 X25.6118 Y76.8764
G01 X25.5196 Y76.8627
G01 X25.4291 Y76.8401
G01 X25.3414 Y76.8087
G01 X25.2571 Y76.7688
G01 X25.1771 Y76.7209
G01 X25.1022 Y76.6654
G01 X25.0385 Y76.6078
G01 X25.0281 Y76.5974
G01 X24.9753 Y76.5392
G01 X24.9660 Y76.5279
G01 X24.9150 Y76.4588
G01 X24.8707 Y76.3852
G01 X24.8638 Y76.3723
G01 X24.8272 Y76.2945
G01 X24.7963 Y76.2082
G01 X24.7963 Y78.1938
G01 X24.8272 Y78.1075
G01 X24.8671 Y78.0232
G01 X24.9150 Y77.9432
G01 X24.9705 Y77.8683
G01 X25.0331 Y77.7992
G01 X25.1022 Y77.7366
G01 X25.1771 Y77.6811
G01 X25.2571 Y77.6332
G01 X25.3414 Y77.5933
G01 X25.4291 Y77.5619
G01 X25.5196 Y77.5393
G01 X25.6118 Y77.5256
G01 X25.7049 Y77.5210
G01 X25.7980 Y77.5256
G01 X25.8902 Y77.5393
G01 X25.9736 Y77.5599
G01 X25.9877 Y77.5642
G01 X26.0684 Y77.5933
G01 X26.1527 Y77.6332
G01 X26.2327 Y77.6811
G01 X26.3018 Y77.7321
G01 X26.3131 Y77.7414
G01 X26.3767 Y77.7992
G01 X26.4345 Y77.8628
G01 X26.4438 Y77.8741
G01 X26.4948 Y77.9432
G01 X26.5391 Y78.0168
G01 X26.5460 Y78.0297
G01 X26.5796 Y78.1007
G01 X26.5852 Y78.1143
G01 X26.6140 Y78.1952
G01 X26.6366 Y78.2857
G01 X26.6503 Y78.3779
G01 X26.6549 Y78.4710
G01 X26.6503 Y78.5641
G01 X26.6366 Y78.6563
G01 X26.6140 Y78.7468
G01 X26.5840 Y78.8311
G01 X26.5796 Y78.8413
G01 X26.5427 Y78.9188
G01 X26.4987 Y78.9926
G01 X26.4906 Y79.0048
G01 X26.4393 Y79.0737
G01 X26.3817 Y79.1374
G01 X26.3713 Y79.1478
G01 X26.3076 Y79.2054
G01 X26.2327 Y79.2609
G01 X26.1591 Y79.3052
G01 X26.1462 Y79.3121
G01 X26.0684 Y79.3487
G01 X25.9877 Y79.3778
G01 X25.9736 Y79.3821
G01 X25.8902 Y79.4027
G01 X25.7980 Y79.4164
G01 X25.7049 Y79.4210
G01 X25.6118 Y79.4164
G01 X25.5268 Y79.4040
G01 X25.5124 Y79.4011
G01 X25.4362 Y79.3821
G01 X25.4221 Y79.3778
G01 X25.3414 Y79.3487
G01 X25.2636 Y79.3121
G01 X25.2507 Y79.3052
G01 X25.1771 Y79.2609
G01 X25.1022 Y79.2054
G01 X25.0331 Y79.1428
G01 X24.9705 Y79.0737
G01 X24.9150 Y78.9988
G01 X24.8671 Y78.9188
G01 X24.8272 Y78.8345
G01 X24.7963 Y78.7482
G01 X24.7963 Y79.1828
G01 X25.6757 Y80.0623
G01 X25.7012 Y80.0610
G01 X25.7086 Y80.0610
G01 X25.7943 Y80.0653
G01 X25.8053 Y80.0665
G01 X25.8830 Y80.0780
G01 X25.8938 Y80.0800
G01 X25.9807 Y80.1019
G01 X26.0616 Y80.1307
G01 X26.0752 Y80.1363
G01 X26.1462 Y80.1699
G01 X26.1560 Y80.1750
G01 X26.2327 Y80.2211
G01 X26.3018 Y80.2721
G01 X26.3131 Y80.2814
G01 X26.3767 Y80.3392
G01 X26.4393 Y80.4083
G01 X26.4906 Y80.4772
G01 X26.4987 Y80.4894
G01 X26.5391 Y80.5568
G01 X26.5444 Y80.5664
G01 X26.5826 Y80.6475
G01 X26.6140 Y80.7352
G01 X26.6366 Y80.8257
G01 X26.6503 Y80.9179
G01 X26.6549 Y81.0110
G01 X26.6503 Y81.1041
G01 X26.6366 Y81.1963
G01 X26.6160 Y81.2797
G01 X26.6129 Y81.2903
G01 X26.5826 Y81.3745
G01 X26.5427 Y81.4588
G01 X26.4948 Y81.5388
G01 X26.4438 Y81.6079
G01 X26.4369 Y81.6165
G01 X26.3767 Y81.6828
G01 X26.3131 Y81.7406
G01 X26.3047 Y81.7477
G01 X26.2387 Y81.7967
G01 X26.2296 Y81.8029
G01 X26.1560 Y81.8470
G01 X26.1462 Y81.8521
G01 X26.1087 Y81.8698
G01 X32.5862 Y81.8698
G01 X33.9074 Y80.5486
G01 X33.9521 Y80.5083
G01 X34.0033 Y80.4703
G01 X34.0581 Y80.4375
G01 X34.1158 Y80.4102
G01 X34.1758 Y80.3887
G01 X34.2306 Y80.3749
G01 X34.2450 Y80.3720
G01 X34.2936 Y80.3648
G01 X34.3045 Y80.3636
G01 X34.3646 Y80.3607
G01 X34.9149 Y80.3607
G01 X34.9151 Y80.2036
G01 X34.9165 Y80.1890
G01 X34.9194 Y80.1746
G01 X34.9225 Y80.1639
G01 X34.9278 Y80.1502
G01 X34.9326 Y80.1403
G01 X34.9362 Y80.1339
G01 X34.9423 Y80.1246
G01 X34.9489 Y80.1158
G01 X34.9563 Y80.1076
G01 X34.9615 Y80.1024
G01 X34.9697 Y80.0950
G01 X34.9785 Y80.0884
G01 X34.9878 Y80.0823
G01 X34.9975 Y80.0770
G01 X35.0041 Y80.0739
G01 X35.0144 Y80.0698
G01 X35.0214 Y80.0675
G01 X35.0320 Y80.0646
G01 X35.0393 Y80.0632
G01 X35.0502 Y80.0617
G01 X35.0649 Y80.0610
G01 X36.6686 Y80.0610
G01 X36.6833 Y80.0621
G01 X36.6942 Y80.0639
G01 X36.7013 Y80.0655
G01 X36.7120 Y80.0686
G01 X36.7189 Y80.0711
G01 X36.7323 Y80.0770
G01 X36.7388 Y80.0805
G01 X36.7482 Y80.0863
G01 X36.7601 Y80.0950
G01 X36.7710 Y80.1049
G01 X36.7760 Y80.1103
G01 X36.7832 Y80.1187
G01 X36.7916 Y80.1308
G01 X36.7972 Y80.1403
G01 X36.8020 Y80.1502
G01 X36.8061 Y80.1605
G01 X36.8095 Y80.1710
G01 X36.8127 Y80.1854
G01 X36.8142 Y80.1963
G01 X36.8149 Y80.2073
G01 X36.8149 Y81.8147
G01 X36.8138 Y81.8294
G01 X36.8120 Y81.8403
G01 X36.8104 Y81.8474
G01 X36.8084 Y81.8545
G01 X36.8048 Y81.8650
G01 X36.7989 Y81.8784
G01 X36.7936 Y81.8881
G01 X36.7896 Y81.8943
G01 X36.7809 Y81.9062
G01 X36.7735 Y81.9144
G01 X36.7683 Y81.9196
G01 X36.7572 Y81.9293
G01 X36.7482 Y81.9357
G01 X36.7388 Y81.9415
G01 X36.7257 Y81.9481
G01 X36.7154 Y81.9522
G01 X36.7049 Y81.9556
G01 X36.6942 Y81.9581
G01 X36.6796 Y81.9603
G01 X36.6686 Y81.9610
G01 X35.0649 Y81.9610
G01 X35.0575 Y81.9608
G01 X35.0465 Y81.9599
G01 X35.0356 Y81.9581
G01 X35.0285 Y81.9565
G01 X35.0178 Y81.9534
G01 X35.0075 Y81.9496
G01 X34.9975 Y81.9450
G01 X34.9910 Y81.9415
G01 X34.9847 Y81.9377
G01 X34.9755 Y81.9315
G01 X34.9697 Y81.9270
G01 X34.9615 Y81.9196
G01 X34.9538 Y81.9117
G01 X34.9466 Y81.9033
G01 X34.9423 Y81.8974
G01 X34.9362 Y81.8881
G01 X34.9326 Y81.8817
G01 X34.9278 Y81.8718
G01 X34.9225 Y81.8581
G01 X34.9185 Y81.8439
G01 X34.9165 Y81.8330
G01 X34.9151 Y81.8184
G01 X34.9149 Y81.6613
G01 X34.6339 Y81.6613
G01 X33.3153 Y82.9799
G01 X33.2736 Y83.0179
G01 X33.2622 Y83.0273
G01 X33.2168 Y83.0608
G01 X33.1684 Y83.0899
G01 X33.1554 Y83.0969
G01 X33.1043 Y83.1209
G01 X33.0512 Y83.1400
G01 X33.0372 Y83.1443
G01 X32.9824 Y83.1579
G01 X32.9192 Y83.1672
G01 X32.8555 Y83.1704
G01 X25.0580 Y83.1704
G01 X24.9943 Y83.1672
G01 X24.9311 Y83.1579
G01 X24.8692 Y83.1424
G01 X24.8160 Y83.1235
G01 X24.8058 Y83.1194
G01 X24.7515 Y83.0936
G01 X24.6967 Y83.0608
G01 X24.6455 Y83.0228
G01 X24.5982 Y82.9799
G01 X18.8816 Y77.2633
G01 X18.8436 Y77.2216
G01 X18.8342 Y77.2102
G01 X18.8007 Y77.1648
G01 X18.7679 Y77.1100
G01 X18.7436 Y77.0591
G01 X18.7380 Y77.0455
G01 X18.7191 Y76.9923
G01 X18.7036 Y76.9304
G01 X18.6943 Y76.8672
G01 X18.6911 Y76.8035
G01 X18.6911 Y70.0605
G01 X18.4077 Y70.0605
G01 X18.3967 Y70.0598
G01 X18.3894 Y70.0589
G01 X18.3821 Y70.0576
G01 X18.3714 Y70.0551
G01 X18.3643 Y70.0529
G01 X18.3540 Y70.0491
G01 X18.3440 Y70.0445
G01 X18.3343 Y70.0392
G01 X18.3250 Y70.0331
G01 X18.3162 Y70.0265
G01 X18.3107 Y70.0216
G01 X18.3028 Y70.0139
G01 X18.2954 Y70.0057
G01 X18.2888 Y69.9969
G01 X18.2827 Y69.9876
G01 X18.2774 Y69.9779
G01 X18.2728 Y69.9679
G01 X18.2702 Y69.9610
G01 X18.2668 Y69.9505
G01 X18.2643 Y69.9398
G01 X18.2621 Y69.9252
G01 X18.2614 Y69.9105
G01 X18.2614 Y68.0505
G01 X18.2618 Y68.0395
G01 X18.2636 Y68.0249
G01 X18.2659 Y68.0141
G01 X18.2702 Y68.0000
G01 X18.2743 Y67.9897
G01 X18.2809 Y67.9766
G01 X18.2888 Y67.9641
G01 X18.2954 Y67.9553
G01 X18.3028 Y67.9471
G01 X18.3134 Y67.9369
G01 X18.3250 Y67.9279
G01 X18.3343 Y67.9218
G01 X18.3473 Y67.9149
G01 X18.3574 Y67.9106
G01 X18.3679 Y67.9070
G01 X18.3785 Y67.9041
G01 X18.3894 Y67.9021
G01 X18.4040 Y67.9007
G01 X20.2714 Y67.9005
G01 X20.2824 Y67.9009
G01 X20.2970 Y67.9027
G01 X20.3114 Y67.9059
G01 X20.3219 Y67.9093
G01 X20.3322 Y67.9134
G01 X20.3421 Y67.9182
G01 X20.3516 Y67.9238
G01 X20.3637 Y67.9322
G01 X20.3748 Y67.9419
G01 X20.3825 Y67.9498
G01 X20.3897 Y67.9582
G01 X20.3981 Y67.9703
G01 X20.4037 Y67.9798
G01 X20.4100 Y67.9931
G01 X20.4138 Y68.0034
G01 X20.4178 Y68.0176
G01 X20.4198 Y68.0285
G01 X20.4212 Y68.0431
G01 X20.4214 Y69.9105
G01 X20.4210 Y69.9215
G01 X20.4198 Y69.9325
G01 X20.4178 Y69.9434
G01 X20.4149 Y69.9540
G01 X20.4113 Y69.9645
G01 X20.4070 Y69.9746
G01 X20.4019 Y69.9844
G01 X20.3961 Y69.9938
G01 X20.3919 Y69.9999
G01 X20.3850 Y70.0085
G01 X20.3775 Y70.0166
G01 X20.3694 Y70.0241
G01 X20.3637 Y70.0288
G01 X20.3547 Y70.0352
G01 X20.3453 Y70.0410
G01 X20.3355 Y70.0461
G01 X20.3254 Y70.0504
G01 X20.3149 Y70.0540
G01 X20.3043 Y70.0569
G01 X20.2934 Y70.0589
G01 X20.2861 Y70.0598
G01 X20.2751 Y70.0605
G01 X19.9917 Y70.0605
G01 X19.9917 Y76.5342
G01 X24.8242 Y81.3667
G01 X24.7958 Y81.2868
G01 X24.7748 Y81.2035
G01 X24.7725 Y81.1927
G01 X24.7604 Y81.1114
G01 X24.7592 Y81.1004
G01 X24.7549 Y81.0147
G01 X24.7549 Y81.0073
G01 X24.7562 Y80.9818
G01 X23.6862 Y79.9119
G01 X23.6457 Y79.8674
G01 X23.6388 Y79.8588
G01 X23.6096 Y79.8194
G01 X23.6014 Y79.8071
G01 X23.5725 Y79.7586
G01 X23.5452 Y79.7009
G01 X23.5237 Y79.6409
G01 X23.5099 Y79.5861
G01 X23.5070 Y79.5717
G01 X23.4989 Y79.5158
G01 X23.4957 Y79.4521
G01 X23.4957 Y67.3299
G01 X23.4989 Y67.2662
G01 X23.5076 Y67.2067
G01 X23.5099 Y67.1959
G01 X23.5218 Y67.1482
G01 X23.5261 Y67.1342
G01 X23.5452 Y67.0811
G01 X23.5692 Y67.0300
G01 X23.5762 Y67.0170
G01 X23.6053 Y66.9686
G01 X23.6388 Y66.9232
G01 X23.6482 Y66.9118
G01 X23.6862 Y66.8701
G01 X24.7562 Y65.8002
G01 X24.7549 Y65.7747
G01 X24.7549 Y65.7673
G01 X24.7592 Y65.6816
G01 X24.7604 Y65.6706
G01 X24.7725 Y65.5893
G01 X24.7748 Y65.5785
G01 X24.7958 Y65.4952
G01 X24.8258 Y65.4109
G01 X24.8302 Y65.4007
G01 X24.8671 Y65.3232
G01 X24.9150 Y65.2432
G01 X24.9705 Y65.1683
G01 X25.0281 Y65.1046
G01 X25.0358 Y65.0967
G01 X25.1022 Y65.0366
G01 X25.1711 Y64.9853
G01 X25.1833 Y64.9772
G01 X25.2571 Y64.9332
G01 X25.3346 Y64.8963
G01 X25.3482 Y64.8907
G01 X25.4291 Y64.8619
G01 X25.5124 Y64.8409
G01 X25.5268 Y64.8380
G01 X25.6118 Y64.8256
G01 X25.6975 Y64.8212
G01 X25.7123 Y64.8212
G01 X25.7980 Y64.8256
G01 X25.8830 Y64.8380
G01 X25.8974 Y64.8409
G01 X25.9807 Y64.8619
G01 X26.0684 Y64.8933
G01 X26.1527 Y64.9332
G01 X26.2327 Y64.9811
G01 X26.3076 Y65.0366
G01 X26.3767 Y65.0992
G01 X26.4393 Y65.1683
G01 X26.4948 Y65.2432
G01 X26.5391 Y65.3168
G01 X26.5460 Y65.3297
G01 X26.5826 Y65.4075
G01 X26.6117 Y65.4882
G01 X26.6160 Y65.5023
G01 X26.6350 Y65.5785
G01 X26.6379 Y65.5929
G01 X26.6503 Y65.6779
G01 X26.6547 Y65.7636
G01 X26.6547 Y65.7784
G01 X26.6503 Y65.8641
G01 X26.6366 Y65.9563
G01 X26.6140 Y66.0468
G01 X26.5840 Y66.1311
G01 X26.5796 Y66.1413
G01 X26.5460 Y66.2123
G01 X26.5391 Y66.2252
G01 X26.4948 Y66.2988
G01 X26.4393 Y66.3737
G01 X26.3767 Y66.4428
G01 X26.3131 Y66.5006
G01 X26.3018 Y66.5099
G01 X26.2387 Y66.5567
G01 X26.2296 Y66.5629
G01 X26.1527 Y66.6088
G01 X26.0752 Y66.6457
G01 X26.0616 Y66.6513
G01 X25.9877 Y66.6778
G01 X25.9771 Y66.6811
G01 X25.8902 Y66.7027
G01 X25.8017 Y66.7160
G01 X25.7907 Y66.7170
G01 X25.7086 Y66.7210
G01 X25.7012 Y66.7210
G01 X25.6757 Y66.7197
G01 X24.7963 Y67.5992
G01 X24.7963 Y68.0338
G01 X24.8272 Y67.9475
G01 X24.8671 Y67.8632
G01 X24.9150 Y67.7832
G01 X24.9660 Y67.7141
G01 X24.9753 Y67.7028
G01 X25.0281 Y67.6446
G01 X25.0385 Y67.6342
G01 X25.1022 Y67.5766
G01 X25.1771 Y67.5211
G01 X25.2571 Y67.4732
G01 X25.3414 Y67.4333
G01 X25.4291 Y67.4019
G01 X25.5124 Y67.3809
G01 X25.5268 Y67.3780
G01 X25.6118 Y67.3656
G01 X25.6975 Y67.3612
G01 X25.7123 Y67.3612
G01 X25.7907 Y67.3650
G01 X25.8053 Y67.3665
G01 X25.8902 Y67.3793
G01 X25.9807 Y67.4019
G01 X26.0684 Y67.4333
G01 X26.1527 Y67.4732
G01 X26.2327 Y67.5211
G01 X26.3076 Y67.5766
G01 X26.3767 Y67.6392
G01 X26.4369 Y67.7055
G01 X26.4438 Y67.7141
G01 X26.4948 Y67.7832
G01 X26.5427 Y67.8632
G01 X26.5826 Y67.9475
G01 X26.6129 Y68.0317
G01 X26.6160 Y68.0423
G01 X26.6366 Y68.1257
G01 X26.6499 Y68.2142
G01 X26.6509 Y68.2252
G01 X26.6549 Y68.3073
G01 X26.6547 Y68.3184
G01 X26.6532 Y68.3500
G01 X26.6666 Y68.3283
G01 X26.7002 Y68.2830
G01 X26.7074 Y68.2745
G01 X26.7403 Y68.2381
G01 X26.7480 Y68.2302
G01 X26.7927 Y68.1899
G01 X26.8379 Y68.1562
G01 X26.8502 Y68.1480
G01 X26.8923 Y68.1228
G01 X26.9019 Y68.1174
G01 X26.9564 Y68.0918
G01 X27.0095 Y68.0727
G01 X27.0235 Y68.0684
G01 X27.0783 Y68.0548
G01 X27.1415 Y68.0455
G01 X27.1978 Y68.0425
G01 X27.2126 Y68.0425
G01 X27.2689 Y68.0455
G01 X27.3248 Y68.0536
G01 X27.3392 Y68.0565
G01 X27.3940 Y68.0703
G01 X27.4540 Y68.0918
G01 X27.5051 Y68.1158
G01 X27.5181 Y68.1228
G01 X27.5665 Y68.1519
G01 X27.6148 Y68.1876
G01 X27.6233 Y68.1948
G01 X27.6597 Y68.2277
G01 X27.6701 Y68.2381
G01 X27.7079 Y68.2801
G01 X27.7438 Y68.3283
G01 X27.7498 Y68.3376
G01 X27.7750 Y68.3797
G01 X27.7804 Y68.3893
G01 X27.8045 Y68.4404
G01 X27.8132 Y68.4636
G01 X27.8132 Y64.1357
G01 X26.6038 Y62.9263
G01 X26.6117 Y62.9482
G01 X26.6150 Y62.9588
G01 X26.6350 Y63.0385
G01 X26.6373 Y63.0493
G01 X26.6503 Y63.1379
G01 X26.6549 Y63.2273
G01 X26.6547 Y63.2384
G01 X26.6503 Y63.3241
G01 X26.6379 Y63.4091
G01 X26.6350 Y63.4235
G01 X26.6160 Y63.4997
G01 X26.6129 Y63.5103
G01 X26.5826 Y63.5945
G01 X26.5427 Y63.6788
G01 X26.4948 Y63.7588
G01 X26.4438 Y63.8279
G01 X26.4345 Y63.8392
G01 X26.3817 Y63.8974
G01 X26.3713 Y63.9078
G01 X26.3076 Y63.9654
G01 X26.2387 Y64.0167
G01 X26.2296 Y64.0229
G01 X26.1527 Y64.0688
G01 X26.0684 Y64.1087
G01 X25.9807 Y64.1401
G01 X25.8974 Y64.1611
G01 X25.8830 Y64.1640
G01 X25.8053 Y64.1755
G01 X25.7907 Y64.1770
G01 X25.7049 Y64.1810
G01 X25.6118 Y64.1764
G01 X25.5196 Y64.1627
G01 X25.4291 Y64.1401
G01 X25.3414 Y64.1087
G01 X25.2636 Y64.0721
G01 X25.2507 Y64.0652
G01 X25.1833 Y64.0248
G01 X25.1711 Y64.0167
G01 X25.1022 Y63.9654
G01 X25.0331 Y63.9028
G01 X24.9705 Y63.8337
G01 X24.9192 Y63.7648
G01 X24.9111 Y63.7526
G01 X24.8707 Y63.6852
G01 X24.8638 Y63.6723
G01 X24.8272 Y63.5945
G01 X24.7958 Y63.5068
G01 X24.7732 Y63.4163
G01 X24.7595 Y63.3241
G01 X24.7549 Y63.2310
G01 X24.7589 Y63.1452
G01 X24.7604 Y63.1306
G01 X24.7719 Y63.0529
G01 X24.7748 Y63.0385
G01 X24.7958 Y62.9552
G01 X24.8272 Y62.8675
G01 X24.8671 Y62.7832
G01 X24.9130 Y62.7063
G01 X24.9192 Y62.6972
G01 X24.9705 Y62.6283
G01 X25.0281 Y62.5646
G01 X25.0385 Y62.5542
G01 X25.0967 Y62.5014
G01 X25.1080 Y62.4921
G01 X25.1771 Y62.4411
G01 X25.2571 Y62.3932
G01 X25.3414 Y62.3533
G01 X25.4256 Y62.3230
G01 X25.4362 Y62.3199
G01 X25.5196 Y62.2993
G01 X25.6045 Y62.2865
G01 X25.6191 Y62.2850
G01 X25.6975 Y62.2812
G01 X25.7086 Y62.2810
G01 X25.7980 Y62.2856
G01 X25.8866 Y62.2986
G01 X25.8974 Y62.3009
G01 X25.9771 Y62.3209
G01 X25.9877 Y62.3242
G01 X26.0096 Y62.3321
G01 X22.0268 Y58.3493
G01 X20.4214 Y58.3493
G01 X20.4214 Y58.6327
G01 X20.4207 Y58.6437
G01 X20.4192 Y58.6546
G01 X20.4169 Y58.6654
G01 X20.4138 Y58.6761
G01 X20.4100 Y58.6864
G01 X20.4054 Y58.6964
G01 X20.4001 Y58.7061
G01 X20.3940 Y58.7154
G01 X20.3874 Y58.7242
G01 X20.3800 Y58.7324
G01 X20.3721 Y58.7401
G01 X20.3637 Y58.7473
G01 X20.3547 Y58.7537
G01 X20.3453 Y58.7595
G01 X20.3355 Y58.7646
G01 X20.3254 Y58.7689
G01 X20.3149 Y58.7725
G01 X20.3043 Y58.7754
G01 X20.2934 Y58.7774
G01 X20.2824 Y58.7786
G01 X20.2714 Y58.7790
G01 X18.4040 Y58.7788
G01 X18.3894 Y58.7774
G01 X18.3785 Y58.7754
G01 X18.3643 Y58.7714
G01 X18.3540 Y58.7676
G01 X18.3407 Y58.7613
G01 X18.3312 Y58.7557
G01 X18.3220 Y58.7495
G01 X18.3134 Y58.7426
G01 X18.3053 Y58.7351
G01 X18.2954 Y58.7242
G01 X18.2888 Y58.7154
G01 X18.2809 Y58.7029
G01 X18.2743 Y58.6898
G01 X18.2702 Y58.6795
G01 X18.2659 Y58.6654
G01 X18.2636 Y58.6546
G01 X18.2618 Y58.6400
G01 X18.2614 Y58.6290
G01 X18.2616 Y56.7616
G01 X18.2625 Y56.7506
G01 X18.2643 Y56.7397
G01 X18.2668 Y56.7290
G01 X18.2702 Y56.7185
G01 X18.2743 Y56.7082
G01 X18.2791 Y56.6983
G01 X18.2847 Y56.6888
G01 X18.2909 Y56.6796
G01 X18.2954 Y56.6738
G01 X18.3028 Y56.6656
G01 X18.3107 Y56.6579
G01 X18.3191 Y56.6507
G01 X18.3281 Y56.6443
G01 X18.3375 Y56.6385
G01 X18.3473 Y56.6334
G01 X18.3574 Y56.6291
G01 X18.3714 Y56.6244
G01 X18.3858 Y56.6212
G01 X18.3967 Y56.6197
G01 X18.4114 Y56.6190
G01 X20.2714 Y56.6190
G01 X20.2861 Y56.6197
G01 X20.2970 Y56.6212
G01 X20.3078 Y56.6235
G01 X20.3185 Y56.6266
G01 X20.3288 Y56.6304
G01 X20.3388 Y56.6350
G01 X20.3485 Y56.6403
G01 X20.3578 Y56.6464
G01 X20.3666 Y56.6530
G01 X20.3748 Y56.6604
G01 X20.3825 Y56.6683
G01 X20.3897 Y56.6767
G01 X20.3961 Y56.6857
G01 X20.4019 Y56.6951
G01 X20.4070 Y56.7049
G01 X20.4113 Y56.7150
G01 X20.4149 Y56.7255
G01 X20.4178 Y56.7361
G01 X20.4198 Y56.7470
G01 X20.4210 Y56.7580
G01 X20.4214 Y56.7653
G01 X20.4214 Y57.0487
G01 X22.2961 Y57.0487
G01 X22.3525 Y57.0513
G01 X22.3635 Y57.0523
G01 X22.4193 Y57.0606
G01 X22.4266 Y57.0620
G01 X22.4473 Y57.0671
G01 X18.8790 Y53.4989
G01 X18.8387 Y53.4542
G01 X18.8050 Y53.4090
G01 X18.7968 Y53.3967
G01 X18.7716 Y53.3546
G01 X18.7646 Y53.3416
G01 X18.7406 Y53.2905
G01 X18.7191 Y53.2305
G01 X18.7036 Y53.1686
G01 X18.6947 Y53.1091
G01 X18.6937 Y53.0981
G01 X18.6911 Y53.0417
G01 X18.6911 Y47.4975
G01 X18.4077 Y47.4975
G01 X18.3967 Y47.4968
G01 X18.3894 Y47.4959
G01 X18.3821 Y47.4946
G01 X18.3714 Y47.4921
G01 X18.3609 Y47.4887
G01 X18.3506 Y47.4846
G01 X18.3407 Y47.4798
G01 X18.3343 Y47.4762
G01 X18.3250 Y47.4701
G01 X18.3162 Y47.4635
G01 X18.3080 Y47.4561
G01 X18.3003 Y47.4482
G01 X18.2931 Y47.4398
G01 X18.2888 Y47.4339
G01 X18.2827 Y47.4246
G01 X18.2774 Y47.4149
G01 X18.2728 Y47.4049
G01 X18.2702 Y47.3980
G01 X18.2668 Y47.3875
G01 X18.2643 Y47.3768
G01 X18.2621 Y47.3622
G01 X18.2614 Y47.3475
G01 X18.2614 Y45.4875
G01 X18.2618 Y45.4765
G01 X18.2636 Y45.4619
G01 X18.2659 Y45.4511
G01 X18.2702 Y45.4370
G01 X18.2743 Y45.4267
G01 X18.2809 Y45.4136
G01 X18.2867 Y45.4042
G01 X18.2954 Y45.3923
G01 X18.3053 Y45.3814
G01 X18.3134 Y45.3739
G01 X18.3250 Y45.3649
G01 X18.3343 Y45.3588
G01 X18.3440 Y45.3535
G01 X18.3540 Y45.3489
G01 X18.3679 Y45.3440
G01 X18.3785 Y45.3411
G01 X18.3894 Y45.3391
G01 X18.4040 Y45.3377
G01 X20.2714 Y45.3375
G01 X20.2861 Y45.3382
G01 X20.2970 Y45.3397
G01 X20.3078 Y45.3420
G01 X20.3214 Y45.3461
G01 X20.3214 Y43.4785
G01 X18.8765 Y42.0334
G01 X18.8387 Y41.9914
G01 X18.8050 Y41.9462
G01 X18.7968 Y41.9339
G01 X18.7679 Y41.8854
G01 X18.7436 Y41.8345
G01 X18.7380 Y41.8209
G01 X18.7191 Y41.7677
G01 X18.7044 Y41.7094
G01 X18.7024 Y41.6985
G01 X18.6943 Y41.6426
G01 X18.6911 Y41.5789
G01 X18.6911 Y36.2160
G01 X18.4077 Y36.2160
G01 X18.3967 Y36.2153
G01 X18.3894 Y36.2144
G01 X18.3821 Y36.2131
G01 X18.3714 Y36.2106
G01 X18.3609 Y36.2072
G01 X18.3506 Y36.2031
G01 X18.3407 Y36.1983
G01 X18.3343 Y36.1947
G01 X18.3281 Y36.1907
G01 X18.3191 Y36.1843
G01 X18.3107 Y36.1771
G01 X18.3028 Y36.1694
G01 X18.2978 Y36.1640
G01 X18.2909 Y36.1554
G01 X18.2847 Y36.1462
G01 X18.2791 Y36.1367
G01 X18.2758 Y36.1301
G01 X18.2715 Y36.1200
G01 X18.2679 Y36.1095
G01 X18.2650 Y36.0989
G01 X18.2630 Y36.0880
G01 X18.2621 Y36.0807
G01 X18.2614 Y36.0660
G01 X18.2614 Y34.2060
G01 X18.2618 Y34.1950
G01 X18.2636 Y34.1804
G01 X18.2659 Y34.1696
G01 X18.2702 Y34.1555
G01 X18.2743 Y34.1452
G01 X18.2809 Y34.1321
G01 X18.2888 Y34.1196
G01 X18.2954 Y34.1108
G01 X18.3053 Y34.0999
G01 X18.3134 Y34.0924
G01 X18.3250 Y34.0834
G01 X18.3375 Y34.0755
G01 X18.3473 Y34.0704
G01 X18.3609 Y34.0648
G01 X18.3750 Y34.0605
G01 X18.3858 Y34.0582
G01 X18.4004 Y34.0564
G01 X18.4114 Y34.0560
G01 X20.2714 Y34.0560
G01 X20.2861 Y34.0567
G01 X20.2970 Y34.0582
G01 X20.3078 Y34.0605
G01 X20.3214 Y34.0646
G01 X20.3214 Y27.3844
G01 X18.8816 Y25.9446
G01 X18.8387 Y25.8973
G01 X18.8007 Y25.8461
G01 X18.7679 Y25.7913
G01 X18.7436 Y25.7404
G01 X18.7380 Y25.7268
G01 X18.7191 Y25.6736
G01 X18.7053 Y25.6188
G01 X18.7024 Y25.6044
G01 X18.6947 Y25.5522
G01 X18.6937 Y25.5412
G01 X18.6911 Y25.4848
G01 X18.6911 Y24.9345
G01 X18.4114 Y24.9345
G01 X18.3967 Y24.9338
G01 X18.3858 Y24.9323
G01 X18.3785 Y24.9309
G01 X18.3643 Y24.9269
G01 X18.3574 Y24.9244
G01 X18.3473 Y24.9201
G01 X18.3375 Y24.9150
G01 X18.3312 Y24.9112
G01 X18.3250 Y24.9071
G01 X18.3162 Y24.9005
G01 X18.3080 Y24.8931
G01 X18.3028 Y24.8879
G01 X18.2978 Y24.8825
G01 X18.2909 Y24.8739
G01 X18.2867 Y24.8678
G01 X18.2809 Y24.8584
G01 X18.2758 Y24.8486
G01 X18.2728 Y24.8419
G01 X18.2679 Y24.8280
G01 X18.2643 Y24.8138
G01 X18.2621 Y24.7992
G01 X18.2614 Y24.7845
G01 X18.2616 Y22.9171
G01 X18.2625 Y22.9061
G01 X18.2643 Y22.8952
G01 X18.2679 Y22.8810
G01 X18.2715 Y22.8705
G01 X18.2758 Y22.8604
G01 X18.2809 Y22.8506
G01 X18.2867 Y22.8412
G01 X18.2931 Y22.8322
G01 X18.3003 Y22.8238
G01 X18.3080 Y22.8159
G01 X18.3162 Y22.8085
G01 X18.3250 Y22.8019
G01 X18.3343 Y22.7958
G01 X18.3440 Y22.7905
G01 X18.3540 Y22.7859
G01 X18.3679 Y22.7810
G01 X18.3785 Y22.7781
G01 X18.3894 Y22.7761
G01 X18.4004 Y22.7749
G01 X18.4114 Y22.7745
G01 X20.2788 Y22.7747
G01 X20.2898 Y22.7756
G01 X20.3043 Y22.7781
G01 X20.3149 Y22.7810
G01 X20.3254 Y22.7846
G01 X20.3355 Y22.7889
G01 X20.3453 Y22.7940
G01 X20.3547 Y22.7998
G01 X20.3637 Y22.8062
G01 X20.3721 Y22.8134
G01 X20.3800 Y22.8211
G01 X20.3874 Y22.8293
G01 X20.3940 Y22.8381
G01 X20.4001 Y22.8474
G01 X20.4054 Y22.8571
G01 X20.4100 Y22.8671
G01 X20.4149 Y22.8810
G01 X20.4178 Y22.8916
G01 X20.4198 Y22.9025
G01 X20.4210 Y22.9135
G01 X20.4214 Y22.9245
G01 X20.4214 Y24.7845
G01 X20.4210 Y24.7955
G01 X20.4192 Y24.8101
G01 X20.4178 Y24.8174
G01 X20.4149 Y24.8280
G01 X20.4113 Y24.8385
G01 X20.4070 Y24.8486
G01 X20.4019 Y24.8584
G01 X20.3981 Y24.8647
G01 X20.3919 Y24.8739
G01 X20.3850 Y24.8825
G01 X20.3775 Y24.8906
G01 X20.3694 Y24.8981
G01 X20.3608 Y24.9050
G01 X20.3516 Y24.9112
G01 X20.3421 Y24.9168
G01 X20.3322 Y24.9216
G01 X20.3219 Y24.9257
G01 X20.3149 Y24.9280
G01 X20.3043 Y24.9309
G01 X20.2934 Y24.9329
G01 X20.2824 Y24.9341
G01 X20.2751 Y24.9345
G01 X19.9917 Y24.9345
G01 X19.9917 Y25.2155
G01 X21.4315 Y26.6553
G01 X21.4695 Y26.6970
G01 X21.4789 Y26.7084
G01 X21.5081 Y26.7478
G01 X21.5163 Y26.7601
G01 X21.5452 Y26.8086
G01 X21.5725 Y26.8663
G01 X21.5940 Y26.9263
G01 X21.6078 Y26.9811
G01 X21.6107 Y26.9955
G01 X21.6179 Y27.0441
G01 X21.6191 Y27.0550
G01 X21.6220 Y27.1151
G01 X21.6220 Y39.5449
G01 X23.8321 Y41.7550
G01 X23.8701 Y41.7967
G01 X23.8773 Y41.8052
G01 X23.9109 Y41.8505
G01 X23.9223 Y41.8689
G01 X23.9223 Y41.4620
G01 X22.5008 Y40.0405
G01 X22.4603 Y39.9960
G01 X22.4534 Y39.9874
G01 X22.4199 Y39.9420
G01 X22.3908 Y39.8936
G01 X22.3838 Y39.8806
G01 X22.3628 Y39.8363
G01 X22.3572 Y39.8227
G01 X22.3383 Y39.7695
G01 X22.3228 Y39.7076
G01 X22.3135 Y39.6444
G01 X22.3105 Y39.5881
G01 X22.3103 Y3.8403
G01 X18.5917 Y3.8403
G01 X18.6048 Y3.8514
G01 X18.6100 Y3.8566
G01 X18.6174 Y3.8648
G01 X18.6261 Y3.8767
G01 X18.6319 Y3.8861
G01 X18.6354 Y3.8926
G01 X18.6400 Y3.9026
G01 X18.6426 Y3.9095
G01 X18.6469 Y3.9236
G01 X18.6498 Y3.9380
G01 X18.6510 Y3.9490
G01 X18.6514 Y3.9563
G01 X18.6514 Y4.9637
G01 X18.6503 Y4.9784
G01 X18.6478 Y4.9929
G01 X18.6438 Y5.0071
G01 X18.6400 Y5.0174
G01 X18.6354 Y5.0274
G01 X18.6281 Y5.0402
G01 X18.6197 Y5.0523
G01 X18.6125 Y5.0607
G01 X18.6021 Y5.0711
G01 X18.5908 Y5.0805
G01 X18.5785 Y5.0887
G01 X18.5655 Y5.0956
G01 X18.5519 Y5.1012
G01 X18.5378 Y5.1055
G01 X18.5234 Y5.1084
G01 X18.5088 Y5.1098
G01 X17.5014 Y5.1100
G01 X17.4940 Y5.1098
G01 X17.4830 Y5.1089
G01 X17.4721 Y5.1071
G01 X17.4614 Y5.1046
G01 X17.4509 Y5.1012
G01 X17.4406 Y5.0971
G01 X17.4307 Y5.0923
G01 X17.4212 Y5.0867
G01 X17.4120 Y5.0805
G01 X17.4034 Y5.0736
G01 X17.3953 Y5.0661
G01 X17.3878 Y5.0580
G01 X17.3788 Y5.0464
G01 X17.3727 Y5.0371
G01 X17.3674 Y5.0274
G01 X17.3628 Y5.0174
G01 X17.3590 Y5.0071
G01 X17.3559 Y4.9964
G01 X17.3536 Y4.9856
G01 X17.3521 Y4.9747
G01 X17.3514 Y4.9600
G01 X17.3514 Y3.9600
G01 X17.3518 Y3.9490
G01 X17.3530 Y3.9380
G01 X17.3550 Y3.9271
G01 X17.3568 Y3.9200
G01 X17.3590 Y3.9129
G01 X17.3628 Y3.9026
G01 X17.3674 Y3.8926
G01 X17.3709 Y3.8861
G01 X17.3767 Y3.8767
G01 X17.3831 Y3.8677
G01 X17.3903 Y3.8593
G01 X17.3953 Y3.8539
G01 X17.4034 Y3.8464
G01 X17.4091 Y3.8417
G01 X17.4181 Y3.8353
G01 X17.4275 Y3.8295
G01 X17.4373 Y3.8244
G01 X17.4440 Y3.8214
G01 X17.4543 Y3.8176
G01 X17.4650 Y3.8145
G01 X17.4794 Y3.8116
G01 X17.4867 Y3.8107
G01 X17.4977 Y3.8100
G01 X17.8058 Y3.8100
G00 Z2.0000
G00 X18.5014 Y3.9100
G01 F60.00
G01 Z-0.0499
G01 F60.00
G01 X18.5112 Y3.9110
G01 X18.5205 Y3.9138
G01 X18.5292 Y3.9184
G01 X18.5368 Y3.9246
G01 X18.5430 Y3.9322
G01 X18.5476 Y3.9409
G01 X18.5502 Y3.9490
G01 X18.5514 Y3.9588
G01 X18.5514 Y4.9612
G01 X18.5504 Y4.9698
G01 X18.5476 Y4.9791
G01 X18.5436 Y4.9867
G01 X18.5376 Y4.9945
G01 X18.5302 Y5.0009
G01 X18.5260 Y5.0035
G01 X18.5205 Y5.0062
G01 X18.5112 Y5.0090
G01 X18.5014 Y5.0100
G01 X17.5002 Y5.0100
G01 X17.4904 Y5.0088
G01 X17.4823 Y5.0062
G01 X17.4736 Y5.0016
G01 X17.4669 Y4.9962
G01 X17.4605 Y4.9888
G01 X17.4557 Y4.9803
G01 X17.4526 Y4.9710
G01 X17.4518 Y4.9661
G01 X17.4514 Y4.9600
G01 X17.4514 Y3.9588
G01 X17.4524 Y3.9502
G01 X17.4552 Y3.9409
G01 X17.4592 Y3.9333
G01 X17.4652 Y3.9255
G01 X17.4726 Y3.9191
G01 X17.4811 Y3.9143
G01 X17.4904 Y3.9112
G01 X17.5002 Y3.9100
G01 X18.5014 Y3.9100
G00 Z2.0000
G00 X20.3919 Y11.4930
G01 F60.00
G01 Z-0.0499
G01 F60.00
G01 X20.4029 Y11.4934
G01 X20.4175 Y11.4952
G01 X20.4319 Y11.4984
G01 X20.4459 Y11.5031
G01 X20.4593 Y11.5090
G01 X20.4721 Y11.5163
G01 X20.4842 Y11.5247
G01 X20.4953 Y11.5344
G01 X20.5055 Y11.5450
G01 X20.5145 Y11.5566
G01 X20.5224 Y11.5691
G01 X20.5290 Y11.5822
G01 X20.5343 Y11.5959
G01 X20.5383 Y11.6101
G01 X20.5403 Y11.6210
G01 X20.5417 Y11.6356
G01 X20.5419 Y13.5067
G01 X20.5408 Y13.5214
G01 X20.5390 Y13.5323
G01 X20.5365 Y13.5430
G01 X20.5318 Y13.5570
G01 X20.5259 Y13.5704
G01 X20.5206 Y13.5801
G01 X20.5124 Y13.5924
G01 X20.5030 Y13.6037
G01 X20.4926 Y13.6141
G01 X20.4813 Y13.6235
G01 X20.4752 Y13.6277
G01 X20.4658 Y13.6335
G01 X20.4527 Y13.6401
G01 X20.4390 Y13.6454
G01 X20.4248 Y13.6494
G01 X20.4103 Y13.6519
G01 X20.3993 Y13.6528
G01 X20.3919 Y13.6530
G01 X18.5282 Y13.6530
G01 X18.5135 Y13.6519
G01 X18.5026 Y13.6501
G01 X18.4919 Y13.6476
G01 X18.4779 Y13.6429
G01 X18.4645 Y13.6370
G01 X18.4517 Y13.6297
G01 X18.4425 Y13.6235
G01 X18.4312 Y13.6141
G01 X18.4208 Y13.6037
G01 X18.4114 Y13.5924
G01 X18.4032 Y13.5801
G01 X18.3979 Y13.5704
G01 X18.3948 Y13.5638
G01 X18.3895 Y13.5501
G01 X18.3873 Y13.5430
G01 X18.3848 Y13.5323
G01 X18.3826 Y13.5177
G01 X18.3819 Y13.5030
G01 X18.3819 Y11.6393
G01 X18.3826 Y11.6283
G01 X18.3848 Y11.6137
G01 X18.3884 Y11.5995
G01 X18.3920 Y11.5890
G01 X18.3979 Y11.5756
G01 X18.4052 Y11.5628
G01 X18.4136 Y11.5507
G01 X18.4208 Y11.5423
G01 X18.4312 Y11.5319
G01 X18.4425 Y11.5225
G01 X18.4548 Y11.5143
G01 X18.4678 Y11.5074
G01 X18.4814 Y11.5018
G01 X18.4955 Y11.4975
G01 X18.5026 Y11.4959
G01 X18.5135 Y11.4941
G01 X18.5282 Y11.4930
G01 X20.3919 Y11.4930
G00 Z2.0000
G00 X20.3919 Y11.5930
G01 F60.00
G01 Z-0.0499
G01 F60.00
G01 X20.4017 Y11.5940
G01 X20.4110 Y11.5968
G01 X20.4197 Y11.6014
G01 X20.4273 Y11.6076
G01 X20.4335 Y11.6152
G01 X20.4381 Y11.6239
G01 X20.4407 Y11.6320
G01 X20.4419 Y11.6418
G01 X20.4419 Y13.5030
G01 X20.4409 Y13.5128
G01 X20.4381 Y13.5221
G01 X20.4341 Y13.5297
G01 X20.4281 Y13.5375
G01 X20.4207 Y13.5439
G01 X20.4122 Y13.5487
G01 X20.4064 Y13.5508
G01 X20.4017 Y13.5520
G01 X20.3919 Y13.5530
G01 X18.5319 Y13.5530
G01 X18.5221 Y13.5520
G01 X18.5128 Y13.5492
G01 X18.5052 Y13.5452
G01 X18.4974 Y13.5392
G01 X18.4910 Y13.5318
G01 X18.4862 Y13.5233
G01 X18.4831 Y13.5140
G01 X18.4823 Y13.5091
G01 X18.4819 Y13.5030
G01 X18.4819 Y11.6430
G01 X18.4829 Y11.6332
G01 X18.4853 Y11.6250
G01 X18.4897 Y11.6163
G01 X18.4957 Y11.6085
G01 X18.5002 Y11.6043
G01 X18.5041 Y11.6014
G01 X18.5128 Y11.5968
G01 X18.5221 Y11.5940
G01 X18.5319 Y11.5930
G01 X20.3919 Y11.5930
G00 Z2.0000
G00 X16.3716 Y11.7624
G01 F60.00
G01 Z-0.0499
G01 F60.00
G01 X16.3716 Y7.2976
G01 X12.8143 Y3.7403
G01 X11.8419 Y3.7403
G01 X11.7867 Y3.7375
G01 X11.7346 Y3.7297
G01 X11.6822 Y3.7166
G01 X11.6313 Y3.6984
G01 X11.5847 Y3.6764
G01 X11.5342 Y3.6461
G01 X11.4928 Y3.6153
G01 X11.4537 Y3.5799
G01 X11.4166 Y3.5391
G01 X11.3831 Y3.4936
G01 X11.3555 Y3.4472
G01 X11.3335 Y3.4006
G01 X11.3161 Y3.3521
G01 X11.3022 Y3.2973
G01 X11.2943 Y3.2439
G01 X11.2916 Y3.1900
G01 X11.2946 Y3.1336
G01 X11.3028 Y3.0803
G01 X11.3153 Y3.0303
G01 X11.3327 Y2.9817
G01 X11.3566 Y2.9306
G01 X11.3844 Y2.8843
G01 X11.4166 Y2.8409
G01 X11.4546 Y2.7992
G01 X11.4928 Y2.7647
G01 X11.5342 Y2.7339
G01 X11.5825 Y2.7047
G01 X11.6313 Y2.6816
G01 X11.6845 Y2.6628
G01 X11.7346 Y2.6503
G01 X11.7855 Y2.6427
G01 X11.8394 Y2.6398
G01 X13.0434 Y2.6398
G01 X13.0961 Y2.6424
G01 X13.1471 Y2.6499
G01 X13.2019 Y2.6634
G01 X13.2528 Y2.6816
G01 X13.2994 Y2.7036
G01 X13.3489 Y2.7332
G01 X13.3913 Y2.7647
G01 X13.4313 Y2.8009
G01 X17.3110 Y6.6806
G01 X17.3488 Y6.7226
G01 X17.3794 Y6.7640
G01 X17.4072 Y6.8103
G01 X17.4303 Y6.8591
G01 X17.4491 Y6.9123
G01 X17.4616 Y6.9624
G01 X17.4692 Y7.0133
G01 X17.4721 Y7.0685
G01 X17.4722 Y11.7624
G01 X17.5436 Y11.8154
G01 X17.6131 Y11.8783
G01 X17.6778 Y11.9494
G01 X17.7367 Y12.0285
G01 X17.7862 Y12.1110
G01 X17.8282 Y12.2003
G01 X17.8597 Y12.2885
G01 X17.8825 Y12.3794
G01 X17.8972 Y12.4769
G01 X17.9019 Y12.5730
G01 X17.8972 Y12.6691
G01 X17.8825 Y12.7666
G01 X17.8597 Y12.8575
G01 X17.8282 Y12.9457
G01 X17.7862 Y13.0350
G01 X17.7367 Y13.1175
G01 X17.6778 Y13.1966
G01 X17.6149 Y13.2660
G01 X17.5455 Y13.3289
G01 X17.4664 Y13.3878
G01 X17.3839 Y13.4373
G01 X17.2969 Y13.4784
G01 X17.2064 Y13.5108
G01 X17.1131 Y13.5342
G01 X17.0180 Y13.5483
G01 X16.9219 Y13.5530
G01 X16.8258 Y13.5483
G01 X16.7307 Y13.5342
G01 X16.6374 Y13.5108
G01 X16.5469 Y13.4784
G01 X16.4599 Y13.4373
G01 X16.3774 Y13.3878
G01 X16.3002 Y13.3306
G01 X16.2289 Y13.2660
G01 X16.1643 Y13.1947
G01 X16.1071 Y13.1175
G01 X16.0576 Y13.0350
G01 X16.0165 Y12.9480
G01 X15.9841 Y12.8575
G01 X15.9607 Y12.7642
G01 X15.9466 Y12.6691
G01 X15.9419 Y12.5730
G01 X15.9466 Y12.4769
G01 X15.9607 Y12.3818
G01 X15.9841 Y12.2885
G01 X16.0165 Y12.1980
G01 X16.0576 Y12.1110
G01 X16.1071 Y12.0285
G01 X16.1643 Y11.9513
G01 X16.2289 Y11.8800
G01 X16.3002 Y11.8154
G01 X16.3716 Y11.7624
G00 Z2.0000
G00 X13.4020 Y12.5755
G01 F60.00
G01 Z-0.0499
G01 F60.00
G01 X13.4066 Y12.4769
G01 X13.4207 Y12.3818
G01 X13.4441 Y12.2885
G01 X13.4765 Y12.1980
G01 X13.5176 Y12.1110
G01 X13.5671 Y12.0285
G01 X13.6243 Y11.9513
G01 X13.6889 Y11.8800
G01 X13.7602 Y11.8154
G01 X13.8374 Y11.7582
G01 X13.9199 Y11.7087
G01 X14.0069 Y11.6676
G01 X14.0974 Y11.6352
G01 X14.1907 Y11.6118
G01 X14.2858 Y11.5977
G01 X14.3819 Y11.5930
G01 X14.4780 Y11.5977
G01 X14.5731 Y11.6118
G01 X14.6664 Y11.6352
G01 X14.7569 Y11.6676
G01 X14.8439 Y11.7087
G01 X14.9264 Y11.7582
G01 X15.0036 Y11.8154
G01 X15.0749 Y11.8800
G01 X15.1395 Y11.9513
G01 X15.1967 Y12.0285
G01 X15.2462 Y12.1110
G01 X15.2873 Y12.1980
G01 X15.3197 Y12.2885
G01 X15.3431 Y12.3818
G01 X15.3572 Y12.4769
G01 X15.3619 Y12.5730
G01 X15.3572 Y12.6691
G01 X15.3431 Y12.7642
G01 X15.3197 Y12.8575
G01 X15.2873 Y12.9480
G01 X15.2462 Y13.0350
G01 X15.1967 Y13.1175
G01 X15.1395 Y13.1947
G01 X15.0749 Y13.2660
G01 X15.0036 Y13.3306
G01 X14.9264 Y13.3878
G01 X14.8439 Y13.4373
G01 X14.7569 Y13.4784
G01 X14.6664 Y13.5108
G01 X14.5731 Y13.5342
G01 X14.4780 Y13.5483
G01 X14.3819 Y13.5530
G01 X14.2858 Y13.5483
G01 X14.1907 Y13.5342
G01 X14.0974 Y13.5108
G01 X14.0069 Y13.4784
G01 X13.9199 Y13.4373
G01 X13.8374 Y13.3878
G01 X13.7602 Y13.3306
G01 X13.6889 Y13.2660
G01 X13.6243 Y13.1947
G01 X13.5671 Y13.1175
G01 X13.5176 Y13.0350
G01 X13.4765 Y12.9480
G01 X13.4441 Y12.8575
G01 X13.4207 Y12.7642
G01 X13.4066 Y12.6691
G01 X13.4020 Y12.5755
G00 Z2.0000
G00 X13.3021 Y12.5804
G01 F60.00
G01 Z-0.0499
G01 F60.00
G01 X13.3021 Y12.5656
G01 X13.3071 Y12.4671
G01 X13.3227 Y12.3623
G01 X13.3484 Y12.2595
G01 X13.3841 Y12.1597
G01 X13.4294 Y12.0639
G01 X13.4839 Y11.9730
G01 X13.5470 Y11.8879
G01 X13.6182 Y11.8093
G01 X13.6968 Y11.7381
G01 X13.7819 Y11.6750
G01 X13.8728 Y11.6205
G01 X13.9686 Y11.5752
G01 X14.0684 Y11.5395
G01 X14.1712 Y11.5138
G01 X14.2760 Y11.4982
G01 X14.3819 Y11.4930
G01 X14.4878 Y11.4982
G01 X14.5926 Y11.5138
G01 X14.6954 Y11.5395
G01 X14.7952 Y11.5752
G01 X14.8910 Y11.6205
G01 X14.9819 Y11.6750
G01 X15.0670 Y11.7381
G01 X15.1456 Y11.8093
G01 X15.2168 Y11.8879
G01 X15.2799 Y11.9730
G01 X15.3344 Y12.0639
G01 X15.3797 Y12.1597
G01 X15.4154 Y12.2595
G01 X15.4411 Y12.3623
G01 X15.4567 Y12.4671
G01 X15.4619 Y12.5730
G01 X15.4567 Y12.6789
G01 X15.4411 Y12.7837
G01 X15.4154 Y12.8865
G01 X15.3797 Y12.9863
G01 X15.3344 Y13.0821
G01 X15.2799 Y13.1730
G01 X15.2168 Y13.2581
G01 X15.1456 Y13.3367
G01 X15.0670 Y13.4079
G01 X14.9819 Y13.4710
G01 X14.8910 Y13.5255
G01 X14.7952 Y13.5708
G01 X14.6954 Y13.6065
G01 X14.5926 Y13.6322
G01 X14.4878 Y13.6478
G01 X14.3819 Y13.6530
G01 X14.2760 Y13.6478
G01 X14.1712 Y13.6322
G01 X14.0684 Y13.6065
G01 X13.9686 Y13.5708
G01 X13.8728 Y13.5255
G01 X13.7819 Y13.4710
G01 X13.6968 Y13.4079
G01 X13.6182 Y13.3367
G01 X13.5470 Y13.2581
G01 X13.4839 Y13.1730
G01 X13.4294 Y13.0821
G01 X13.3841 Y12.9863
G01 X13.3484 Y12.8865
G01 X13.3227 Y12.7837
G01 X13.3071 Y12.6789
G01 X13.3021 Y12.5804
G00 Z2.0000
G00 X8.7560 Y13.4645
G01 F60.00
G01 Z-0.0499
G01 F60.00
G01 X8.7598 Y13.3836
G01 X8.7713 Y13.3059
G01 X8.7903 Y13.2298
G01 X8.8168 Y13.1559
G01 X8.8504 Y13.0849
G01 X8.8907 Y13.0175
G01 X8.9375 Y12.9545
G01 X8.9902 Y12.8963
G01 X9.0484 Y12.8436
G01 X9.1114 Y12.7968
G01 X9.1788 Y12.7565
G01 X9.2498 Y12.7229
G01 X9.3237 Y12.6964
G01 X9.3998 Y12.6774
G01 X9.4775 Y12.6659
G01 X9.5559 Y12.6620
G01 X9.6343 Y12.6659
G01 X9.7120 Y12.6774
G01 X9.7881 Y12.6964
G01 X9.8620 Y12.7229
G01 X9.9330 Y12.7565
G01 X10.0004 Y12.7968
G01 X10.0634 Y12.8436
G01 X10.1216 Y12.8963
G01 X10.1743 Y12.9545
G01 X10.2211 Y13.0175
G01 X10.2614 Y13.0849
G01 X10.2950 Y13.1559
G01 X10.3215 Y13.2298
G01 X10.3405 Y13.3059
G01 X10.3520 Y13.3836
G01 X10.3559 Y13.4620
G01 X10.3520 Y13.5404
G01 X10.3405 Y13.6181
G01 X10.3215 Y13.6942
G01 X10.2950 Y13.7681
G01 X10.2614 Y13.8391
G01 X10.2211 Y13.9065
G01 X10.1743 Y13.9695
G01 X10.1216 Y14.0277
G01 X10.0634 Y14.0804
G01 X10.0004 Y14.1272
G01 X9.9330 Y14.1675
G01 X9.8620 Y14.2011
G01 X9.7881 Y14.2276
G01 X9.7120 Y14.2466
G01 X9.6343 Y14.2581
G01 X9.5559 Y14.2620
G01 X9.4775 Y14.2581
G01 X9.3998 Y14.2466
G01 X9.3237 Y14.2276
G01 X9.2498 Y14.2011
G01 X9.1788 Y14.1675
G01 X9.1114 Y14.1272
G01 X9.0484 Y14.0804
G01 X8.9902 Y14.0277
G01 X8.9375 Y13.9695
G01 X8.8907 Y13.9065
G01 X8.8504 Y13.8391
G01 X8.8168 Y13.7681
G01 X8.7903 Y13.6942
G01 X8.7713 Y13.6181
G01 X8.7598 Y13.5404
G01 X8.7560 Y13.4645
G00 Z2.0000
G00 X8.6561 Y13.4694
G01 F60.00
G01 Z-0.0499
G01 F60.00
G01 X8.6561 Y13.4546
G01 X8.6602 Y13.3738
G01 X8.6732 Y13.2864
G01 X8.6947 Y13.2007
G01 X8.7244 Y13.1176
G01 X8.7622 Y13.0377
G01 X8.8076 Y12.9620
G01 X8.8602 Y12.8910
G01 X8.9195 Y12.8256
G01 X8.9849 Y12.7663
G01 X9.0559 Y12.7137
G01 X9.1316 Y12.6683
G01 X9.2115 Y12.6305
G01 X9.2946 Y12.6008
G01 X9.3803 Y12.5793
G01 X9.4677 Y12.5663
G01 X9.5559 Y12.5620
G01 X9.6441 Y12.5663
G01 X9.7315 Y12.5793
G01 X9.8172 Y12.6008
G01 X9.9003 Y12.6305
G01 X9.9802 Y12.6683
G01 X10.0559 Y12.7137
G01 X10.1269 Y12.7663
G01 X10.1923 Y12.8256
G01 X10.2516 Y12.8910
G01 X10.3042 Y12.9620
G01 X10.3496 Y13.0377
G01 X10.3874 Y13.1176
G01 X10.4171 Y13.2007
G01 X10.4386 Y13.2864
G01 X10.4516 Y13.3738
G01 X10.4559 Y13.4620
G01 X10.4516 Y13.5502
G01 X10.4386 Y13.6376
G01 X10.4171 Y13.7233
G01 X10.3874 Y13.8064
G01 X10.3496 Y13.8863
G01 X10.3042 Y13.9620
G01 X10.2516 Y14.0330
G01 X10.1923 Y14.0984
G01 X10.1269 Y14.1577
G01 X10.0559 Y14.2103
G01 X9.9802 Y14.2557
G01 X9.9003 Y14.2935
G01 X9.8172 Y14.3232
G01 X9.7315 Y14.3447
G01 X9.6441 Y14.3577
G01 X9.5559 Y14.3620
G01 X9.4677 Y14.3577
G01 X9.3803 Y14.3447
G01 X9.2946 Y14.3232
G01 X9.2115 Y14.2935
G01 X9.1316 Y14.2557
G01 X9.0559 Y14.2103
G01 X8.9849 Y14.1577
G01 X8.9195 Y14.0984
G01 X8.8602 Y14.0330
G01 X8.8076 Y13.9620
G01 X8.7622 Y13.8863
G01 X8.7244 Y13.8064
G01 X8.6947 Y13.7233
G01 X8.6732 Y13.6376
G01 X8.6602 Y13.5502
G01 X8.6561 Y13.4694
G00 Z2.0000
G00 X3.6716 Y16.3295
G01 F60.00
G01 Z-0.0499
G01 F60.00
G01 X3.6716 Y16.1550
G01 X2.7207 Y16.1550
G01 X2.7134 Y16.1543
G01 X2.7051 Y16.1521
G01 X2.6983 Y16.1491
G01 X2.6921 Y16.1452
G01 X2.6865 Y16.1404
G01 X2.6810 Y16.1338
G01 X2.6772 Y16.1275
G01 X2.6741 Y16.1195
G01 X2.6724 Y16.1123
G01 X2.6719 Y16.1050
G01 X2.6719 Y13.1050
G01 X2.6723 Y13.0989
G01 X2.6737 Y13.0917
G01 X2.6762 Y13.0847
G01 X2.6797 Y13.0783
G01 X2.6832 Y13.0733
G01 X2.6874 Y13.0688
G01 X2.6921 Y13.0648
G01 X2.6973 Y13.0615
G01 X2.7028 Y13.0588
G01 X2.7086 Y13.0568
G01 X2.7146 Y13.0555
G01 X2.7219 Y13.0550
G01 X5.7219 Y13.0550
G01 X5.7292 Y13.0555
G01 X5.7364 Y13.0572
G01 X5.7422 Y13.0593
G01 X5.7486 Y13.0628
G01 X5.7536 Y13.0663
G01 X5.7589 Y13.0714
G01 X5.7628 Y13.0762
G01 X5.7660 Y13.0814
G01 X5.7685 Y13.0870
G01 X5.7704 Y13.0929
G01 X5.7715 Y13.0989
G01 X5.7719 Y13.1050
G01 X5.7719 Y16.1050
G01 X5.7715 Y16.1111
G01 X5.7704 Y16.1171
G01 X5.7685 Y16.1230
G01 X5.7660 Y16.1286
G01 X5.7628 Y16.1338
G01 X5.7589 Y16.1386
G01 X5.7546 Y16.1429
G01 X5.7486 Y16.1472
G01 X5.7422 Y16.1507
G01 X5.7364 Y16.1528
G01 X5.7292 Y16.1545
G01 X5.7231 Y16.1550
G01 X4.7722 Y16.1550
G01 X4.7722 Y16.8053
G01 X4.7694 Y16.8605
G01 X4.7616 Y16.9126
G01 X4.7491 Y16.9627
G01 X4.7303 Y17.0159
G01 X4.7060 Y17.0668
G01 X4.6794 Y17.1110
G01 X4.6480 Y17.1534
G01 X4.6110 Y17.1944
G01 X4.5690 Y17.2322
G01 X4.5276 Y17.2628
G01 X4.4834 Y17.2894
G01 X4.4325 Y17.3137
G01 X4.3816 Y17.3319
G01 X4.3280 Y17.3452
G01 X4.2746 Y17.3530
G01 X4.2231 Y17.3555
G01 X4.1748 Y17.3556
G01 X2.5559 Y18.9745
G01 X2.5559 Y28.5377
G01 X3.2059 Y28.5377
G01 X3.2574 Y28.5402
G01 X3.3156 Y28.5489
G01 X3.3656 Y28.5614
G01 X3.4176 Y28.5801
G01 X3.4653 Y28.6027
G01 X3.5095 Y28.6292
G01 X3.5550 Y28.6627
G01 X3.5950 Y28.6989
G01 X3.6296 Y28.7371
G01 X3.6634 Y28.7823
G01 X3.6923 Y28.8308
G01 X3.7143 Y28.8774
G01 X3.7325 Y28.9283
G01 X3.7460 Y28.9831
G01 X3.7535 Y29.0341
G01 X3.7561 Y29.0868
G01 X3.7532 Y29.1444
G01 X3.7456 Y29.1953
G01 X3.7325 Y29.2477
G01 X3.7143 Y29.2986
G01 X3.6923 Y29.3452
G01 X3.6634 Y29.3937
G01 X3.6296 Y29.4389
G01 X3.5950 Y29.4771
G01 X3.5550 Y29.5133
G01 X3.5095 Y29.5468
G01 X3.4653 Y29.5733
G01 X3.4187 Y29.5954
G01 X3.3656 Y29.6146
G01 X3.3156 Y29.6271
G01 X3.2574 Y29.6358
G01 X3.2059 Y29.6383
G01 X2.5559 Y29.6383
G01 X2.5559 Y34.7419
G01 X3.5950 Y35.7810
G01 X3.6305 Y35.8201
G01 X3.6647 Y35.8665
G01 X3.6912 Y35.9107
G01 X3.7143 Y35.9595
G01 X3.7325 Y36.0104
G01 X3.7450 Y36.0604
G01 X3.7536 Y36.1174
G01 X3.7562 Y36.1701
G01 X3.7561 Y37.3716
G01 X3.7535 Y37.4243
G01 X3.7460 Y37.4753
G01 X3.7325 Y37.5301
G01 X3.7143 Y37.5810
G01 X3.6923 Y37.6276
G01 X3.6620 Y37.6781
G01 X3.6312 Y37.7195
G01 X3.5950 Y37.7595
G01 X3.5550 Y37.7957
G01 X3.5136 Y37.8265
G01 X3.4631 Y37.8568
G01 X3.4165 Y37.8788
G01 X3.3656 Y37.8970
G01 X3.3132 Y37.9101
G01 X3.2623 Y37.9177
G01 X3.2047 Y37.9206
G01 X3.1520 Y37.9180
G01 X3.1010 Y37.9105
G01 X3.0462 Y37.8970
G01 X2.9953 Y37.8788
G01 X2.9487 Y37.8568
G01 X2.9002 Y37.8279
G01 X2.8550 Y37.7941
G01 X2.8168 Y37.7595
G01 X2.7806 Y37.7195
G01 X2.7484 Y37.6761
G01 X2.7218 Y37.6319
G01 X2.6967 Y37.5787
G01 X2.6793 Y37.5301
G01 X2.6662 Y37.4777
G01 X2.6583 Y37.4243
G01 X2.6557 Y37.3716
G01 X2.6556 Y36.3980
G01 X1.6165 Y35.3589
G01 X1.5810 Y35.3198
G01 X1.5468 Y35.2734
G01 X1.5203 Y35.2292
G01 X1.4972 Y35.1804
G01 X1.4790 Y35.1295
G01 X1.4665 Y35.0795
G01 X1.4580 Y35.0237
G01 X1.4553 Y34.9698
G01 X1.4554 Y18.7454
G01 X1.4580 Y18.6927
G01 X1.4659 Y18.6393
G01 X1.4790 Y18.5869
G01 X1.4972 Y18.5360
G01 X1.5203 Y18.4872
G01 X1.5481 Y18.4409
G01 X1.5803 Y18.3975
G01 X1.6148 Y18.3593
G01 X3.5578 Y16.4162
G01 X3.5988 Y16.3792
G01 X3.6412 Y16.3478
G01 X3.6716 Y16.3295
G00 Z2.0000
G00 X2.7695 Y18.9023
G01 F60.00
G01 Z-0.0499
G01 F60.00
G01 X2.7634 Y18.9138
G01 X2.6975 Y19.0536
G01 X2.6559 Y19.1694
G01 X2.6559 Y19.0159
G01 X2.7695 Y18.9023
G00 Z2.0000
G00 X2.6720 Y19.6875
G01 F60.00
G01 Z-0.0499
G01 F60.00
G01 X2.6794 Y19.5331
G01 X2.7017 Y19.3826
G01 X2.7386 Y19.2351
G01 X2.7899 Y19.0918
G01 X2.8549 Y18.9543
G01 X2.9331 Y18.8239
G01 X3.0237 Y18.7017
G01 X3.1259 Y18.5890
G01 X3.2386 Y18.4868
G01 X3.3608 Y18.3962
G01 X3.4912 Y18.3180
G01 X3.6287 Y18.2530
G01 X3.7720 Y18.2017
G01 X3.9195 Y18.1648
G01 X4.0700 Y18.1425
G01 X4.2219 Y18.1350
G01 X4.3738 Y18.1425
G01 X4.5243 Y18.1648
G01 X4.6718 Y18.2017
G01 X4.8151 Y18.2530
G01 X4.9526 Y18.3180
G01 X5.0830 Y18.3962
G01 X5.2052 Y18.4868
G01 X5.3179 Y18.5890
G01 X5.4201 Y18.7017
G01 X5.5107 Y18.8239
G01 X5.5889 Y18.9543
G01 X5.6539 Y19.0918
G01 X5.7052 Y19.2351
G01 X5.7421 Y19.3826
G01 X5.7644 Y19.5331
G01 X5.7719 Y19.6850
G01 X5.7644 Y19.8369
G01 X5.7421 Y19.9874
G01 X5.7052 Y20.1349
G01 X5.6539 Y20.2782
G01 X5.5889 Y20.4157
G01 X5.5107 Y20.5461
G01 X5.4201 Y20.6683
G01 X5.3179 Y20.7810
G01 X5.2052 Y20.8832
G01 X5.0830 Y20.9738
G01 X4.9526 Y21.0520
G01 X4.8151 Y21.1170
G01 X4.6718 Y21.1683
G01 X4.5243 Y21.2052
G01 X4.3738 Y21.2275
G01 X4.2219 Y21.2350
G01 X4.0700 Y21.2275
G01 X3.9195 Y21.2052
G01 X3.7720 Y21.1683
G01 X3.6287 Y21.1170
G01 X3.4912 Y21.0520
G01 X3.3608 Y20.9738
G01 X3.2386 Y20.8832
G01 X3.1259 Y20.7810
G01 X3.0237 Y20.6683
G01 X2.9331 Y20.5461
G01 X2.8549 Y20.4157
G01 X2.7899 Y20.2782
G01 X2.7386 Y20.1349
G01 X2.7017 Y19.9874
G01 X2.6794 Y19.8369
G01 X2.6720 Y19.6875
G00 Z2.0000
G00 X2.6559 Y20.2006
G01 F60.00
G01 Z-0.0499
G01 F60.00
G01 X2.6559 Y28.4377
G01 X3.2059 Y28.4377
G01 X3.2696 Y28.4409
G01 X3.3328 Y28.4502
G01 X3.3947 Y28.4657
G01 X3.4547 Y28.4872
G01 X3.5124 Y28.5145
G01 X3.5672 Y28.5473
G01 X3.6126 Y28.5808
G01 X3.6240 Y28.5902
G01 X3.6657 Y28.6282
G01 X3.7037 Y28.6699
G01 X3.7131 Y28.6813
G01 X3.7466 Y28.7267
G01 X3.7757 Y28.7751
G01 X3.7827 Y28.7881
G01 X3.8067 Y28.8392
G01 X3.8258 Y28.8923
G01 X3.8301 Y28.9063
G01 X3.8437 Y28.9611
G01 X3.8521 Y29.0170
G01 X3.8536 Y29.0316
G01 X3.8562 Y29.0880
G01 X3.8530 Y29.1517
G01 X3.8449 Y29.2076
G01 X3.8420 Y29.2220
G01 X3.8282 Y29.2768
G01 X3.8067 Y29.3368
G01 X3.7827 Y29.3879
G01 X3.7757 Y29.4009
G01 X3.7505 Y29.4430
G01 X3.7423 Y29.4553
G01 X3.7086 Y29.5005
G01 X3.6657 Y29.5478
G01 X3.6184 Y29.5907
G01 X3.5732 Y29.6244
G01 X3.5609 Y29.6326
G01 X3.5188 Y29.6578
G01 X3.5058 Y29.6648
G01 X3.4547 Y29.6888
G01 X3.4015 Y29.7080
G01 X3.7059 Y29.7080
G01 X3.7206 Y29.7087
G01 X3.7279 Y29.7096
G01 X3.7388 Y29.7116
G01 X3.7459 Y29.7134
G01 X3.7564 Y29.7168
G01 X3.7633 Y29.7194
G01 X3.7733 Y29.7240
G01 X3.7830 Y29.7293
G01 X3.7892 Y29.7333
G01 X3.7982 Y29.7397
G01 X3.8066 Y29.7469
G01 X3.8145 Y29.7546
G01 X3.8195 Y29.7600
G01 X3.8242 Y29.7657
G01 X3.8306 Y29.7747
G01 X3.8346 Y29.7809
G01 X3.8399 Y29.7906
G01 X3.8430 Y29.7972
G01 X3.8471 Y29.8075
G01 X3.8514 Y29.8216
G01 X3.8537 Y29.8324
G01 X3.8555 Y29.8470
G01 X3.8559 Y29.8580
G01 X3.8559 Y30.8617
G01 X3.8552 Y30.8727
G01 X3.8537 Y30.8836
G01 X3.8523 Y30.8909
G01 X3.8494 Y30.9015
G01 X3.8458 Y30.9120
G01 X3.8415 Y30.9221
G01 X3.8364 Y30.9319
G01 X3.8326 Y30.9382
G01 X3.8242 Y30.9503
G01 X3.8170 Y30.9587
G01 X3.8120 Y30.9641
G01 X3.8066 Y30.9691
G01 X3.7982 Y30.9763
G01 X3.7892 Y30.9827
G01 X3.7830 Y30.9867
G01 X3.7733 Y30.9920
G01 X3.7667 Y30.9951
G01 X3.7564 Y30.9992
G01 X3.7494 Y31.0015
G01 X3.7423 Y31.0035
G01 X3.7315 Y31.0058
G01 X3.7243 Y31.0069
G01 X3.7133 Y31.0078
G01 X2.7059 Y31.0080
G01 X2.6912 Y31.0073
G01 X2.6803 Y31.0058
G01 X2.6695 Y31.0035
G01 X2.6559 Y30.9994
G01 X2.6559 Y34.7005
G01 X3.6657 Y35.7103
G01 X3.7037 Y35.7520
G01 X3.7131 Y35.7634
G01 X3.7466 Y35.8088
G01 X3.7757 Y35.8572
G01 X3.7827 Y35.8702
G01 X3.8067 Y35.9213
G01 X3.8258 Y35.9744
G01 X3.8301 Y35.9884
G01 X3.8429 Y36.0396
G01 X3.8449 Y36.0505
G01 X3.8530 Y36.1064
G01 X3.8562 Y36.1701
G01 X3.8562 Y37.3704
G01 X3.8530 Y37.4341
G01 X3.8449 Y37.4900
G01 X3.8429 Y37.5009
G01 X3.8301 Y37.5521
G01 X3.8258 Y37.5661
G01 X3.8067 Y37.6192
G01 X3.7827 Y37.6703
G01 X3.7757 Y37.6833
G01 X3.7466 Y37.7317
G01 X3.7131 Y37.7771
G01 X3.7037 Y37.7885
G01 X3.6657 Y37.8302
G01 X3.6240 Y37.8682
G01 X3.6126 Y37.8776
G01 X3.5672 Y37.9111
G01 X3.5188 Y37.9402
G01 X3.5058 Y37.9472
G01 X3.4547 Y37.9712
G01 X3.4015 Y37.9904
G01 X3.7096 Y37.9904
G01 X3.7243 Y37.9915
G01 X3.7352 Y37.9933
G01 X3.7423 Y37.9949
G01 X3.7530 Y37.9980
G01 X3.7633 Y38.0018
G01 X3.7733 Y38.0064
G01 X3.7798 Y38.0099
G01 X3.7892 Y38.0157
G01 X3.7982 Y38.0221
G01 X3.8066 Y38.0293
G01 X3.8120 Y38.0343
G01 X3.8195 Y38.0424
G01 X3.8264 Y38.0510
G01 X3.8306 Y38.0571
G01 X3.8364 Y38.0665
G01 X3.8415 Y38.0763
G01 X3.8458 Y38.0864
G01 X3.8483 Y38.0933
G01 X3.8514 Y38.1040
G01 X3.8530 Y38.1111
G01 X3.8548 Y38.1220
G01 X3.8555 Y38.1294
G01 X3.8559 Y38.1404
G01 X3.8559 Y39.1404
G01 X3.8555 Y39.1514
G01 X3.8548 Y39.1588
G01 X3.8523 Y39.1733
G01 X3.8494 Y39.1839
G01 X3.8445 Y39.1978
G01 X3.8399 Y39.2078
G01 X3.8346 Y39.2175
G01 X3.8264 Y39.2298
G01 X3.8170 Y39.2411
G01 X3.8066 Y39.2515
G01 X3.7953 Y39.2609
G01 X3.7861 Y39.2671
G01 X3.7733 Y39.2744
G01 X3.7633 Y39.2790
G01 X3.7530 Y39.2828
G01 X3.7388 Y39.2868
G01 X3.7279 Y39.2888
G01 X3.7133 Y39.2902
G01 X2.7059 Y39.2904
G01 X2.6949 Y39.2900
G01 X2.6875 Y39.2893
G01 X2.6766 Y39.2875
G01 X2.6659 Y39.2850
G01 X2.6588 Y39.2828
G01 X2.6519 Y39.2803
G01 X2.6418 Y39.2760
G01 X2.6352 Y39.2727
G01 X2.6257 Y39.2671
G01 X2.6195 Y39.2630
G01 X2.6107 Y39.2564
G01 X2.6052 Y39.2515
G01 X2.5973 Y39.2438
G01 X2.5899 Y39.2356
G01 X2.5854 Y39.2298
G01 X2.5812 Y39.2237
G01 X2.5754 Y39.2143
G01 X2.5719 Y39.2078
G01 X2.5673 Y39.1978
G01 X2.5647 Y39.1909
G01 X2.5613 Y39.1804
G01 X2.5588 Y39.1697
G01 X2.5570 Y39.1588
G01 X2.5561 Y39.1478
G01 X2.5559 Y39.1404
G01 X2.5559 Y38.1404
G01 X2.5566 Y38.1257
G01 X2.5581 Y38.1148
G01 X2.5604 Y38.1040
G01 X2.5647 Y38.0899
G01 X2.5688 Y38.0796
G01 X2.5719 Y38.0730
G01 X2.5754 Y38.0665
G01 X2.5812 Y38.0571
G01 X2.5876 Y38.0481
G01 X2.5948 Y38.0397
G01 X2.5998 Y38.0343
G01 X2.6079 Y38.0268
G01 X2.6165 Y38.0199
G01 X2.6226 Y38.0157
G01 X2.6320 Y38.0099
G01 X2.6385 Y38.0064
G01 X2.6451 Y38.0033
G01 X2.6554 Y37.9992
G01 X2.6659 Y37.9958
G01 X2.6730 Y37.9940
G01 X2.6803 Y37.9926
G01 X2.6912 Y37.9911
G01 X2.7059 Y37.9904
G01 X3.0103 Y37.9904
G01 X2.9639 Y37.9738
G01 X2.9503 Y37.9682
G01 X2.8994 Y37.9439
G01 X2.8509 Y37.9150
G01 X2.8386 Y37.9068
G01 X2.7934 Y37.8731
G01 X2.7461 Y37.8302
G01 X2.7081 Y37.7885
G01 X2.6987 Y37.7771
G01 X2.6652 Y37.7317
G01 X2.6361 Y37.6833
G01 X2.6291 Y37.6703
G01 X2.6051 Y37.6192
G01 X2.5836 Y37.5592
G01 X2.5698 Y37.5044
G01 X2.5669 Y37.4900
G01 X2.5588 Y37.4341
G01 X2.5557 Y37.3741
G01 X2.5556 Y36.4394
G01 X1.5458 Y35.4296
G01 X1.5053 Y35.3851
G01 X1.4984 Y35.3765
G01 X1.4692 Y35.3371
G01 X1.4610 Y35.3248
G01 X1.4321 Y35.2763
G01 X1.4048 Y35.2186
G01 X1.3857 Y35.1655
G01 X1.3814 Y35.1515
G01 X1.3678 Y35.0967
G01 X1.3589 Y35.0372
G01 X1.3579 Y35.0262
G01 X1.3553 Y34.9698
G01 X1.3553 Y18.7466
G01 X1.3582 Y18.6865
G01 X1.3594 Y18.6756
G01 X1.3678 Y18.6197
G01 X1.3814 Y18.5649
G01 X1.3857 Y18.5509
G01 X1.4022 Y18.5046
G01 X1.4078 Y18.4910
G01 X1.4321 Y18.4401
G01 X1.4649 Y18.3853
G01 X1.5029 Y18.3341
G01 X1.5407 Y18.2921
G01 X3.4871 Y16.3455
G01 X3.5344 Y16.3026
G01 X3.5716 Y16.2748
G01 X3.5716 Y16.2550
G01 X2.7219 Y16.2550
G01 X2.7109 Y16.2546
G01 X2.7035 Y16.2539
G01 X2.6926 Y16.2521
G01 X2.6819 Y16.2496
G01 X2.6714 Y16.2462
G01 X2.6611 Y16.2421
G01 X2.6512 Y16.2373
G01 X2.6448 Y16.2337
G01 X2.6355 Y16.2276
G01 X2.6267 Y16.2210
G01 X2.6185 Y16.2136
G01 X2.6108 Y16.2057
G01 X2.6036 Y16.1973
G01 X2.5972 Y16.1883
G01 X2.5914 Y16.1789
G01 X2.5863 Y16.1691
G01 X2.5820 Y16.1590
G01 X2.5784 Y16.1485
G01 X2.5755 Y16.1379
G01 X2.5735 Y16.1270
G01 X2.5723 Y16.1160
G01 X2.5719 Y16.1050
G01 X2.5719 Y13.1050
G01 X2.5726 Y13.0903
G01 X2.5741 Y13.0794
G01 X2.5764 Y13.0686
G01 X2.5807 Y13.0545
G01 X2.5863 Y13.0409
G01 X2.5914 Y13.0311
G01 X2.5972 Y13.0217
G01 X2.6036 Y13.0127
G01 X2.6133 Y13.0016
G01 X2.6212 Y12.9939
G01 X2.6267 Y12.9890
G01 X2.6386 Y12.9803
G01 X2.6480 Y12.9745
G01 X2.6545 Y12.9710
G01 X2.6645 Y12.9664
G01 X2.6714 Y12.9638
G01 X2.6855 Y12.9595
G01 X2.6999 Y12.9566
G01 X2.7109 Y12.9554
G01 X2.7182 Y12.9550
G01 X5.7219 Y12.9550
G01 X5.7366 Y12.9557
G01 X5.7475 Y12.9572
G01 X5.7548 Y12.9586
G01 X5.7690 Y12.9626
G01 X5.7827 Y12.9679
G01 X5.7926 Y12.9727
G01 X5.8021 Y12.9783
G01 X5.8113 Y12.9845
G01 X5.8171 Y12.9890
G01 X5.8253 Y12.9964
G01 X5.8330 Y13.0043
G01 X5.8402 Y13.0127
G01 X5.8466 Y13.0217
G01 X5.8524 Y13.0311
G01 X5.8575 Y13.0409
G01 X5.8618 Y13.0510
G01 X5.8654 Y13.0615
G01 X5.8674 Y13.0686
G01 X5.8697 Y13.0794
G01 X5.8712 Y13.0903
G01 X5.8719 Y13.1013
G01 X5.8719 Y16.1050
G01 X5.8712 Y16.1197
G01 X5.8690 Y16.1343
G01 X5.8674 Y16.1414
G01 X5.8643 Y16.1521
G01 X5.8590 Y16.1658
G01 X5.8542 Y16.1757
G01 X5.8486 Y16.1852
G01 X5.8424 Y16.1944
G01 X5.8379 Y16.2002
G01 X5.8330 Y16.2057
G01 X5.8253 Y16.2136
G01 X5.8171 Y16.2210
G01 X5.8083 Y16.2276
G01 X5.7990 Y16.2337
G01 X5.7926 Y16.2373
G01 X5.7860 Y16.2406
G01 X5.7759 Y16.2449
G01 X5.7654 Y16.2485
G01 X5.7548 Y16.2514
G01 X5.7475 Y16.2528
G01 X5.7366 Y16.2543
G01 X5.7219 Y16.2550
G01 X4.8722 Y16.2550
G01 X4.8722 Y16.8053
G01 X4.8696 Y16.8617
G01 X4.8686 Y16.8727
G01 X4.8609 Y16.9249
G01 X4.8580 Y16.9393
G01 X4.8442 Y16.9941
G01 X4.8253 Y17.0473
G01 X4.8197 Y17.0609
G01 X4.7954 Y17.1118
G01 X4.7665 Y17.1603
G01 X4.7583 Y17.1726
G01 X4.7291 Y17.2120
G01 X4.7197 Y17.2234
G01 X4.6817 Y17.2651
G01 X4.6400 Y17.3031
G01 X4.6286 Y17.3125
G01 X4.5832 Y17.3460
G01 X4.5284 Y17.3788
G01 X4.4775 Y17.4031
G01 X4.4639 Y17.4087
G01 X4.4107 Y17.4276
G01 X4.3559 Y17.4414
G01 X4.3415 Y17.4443
G01 X4.2856 Y17.4524
G01 X4.2293 Y17.4554
G01 X4.2162 Y17.4556
G01 X3.4392 Y18.2326
G01 X3.4507 Y18.2265
G01 X3.5837 Y18.1636
G01 X3.5973 Y18.1579
G01 X3.7429 Y18.1060
G01 X3.9000 Y18.0667
G01 X4.0602 Y18.0429
G01 X4.2145 Y18.0352
G01 X4.2293 Y18.0352
G01 X4.3836 Y18.0429
G01 X4.5365 Y18.0654
G01 X4.5510 Y18.0683
G01 X4.7009 Y18.1060
G01 X4.8533 Y18.1606
G01 X4.9997 Y18.2298
G01 X5.1324 Y18.3091
G01 X5.1446 Y18.3173
G01 X5.2628 Y18.4050
G01 X5.2742 Y18.4143
G01 X5.3886 Y18.5183
G01 X5.4926 Y18.6327
G01 X5.5019 Y18.6441
G01 X5.5896 Y18.7623
G01 X5.5978 Y18.7745
G01 X5.6771 Y18.9072
G01 X5.7463 Y19.0536
G01 X5.8009 Y19.2060
G01 X5.8386 Y19.3559
G01 X5.8415 Y19.3704
G01 X5.8631 Y19.5160
G01 X5.8645 Y19.5306
G01 X5.8719 Y19.6850
G01 X5.8640 Y19.8467
G01 X5.8402 Y20.0069
G01 X5.8028 Y20.1569
G01 X5.7985 Y20.1710
G01 X5.7490 Y20.3096
G01 X5.7449 Y20.3198
G01 X5.6771 Y20.4628
G01 X5.5978 Y20.5955
G01 X5.5896 Y20.6077
G01 X5.4974 Y20.7317
G01 X5.3937 Y20.8464
G01 X5.3833 Y20.8568
G01 X5.2686 Y20.9605
G01 X5.1386 Y21.0569
G01 X4.9997 Y21.1402
G01 X4.8601 Y21.2064
G01 X4.8465 Y21.2121
G01 X4.7009 Y21.2640
G01 X4.5438 Y21.3033
G01 X4.3909 Y21.3262
G01 X4.3763 Y21.3276
G01 X4.2293 Y21.3348
G01 X4.2145 Y21.3348
G01 X4.0602 Y21.3271
G01 X3.9073 Y21.3046
G01 X3.8928 Y21.3017
G01 X3.7429 Y21.2640
G01 X3.5905 Y21.2094
G01 X3.4507 Y21.1435
G01 X3.4377 Y21.1365
G01 X3.3114 Y21.0609
G01 X3.2992 Y21.0527
G01 X3.1752 Y20.9605
G01 X3.0605 Y20.8568
G01 X3.0501 Y20.8464
G01 X2.9512 Y20.7373
G01 X2.9419 Y20.7259
G01 X2.8500 Y20.6017
G01 X2.7667 Y20.4628
G01 X2.6975 Y20.3164
G01 X2.6559 Y20.2006
G00 Z2.0000
G00 X3.7059 Y29.8080
G01 F60.00
G01 Z-0.0499
G01 F60.00
G01 X3.7157 Y29.8090
G01 X3.7239 Y29.8114
G01 X3.7326 Y29.8158
G01 X3.7404 Y29.8218
G01 X3.7468 Y29.8292
G01 X3.7516 Y29.8377
G01 X3.7547 Y29.8470
G01 X3.7559 Y29.8568
G01 X3.7559 Y30.8592
G01 X3.7549 Y30.8678
G01 X3.7521 Y30.8771
G01 X3.7475 Y30.8858
G01 X3.7421 Y30.8925
G01 X3.7347 Y30.8989
G01 X3.7262 Y30.9037
G01 X3.7216 Y30.9055
G01 X3.7157 Y30.9070
G01 X3.7059 Y30.9080
G01 X2.7047 Y30.9080
G01 X2.6961 Y30.9070
G01 X2.6868 Y30.9042
G01 X2.6792 Y30.9002
G01 X2.6714 Y30.8942
G01 X2.6650 Y30.8868
G01 X2.6624 Y30.8826
G01 X2.6597 Y30.8771
G01 X2.6569 Y30.8678
G01 X2.6559 Y30.8580
G01 X2.6559 Y29.8568
G01 X2.6571 Y29.8470
G01 X2.6597 Y29.8389
G01 X2.6643 Y29.8302
G01 X2.6697 Y29.8235
G01 X2.6771 Y29.8171
G01 X2.6856 Y29.8123
G01 X2.6949 Y29.8092
G01 X2.7047 Y29.8080
G01 X3.7059 Y29.8080
G00 Z2.0000
G00 X3.7059 Y38.0904
G01 F60.00
G01 Z-0.0499
G01 F60.00
G01 X3.7157 Y38.0914
G01 X3.7250 Y38.0942
G01 X3.7337 Y38.0988
G01 X3.7413 Y38.1050
G01 X3.7468 Y38.1116
G01 X3.7516 Y38.1201
G01 X3.7547 Y38.1294
G01 X3.7559 Y38.1392
G01 X3.7559 Y39.1416
G01 X3.7549 Y39.1502
G01 X3.7521 Y39.1595
G01 X3.7475 Y39.1682
G01 X3.7421 Y39.1749
G01 X3.7347 Y39.1813
G01 X3.7262 Y39.1861
G01 X3.7169 Y39.1892
G01 X3.7120 Y39.1900
G01 X3.7059 Y39.1904
G01 X2.7047 Y39.1904
G01 X2.6961 Y39.1894
G01 X2.6868 Y39.1866
G01 X2.6792 Y39.1826
G01 X2.6714 Y39.1766
G01 X2.6650 Y39.1692
G01 X2.6618 Y39.1640
G01 X2.6597 Y39.1595
G01 X2.6569 Y39.1502
G01 X2.6559 Y39.1404
G01 X2.6559 Y38.1392
G01 X2.6569 Y38.1306
G01 X2.6597 Y38.1213
G01 X2.6643 Y38.1126
G01 X2.6697 Y38.1059
G01 X2.6771 Y38.0995
G01 X2.6856 Y38.0947
G01 X2.6949 Y38.0916
G01 X2.7047 Y38.0904
G01 X3.7059 Y38.0904
G00 Z2.0000
G00 X3.1985 Y45.0030
G01 F60.00
G01 Z-0.0499
G01 F60.00
G01 X3.2133 Y45.0030
G01 X3.2696 Y45.0059
G01 X3.3255 Y45.0140
G01 X3.3399 Y45.0169
G01 X3.3875 Y45.0288
G01 X3.4016 Y45.0331
G01 X3.4546 Y45.0523
G01 X3.5123 Y45.0796
G01 X3.5670 Y45.1123
G01 X3.6183 Y45.1503
G01 X3.6655 Y45.1932
G01 X3.7035 Y45.2349
G01 X3.7129 Y45.2462
G01 X3.7421 Y45.2857
G01 X3.7503 Y45.2979
G01 X3.7791 Y45.3464
G01 X3.8064 Y45.4041
G01 X3.8279 Y45.4641
G01 X3.8434 Y45.5260
G01 X3.8528 Y45.5891
G01 X3.8559 Y45.6528
G01 X3.8528 Y45.7165
G01 X3.8447 Y45.7724
G01 X3.8418 Y45.7868
G01 X3.8279 Y45.8415
G01 X3.8091 Y45.8947
G01 X3.8034 Y45.9083
G01 X3.7825 Y45.9526
G01 X3.7755 Y45.9656
G01 X3.7464 Y46.0139
G01 X3.7084 Y46.0652
G01 X3.6655 Y46.1124
G01 X3.6183 Y46.1553
G01 X3.5670 Y46.1933
G01 X3.5123 Y46.2260
G01 X3.4546 Y46.2533
G01 X3.4007 Y46.2728
G01 X3.7096 Y46.2728
G01 X3.7206 Y46.2735
G01 X3.7279 Y46.2744
G01 X3.7423 Y46.2773
G01 X3.7494 Y46.2793
G01 X3.7599 Y46.2829
G01 X3.7700 Y46.2872
G01 X3.7798 Y46.2923
G01 X3.7892 Y46.2981
G01 X3.7982 Y46.3045
G01 X3.8039 Y46.3092
G01 X3.8120 Y46.3167
G01 X3.8195 Y46.3248
G01 X3.8242 Y46.3305
G01 X3.8306 Y46.3395
G01 X3.8364 Y46.3489
G01 X3.8415 Y46.3587
G01 X3.8458 Y46.3688
G01 X3.8494 Y46.3793
G01 X3.8514 Y46.3864
G01 X3.8537 Y46.3972
G01 X3.8548 Y46.4044
G01 X3.8557 Y46.4154
G01 X3.8559 Y46.4228
G01 X3.8559 Y47.4228
G01 X3.8552 Y47.4375
G01 X3.8530 Y47.4521
G01 X3.8505 Y47.4628
G01 X3.8471 Y47.4733
G01 X3.8430 Y47.4836
G01 X3.8382 Y47.4935
G01 X3.8326 Y47.5030
G01 X3.8264 Y47.5122
G01 X3.8170 Y47.5235
G01 X3.8093 Y47.5314
G01 X3.7982 Y47.5411
G01 X3.7892 Y47.5475
G01 X3.7798 Y47.5533
G01 X3.7700 Y47.5584
G01 X3.7564 Y47.5640
G01 X3.7459 Y47.5674
G01 X3.7352 Y47.5699
G01 X3.7206 Y47.5721
G01 X3.7059 Y47.5728
G01 X2.7059 Y47.5728
G01 X2.6912 Y47.5721
G01 X2.6803 Y47.5706
G01 X2.6695 Y47.5683
G01 X2.6588 Y47.5652
G01 X2.6451 Y47.5599
G01 X2.6320 Y47.5533
G01 X2.6226 Y47.5475
G01 X2.6136 Y47.5411
G01 X2.6052 Y47.5339
G01 X2.5973 Y47.5262
G01 X2.5899 Y47.5180
G01 X2.5833 Y47.5092
G01 X2.5754 Y47.4967
G01 X2.5703 Y47.4869
G01 X2.5660 Y47.4768
G01 X2.5624 Y47.4663
G01 X2.5588 Y47.4521
G01 X2.5566 Y47.4375
G01 X2.5559 Y47.4228
G01 X2.5559 Y46.4228
G01 X2.5566 Y46.4081
G01 X2.5581 Y46.3972
G01 X2.5613 Y46.3828
G01 X2.5660 Y46.3688
G01 X2.5688 Y46.3620
G01 X2.5736 Y46.3521
G01 X2.5792 Y46.3426
G01 X2.5833 Y46.3364
G01 X2.5899 Y46.3276
G01 X2.5948 Y46.3221
G01 X2.5998 Y46.3167
G01 X2.6079 Y46.3092
G01 X2.6165 Y46.3023
G01 X2.6226 Y46.2981
G01 X2.6320 Y46.2923
G01 X2.6385 Y46.2888
G01 X2.6451 Y46.2857
G01 X2.6554 Y46.2816
G01 X2.6659 Y46.2782
G01 X2.6730 Y46.2764
G01 X2.6803 Y46.2750
G01 X2.6912 Y46.2735
G01 X2.7059 Y46.2728
G01 X3.0111 Y46.2728
G01 X2.9572 Y46.2533
G01 X2.8995 Y46.2260
G01 X2.8448 Y46.1933
G01 X2.7935 Y46.1553
G01 X2.7463 Y46.1124
G01 X2.7034 Y46.0652
G01 X2.6654 Y46.0139
G01 X2.6327 Y45.9592
G01 X2.6054 Y45.9015
G01 X2.5839 Y45.8415
G01 X2.5684 Y45.7796
G01 X2.5590 Y45.7165
G01 X2.5559 Y45.6528
G01 X2.5590 Y45.5891
G01 X2.5684 Y45.5260
G01 X2.5819 Y45.4712
G01 X2.5862 Y45.4571
G01 X2.6027 Y45.4109
G01 X2.6084 Y45.3973
G01 X2.6327 Y45.3464
G01 X2.6654 Y45.2917
G01 X2.7034 Y45.2404
G01 X2.7412 Y45.1985
G01 X2.7516 Y45.1881
G01 X2.7880 Y45.1552
G01 X2.7993 Y45.1458
G01 X2.8448 Y45.1123
G01 X2.8931 Y45.0832
G01 X2.9061 Y45.0762
G01 X2.9504 Y45.0553
G01 X2.9640 Y45.0496
G01 X3.0172 Y45.0308
G01 X3.0791 Y45.0153
G01 X3.1422 Y45.0059
G01 X3.1985 Y45.0030
G00 Z2.0000
G00 X3.2034 Y45.1029
G01 F60.00
G01 Z-0.0499
G01 F60.00
G01 X3.2598 Y45.1054
G01 X3.3132 Y45.1134
G01 X3.3656 Y45.1265
G01 X3.4164 Y45.1447
G01 X3.4652 Y45.1677
G01 X3.5115 Y45.1955
G01 X3.5548 Y45.2276
G01 X3.5948 Y45.2639
G01 X3.6311 Y45.3039
G01 X3.6632 Y45.3472
G01 X3.6910 Y45.3935
G01 X3.7140 Y45.4423
G01 X3.7322 Y45.4931
G01 X3.7453 Y45.5455
G01 X3.7533 Y45.5989
G01 X3.7559 Y45.6528
G01 X3.7533 Y45.7067
G01 X3.7453 Y45.7601
G01 X3.7322 Y45.8125
G01 X3.7140 Y45.8633
G01 X3.6910 Y45.9121
G01 X3.6632 Y45.9584
G01 X3.6311 Y46.0017
G01 X3.5948 Y46.0417
G01 X3.5548 Y46.0780
G01 X3.5115 Y46.1101
G01 X3.4652 Y46.1379
G01 X3.4164 Y46.1609
G01 X3.3656 Y46.1791
G01 X3.3132 Y46.1922
G01 X3.2598 Y46.2002
G01 X3.2059 Y46.2028
G01 X3.1520 Y46.2002
G01 X3.0986 Y46.1922
G01 X3.0462 Y46.1791
G01 X2.9954 Y46.1609
G01 X2.9466 Y46.1379
G01 X2.9003 Y46.1101
G01 X2.8570 Y46.0780
G01 X2.8170 Y46.0417
G01 X2.7807 Y46.0017
G01 X2.7486 Y45.9584
G01 X2.7208 Y45.9121
G01 X2.6978 Y45.8633
G01 X2.6796 Y45.8125
G01 X2.6665 Y45.7601
G01 X2.6585 Y45.7067
G01 X2.6559 Y45.6528
G01 X2.6585 Y45.5989
G01 X2.6665 Y45.5455
G01 X2.6796 Y45.4931
G01 X2.6978 Y45.4423
G01 X2.7208 Y45.3935
G01 X2.7486 Y45.3472
G01 X2.7807 Y45.3039
G01 X2.8170 Y45.2639
G01 X2.8570 Y45.2276
G01 X2.9003 Y45.1955
G01 X2.9466 Y45.1677
G01 X2.9954 Y45.1447
G01 X3.0462 Y45.1265
G01 X3.0986 Y45.1134
G01 X3.1520 Y45.1054
G01 X3.2034 Y45.1029
G00 Z2.0000
G00 X3.7559 Y47.4228
G01 F60.00
G01 Z-0.0499
G01 F60.00
G01 X3.7549 Y47.4326
G01 X3.7525 Y47.4408
G01 X3.7481 Y47.4495
G01 X3.7421 Y47.4573
G01 X3.7347 Y47.4637
G01 X3.7262 Y47.4685
G01 X3.7169 Y47.4716
G01 X3.7071 Y47.4728
G01 X2.7047 Y47.4728
G01 X2.6949 Y47.4716
G01 X2.6868 Y47.4690
G01 X2.6781 Y47.4644
G01 X2.6714 Y47.4590
G01 X2.6650 Y47.4516
G01 X2.6602 Y47.4431
G01 X2.6571 Y47.4338
G01 X2.6563 Y47.4289
G01 X2.6559 Y47.4228
G01 X2.6559 Y46.4216
G01 X2.6569 Y46.4130
G01 X2.6597 Y46.4037
G01 X2.6643 Y46.3950
G01 X2.6697 Y46.3883
G01 X2.6771 Y46.3819
G01 X2.6856 Y46.3771
G01 X2.6914 Y46.3750
G01 X2.6961 Y46.3738
G01 X2.7059 Y46.3728
G01 X3.7071 Y46.3728
G01 X3.7157 Y46.3738
G01 X3.7250 Y46.3766
G01 X3.7326 Y46.3806
G01 X3.7404 Y46.3866
G01 X3.7468 Y46.3940
G01 X3.7516 Y46.4025
G01 X3.7547 Y46.4118
G01 X3.7559 Y46.4216
G01 X3.7559 Y47.4228
G00 Z2.0000
G00 X3.7059 Y54.5552
G01 F60.00
G01 Z-0.0499
G01 F60.00
G01 X3.7206 Y54.5559
G01 X3.7315 Y54.5574
G01 X3.7459 Y54.5606
G01 X3.7599 Y54.5653
G01 X3.7733 Y54.5712
G01 X3.7861 Y54.5785
G01 X3.7982 Y54.5869
G01 X3.8066 Y54.5941
G01 X3.8170 Y54.6045
G01 X3.8264 Y54.6158
G01 X3.8346 Y54.6281
G01 X3.8399 Y54.6378
G01 X3.8458 Y54.6512
G01 X3.8494 Y54.6617
G01 X3.8530 Y54.6759
G01 X3.8552 Y54.6905
G01 X3.8559 Y54.7052
G01 X3.8559 Y55.7089
G01 X3.8552 Y55.7199
G01 X3.8530 Y55.7345
G01 X3.8505 Y55.7452
G01 X3.8458 Y55.7592
G01 X3.8415 Y55.7693
G01 X3.8346 Y55.7823
G01 X3.8285 Y55.7916
G01 X3.8219 Y55.8004
G01 X3.8120 Y55.8113
G01 X3.8011 Y55.8212
G01 X3.7892 Y55.8299
G01 X3.7830 Y55.8339
G01 X3.7733 Y55.8392
G01 X3.7599 Y55.8451
G01 X3.7530 Y55.8476
G01 X3.7423 Y55.8507
G01 X3.7279 Y55.8536
G01 X3.7133 Y55.8550
G01 X2.7059 Y55.8552
G01 X2.6912 Y55.8545
G01 X2.6803 Y55.8530
G01 X2.6695 Y55.8507
G01 X2.6559 Y55.8466
G01 X2.6559 Y61.5673
G01 X3.2059 Y61.5673
G01 X3.2696 Y61.5705
G01 X3.3328 Y61.5798
G01 X3.3947 Y61.5953
G01 X3.4547 Y61.6168
G01 X3.5124 Y61.6441
G01 X3.5672 Y61.6769
G01 X3.6126 Y61.7104
G01 X3.6240 Y61.7198
G01 X3.6657 Y61.7578
G01 X3.7037 Y61.7995
G01 X3.7131 Y61.8109
G01 X3.7466 Y61.8563
G01 X3.7757 Y61.9047
G01 X3.7827 Y61.9177
G01 X3.8067 Y61.9688
G01 X3.8258 Y62.0219
G01 X3.8301 Y62.0359
G01 X3.8437 Y62.0907
G01 X3.8521 Y62.1466
G01 X3.8536 Y62.1612
G01 X3.8562 Y62.2176
G01 X3.8530 Y62.2813
G01 X3.8449 Y62.3372
G01 X3.8420 Y62.3516
G01 X3.8282 Y62.4064
G01 X3.8067 Y62.4664
G01 X3.7827 Y62.5175
G01 X3.7757 Y62.5305
G01 X3.7505 Y62.5726
G01 X3.7423 Y62.5849
G01 X3.7086 Y62.6301
G01 X3.6657 Y62.6774
G01 X3.6184 Y62.7203
G01 X3.5732 Y62.7540
G01 X3.5609 Y62.7622
G01 X3.5188 Y62.7874
G01 X3.5058 Y62.7944
G01 X3.4547 Y62.8184
G01 X3.4015 Y62.8376
G01 X3.7059 Y62.8376
G01 X3.7206 Y62.8383
G01 X3.7315 Y62.8398
G01 X3.7388 Y62.8412
G01 X3.7459 Y62.8430
G01 X3.7564 Y62.8464
G01 X3.7667 Y62.8505
G01 X3.7766 Y62.8553
G01 X3.7861 Y62.8609
G01 X3.7923 Y62.8650
G01 X3.7982 Y62.8693
G01 X3.8066 Y62.8765
G01 X3.8145 Y62.8842
G01 X3.8195 Y62.8896
G01 X3.8242 Y62.8953
G01 X3.8306 Y62.9043
G01 X3.8364 Y62.9137
G01 X3.8399 Y62.9202
G01 X3.8430 Y62.9268
G01 X3.8471 Y62.9371
G01 X3.8514 Y62.9512
G01 X3.8537 Y62.9620
G01 X3.8555 Y62.9766
G01 X3.8559 Y62.9876
G01 X3.8559 Y63.9913
G01 X3.8552 Y64.0023
G01 X3.8537 Y64.0132
G01 X3.8523 Y64.0205
G01 X3.8494 Y64.0311
G01 X3.8458 Y64.0416
G01 X3.8415 Y64.0517
G01 X3.8382 Y64.0583
G01 X3.8326 Y64.0678
G01 X3.8242 Y64.0799
G01 X3.8170 Y64.0883
G01 X3.8120 Y64.0937
G01 X3.8039 Y64.1012
G01 X3.7982 Y64.1059
G01 X3.7923 Y64.1102
G01 X3.7830 Y64.1163
G01 X3.7733 Y64.1216
G01 X3.7667 Y64.1247
G01 X3.7564 Y64.1288
G01 X3.7494 Y64.1311
G01 X3.7423 Y64.1331
G01 X3.7315 Y64.1354
G01 X3.7206 Y64.1369
G01 X3.7133 Y64.1374
G01 X2.7059 Y64.1376
G01 X2.6912 Y64.1369
G01 X2.6803 Y64.1354
G01 X2.6695 Y64.1331
G01 X2.6559 Y64.1290
G01 X2.6559 Y67.8301
G01 X3.6708 Y68.8452
G01 X3.7037 Y68.8816
G01 X3.7131 Y68.8930
G01 X3.7466 Y68.9384
G01 X3.7757 Y68.9868
G01 X3.7827 Y68.9998
G01 X3.8067 Y69.0509
G01 X3.8258 Y69.1040
G01 X3.8292 Y69.1145
G01 X3.8437 Y69.1728
G01 X3.8521 Y69.2287
G01 X3.8536 Y69.2433
G01 X3.8562 Y69.2997
G01 X3.8562 Y70.5000
G01 X3.8530 Y70.5637
G01 X3.8449 Y70.6196
G01 X3.8429 Y70.6305
G01 X3.8301 Y70.6817
G01 X3.8258 Y70.6957
G01 X3.8067 Y70.7488
G01 X3.7827 Y70.7999
G01 X3.7757 Y70.8129
G01 X3.7466 Y70.8613
G01 X3.7131 Y70.9067
G01 X3.7037 Y70.9181
G01 X3.6657 Y70.9598
G01 X3.6240 Y70.9978
G01 X3.6126 Y71.0072
G01 X3.5672 Y71.0407
G01 X3.5188 Y71.0698
G01 X3.5058 Y71.0768
G01 X3.4547 Y71.1008
G01 X3.4015 Y71.1200
G01 X3.7059 Y71.1200
G01 X3.7169 Y71.1204
G01 X3.7243 Y71.1211
G01 X3.7388 Y71.1236
G01 X3.7494 Y71.1265
G01 X3.7564 Y71.1288
G01 X3.7633 Y71.1314
G01 X3.7733 Y71.1360
G01 X3.7798 Y71.1395
G01 X3.7892 Y71.1453
G01 X3.7982 Y71.1517
G01 X3.8039 Y71.1564
G01 X3.8093 Y71.1614
G01 X3.8170 Y71.1693
G01 X3.8219 Y71.1748
G01 X3.8285 Y71.1836
G01 X3.8326 Y71.1898
G01 X3.8382 Y71.1993
G01 X3.8430 Y71.2092
G01 X3.8458 Y71.2160
G01 X3.8505 Y71.2300
G01 X3.8537 Y71.2444
G01 X3.8555 Y71.2590
G01 X3.8559 Y71.2700
G01 X3.8557 Y72.2774
G01 X3.8543 Y72.2920
G01 X3.8523 Y72.3029
G01 X3.8494 Y72.3135
G01 X3.8445 Y72.3274
G01 X3.8399 Y72.3374
G01 X3.8326 Y72.3502
G01 X3.8264 Y72.3594
G01 X3.8170 Y72.3707
G01 X3.8066 Y72.3811
G01 X3.7982 Y72.3883
G01 X3.7892 Y72.3947
G01 X3.7766 Y72.4023
G01 X3.7667 Y72.4071
G01 X3.7530 Y72.4124
G01 X3.7388 Y72.4164
G01 X3.7243 Y72.4189
G01 X3.7133 Y72.4198
G01 X3.7059 Y72.4200
G01 X2.6985 Y72.4198
G01 X2.6875 Y72.4189
G01 X2.6730 Y72.4164
G01 X2.6624 Y72.4135
G01 X2.6485 Y72.4086
G01 X2.6385 Y72.4040
G01 X2.6257 Y72.3967
G01 X2.6136 Y72.3883
G01 X2.6025 Y72.3786
G01 X2.5923 Y72.3680
G01 X2.5854 Y72.3594
G01 X2.5772 Y72.3471
G01 X2.5719 Y72.3374
G01 X2.5673 Y72.3274
G01 X2.5624 Y72.3135
G01 X2.5595 Y72.3029
G01 X2.5570 Y72.2884
G01 X2.5563 Y72.2810
G01 X2.5559 Y72.2700
G01 X2.5559 Y71.2700
G01 X2.5563 Y71.2590
G01 X2.5570 Y71.2516
G01 X2.5588 Y71.2407
G01 X2.5604 Y71.2336
G01 X2.5635 Y71.2229
G01 X2.5673 Y71.2126
G01 X2.5703 Y71.2059
G01 X2.5754 Y71.1961
G01 X2.5812 Y71.1867
G01 X2.5854 Y71.1806
G01 X2.5923 Y71.1720
G01 X2.5998 Y71.1639
G01 X2.6079 Y71.1564
G01 X2.6165 Y71.1495
G01 X2.6257 Y71.1433
G01 X2.6320 Y71.1395
G01 X2.6418 Y71.1344
G01 X2.6485 Y71.1314
G01 X2.6588 Y71.1276
G01 X2.6695 Y71.1245
G01 X2.6766 Y71.1229
G01 X2.6875 Y71.1211
G01 X2.7022 Y71.1200
G01 X3.0103 Y71.1200
G01 X2.9639 Y71.1034
G01 X2.9503 Y71.0978
G01 X2.8994 Y71.0735
G01 X2.8509 Y71.0446
G01 X2.8386 Y71.0364
G01 X2.7934 Y71.0027
G01 X2.7461 Y70.9598
G01 X2.7081 Y70.9181
G01 X2.6987 Y70.9067
G01 X2.6652 Y70.8613
G01 X2.6361 Y70.8129
G01 X2.6291 Y70.7999
G01 X2.6051 Y70.7488
G01 X2.5836 Y70.6888
G01 X2.5698 Y70.6340
G01 X2.5669 Y70.6196
G01 X2.5588 Y70.5637
G01 X2.5557 Y70.5037
G01 X2.5556 Y69.5690
G01 X1.5458 Y68.5592
G01 X1.5053 Y68.5147
G01 X1.4984 Y68.5061
G01 X1.4692 Y68.4667
G01 X1.4610 Y68.4544
G01 X1.4321 Y68.4059
G01 X1.4048 Y68.3482
G01 X1.3833 Y68.2882
G01 X1.3695 Y68.2334
G01 X1.3666 Y68.2190
G01 X1.3594 Y68.1704
G01 X1.3582 Y68.1595
G01 X1.3553 Y68.0994
G01 X1.3553 Y53.9352
G01 X1.3585 Y53.8715
G01 X1.3678 Y53.8083
G01 X1.3833 Y53.7464
G01 X1.4035 Y53.6898
G01 X1.4078 Y53.6796
G01 X1.4321 Y53.6287
G01 X1.4610 Y53.5802
G01 X1.4692 Y53.5679
G01 X1.5029 Y53.5227
G01 X1.5407 Y53.4807
G01 X1.5511 Y53.4703
G01 X1.5931 Y53.4325
G01 X1.6383 Y53.3988
G01 X1.6506 Y53.3906
G01 X1.6991 Y53.3617
G01 X1.7500 Y53.3374
G01 X1.7636 Y53.3318
G01 X1.8168 Y53.3129
G01 X1.8716 Y53.2991
G01 X1.8824 Y53.2968
G01 X1.9419 Y53.2881
G01 X2.0056 Y53.2849
G01 X3.2096 Y53.2850
G01 X3.2696 Y53.2881
G01 X3.3328 Y53.2974
G01 X3.3947 Y53.3129
G01 X3.4513 Y53.3331
G01 X3.4615 Y53.3374
G01 X3.5058 Y53.3584
G01 X3.5188 Y53.3654
G01 X3.5672 Y53.3945
G01 X3.6184 Y53.4325
G01 X3.6657 Y53.4754
G01 X3.7037 Y53.5171
G01 X3.7131 Y53.5285
G01 X3.7466 Y53.5739
G01 X3.7757 Y53.6223
G01 X3.7827 Y53.6353
G01 X3.8067 Y53.6864
G01 X3.8282 Y53.7464
G01 X3.8437 Y53.8083
G01 X3.8521 Y53.8642
G01 X3.8536 Y53.8788
G01 X3.8560 Y53.9278
G01 X3.8560 Y53.9426
G01 X3.8530 Y53.9989
G01 X3.8437 Y54.0621
G01 X3.8282 Y54.1240
G01 X3.8093 Y54.1772
G01 X3.8037 Y54.1908
G01 X3.7827 Y54.2351
G01 X3.7757 Y54.2481
G01 X3.7466 Y54.2965
G01 X3.7131 Y54.3419
G01 X3.7037 Y54.3533
G01 X3.6708 Y54.3897
G01 X3.6604 Y54.4001
G01 X3.6184 Y54.4379
G01 X3.5672 Y54.4759
G01 X3.5188 Y54.5050
G01 X3.5058 Y54.5120
G01 X3.4547 Y54.5360
G01 X3.4015 Y54.5552
G01 X3.7059 Y54.5552
G00 Z2.0000
G00 X3.7059 Y54.6552
G01 F60.00
G01 Z-0.0499
G01 F60.00
G01 X3.7157 Y54.6562
G01 X3.7250 Y54.6590
G01 X3.7326 Y54.6630
G01 X3.7404 Y54.6690
G01 X3.7468 Y54.6764
G01 X3.7516 Y54.6849
G01 X3.7547 Y54.6942
G01 X3.7559 Y54.7040
G01 X3.7559 Y55.7064
G01 X3.7549 Y55.7150
G01 X3.7521 Y55.7243
G01 X3.7475 Y55.7330
G01 X3.7421 Y55.7397
G01 X3.7347 Y55.7461
G01 X3.7262 Y55.7509
G01 X3.7169 Y55.7540
G01 X3.7120 Y55.7548
G01 X3.7059 Y55.7552
G01 X2.7047 Y55.7552
G01 X2.6961 Y55.7542
G01 X2.6868 Y55.7514
G01 X2.6792 Y55.7474
G01 X2.6714 Y55.7414
G01 X2.6650 Y55.7340
G01 X2.6618 Y55.7288
G01 X2.6597 Y55.7243
G01 X2.6569 Y55.7150
G01 X2.6559 Y55.7052
G01 X2.6559 Y54.7040
G01 X2.6569 Y54.6954
G01 X2.6597 Y54.6861
G01 X2.6643 Y54.6774
G01 X2.6697 Y54.6707
G01 X2.6771 Y54.6643
G01 X2.6856 Y54.6595
G01 X2.6949 Y54.6564
G01 X2.7047 Y54.6552
G01 X3.7059 Y54.6552
G00 Z2.0000
G00 X3.7059 Y62.9376
G01 F60.00
G01 Z-0.0499
G01 F60.00
G01 X3.7157 Y62.9386
G01 X3.7250 Y62.9414
G01 X3.7337 Y62.9460
G01 X3.7413 Y62.9522
G01 X3.7468 Y62.9588
G01 X3.7516 Y62.9673
G01 X3.7547 Y62.9766
G01 X3.7559 Y62.9864
G01 X3.7559 Y63.9888
G01 X3.7549 Y63.9974
G01 X3.7521 Y64.0067
G01 X3.7475 Y64.0154
G01 X3.7421 Y64.0221
G01 X3.7347 Y64.0285
G01 X3.7262 Y64.0333
G01 X3.7216 Y64.0351
G01 X3.7157 Y64.0366
G01 X3.7059 Y64.0376
G01 X2.7047 Y64.0376
G01 X2.6949 Y64.0364
G01 X2.6868 Y64.0338
G01 X2.6781 Y64.0292
G01 X2.6714 Y64.0238
G01 X2.6650 Y64.0164
G01 X2.6602 Y64.0079
G01 X2.6584 Y64.0033
G01 X2.6569 Y63.9974
G01 X2.6559 Y63.9876
G01 X2.6559 Y62.9864
G01 X2.6569 Y62.9778
G01 X2.6597 Y62.9685
G01 X2.6643 Y62.9598
G01 X2.6697 Y62.9531
G01 X2.6771 Y62.9467
G01 X2.6856 Y62.9419
G01 X2.6949 Y62.9388
G01 X2.7047 Y62.9376
G01 X3.7059 Y62.9376
G00 Z2.0000
G00 X3.7561 Y69.2972
G01 F60.00
G01 Z-0.0499
G01 F60.00
G01 X3.7561 Y70.5012
G01 X3.7535 Y70.5539
G01 X3.7456 Y70.6073
G01 X3.7325 Y70.6597
G01 X3.7138 Y70.7117
G01 X3.6912 Y70.7594
G01 X3.6634 Y70.8057
G01 X3.6312 Y70.8491
G01 X3.5950 Y70.8891
G01 X3.5550 Y70.9253
G01 X3.5116 Y70.9575
G01 X3.4653 Y70.9853
G01 X3.4165 Y71.0084
G01 X3.3656 Y71.0266
G01 X3.3132 Y71.0397
G01 X3.2598 Y71.0476
G01 X3.2059 Y71.0503
G01 X3.1520 Y71.0476
G01 X3.0986 Y71.0397
G01 X3.0462 Y71.0266
G01 X2.9942 Y71.0079
G01 X2.9444 Y70.9841
G01 X2.9002 Y70.9575
G01 X2.8588 Y70.9269
G01 X2.8168 Y70.8891
G01 X2.7806 Y70.8491
G01 X2.7484 Y70.8057
G01 X2.7195 Y70.7572
G01 X2.6975 Y70.7106
G01 X2.6801 Y70.6621
G01 X2.6665 Y70.6085
G01 X2.6583 Y70.5539
G01 X2.6556 Y70.5000
G01 X2.6556 Y69.5276
G01 X1.6165 Y68.4885
G01 X1.5810 Y68.4494
G01 X1.5468 Y68.4030
G01 X1.5203 Y68.3588
G01 X1.4972 Y68.3100
G01 X1.4784 Y68.2568
G01 X1.4659 Y68.2067
G01 X1.4581 Y68.1546
G01 X1.4553 Y68.0994
G01 X1.4554 Y53.9340
G01 X1.4580 Y53.8813
G01 X1.4659 Y53.8279
G01 X1.4790 Y53.7755
G01 X1.4964 Y53.7269
G01 X1.5215 Y53.6737
G01 X1.5481 Y53.6295
G01 X1.5819 Y53.5843
G01 X1.6165 Y53.5461
G01 X1.6565 Y53.5099
G01 X1.6999 Y53.4777
G01 X1.7462 Y53.4499
G01 X1.7950 Y53.4268
G01 X1.8459 Y53.4086
G01 X1.8983 Y53.3955
G01 X1.9504 Y53.3877
G01 X2.0056 Y53.3849
G01 X3.2071 Y53.3850
G01 X3.2623 Y53.3879
G01 X3.3132 Y53.3955
G01 X3.3645 Y53.4083
G01 X3.4187 Y53.4278
G01 X3.4653 Y53.4499
G01 X3.5116 Y53.4777
G01 X3.5568 Y53.5115
G01 X3.5950 Y53.5461
G01 X3.6312 Y53.5861
G01 X3.6634 Y53.6295
G01 X3.6900 Y53.6737
G01 X3.7143 Y53.7246
G01 X3.7331 Y53.7778
G01 X3.7456 Y53.8279
G01 X3.7534 Y53.8800
G01 X3.7561 Y53.9377
G01 X3.7535 Y53.9891
G01 X3.7456 Y54.0425
G01 X3.7325 Y54.0949
G01 X3.7151 Y54.1435
G01 X3.6912 Y54.1946
G01 X3.6634 Y54.2409
G01 X3.6328 Y54.2823
G01 X3.5950 Y54.3243
G01 X3.5550 Y54.3605
G01 X3.5136 Y54.3913
G01 X3.4642 Y54.4210
G01 X3.4165 Y54.4436
G01 X3.3656 Y54.4618
G01 X3.3132 Y54.4749
G01 X3.2586 Y54.4829
G01 X3.2059 Y54.4855
G01 X2.5559 Y54.4855
G01 X2.5559 Y61.6673
G01 X3.2059 Y61.6673
G01 X3.2574 Y61.6698
G01 X3.3156 Y61.6785
G01 X3.3656 Y61.6910
G01 X3.4187 Y61.7102
G01 X3.4653 Y61.7323
G01 X3.5095 Y61.7588
G01 X3.5550 Y61.7923
G01 X3.5950 Y61.8285
G01 X3.6296 Y61.8667
G01 X3.6634 Y61.9119
G01 X3.6923 Y61.9604
G01 X3.7143 Y62.0070
G01 X3.7325 Y62.0579
G01 X3.7460 Y62.1127
G01 X3.7535 Y62.1637
G01 X3.7562 Y62.2176
G01 X3.7535 Y62.2715
G01 X3.7460 Y62.3225
G01 X3.7325 Y62.3773
G01 X3.7143 Y62.4282
G01 X3.6923 Y62.4748
G01 X3.6634 Y62.5233
G01 X3.6296 Y62.5685
G01 X3.5950 Y62.6067
G01 X3.5550 Y62.6429
G01 X3.5095 Y62.6764
G01 X3.4653 Y62.7029
G01 X3.4187 Y62.7250
G01 X3.3656 Y62.7442
G01 X3.3156 Y62.7567
G01 X3.2574 Y62.7654
G01 X3.2059 Y62.7679
G01 X2.5559 Y62.7679
G01 X2.5559 Y67.8715
G01 X3.5950 Y68.9106
G01 X3.6305 Y68.9497
G01 X3.6634 Y68.9940
G01 X3.6900 Y69.0382
G01 X3.7151 Y69.0914
G01 X3.7325 Y69.1400
G01 X3.7456 Y69.1924
G01 X3.7535 Y69.2458
G01 X3.7561 Y69.2972
G00 Z2.0000
G00 X3.7559 Y72.2700
G01 F60.00
G01 Z-0.0499
G01 F60.00
G01 X3.7549 Y72.2798
G01 X3.7521 Y72.2891
G01 X3.7475 Y72.2978
G01 X3.7413 Y72.3054
G01 X3.7337 Y72.3116
G01 X3.7250 Y72.3162
G01 X3.7169 Y72.3188
G01 X3.7071 Y72.3200
G01 X2.7047 Y72.3200
G01 X2.6949 Y72.3188
G01 X2.6868 Y72.3162
G01 X2.6781 Y72.3116
G01 X2.6714 Y72.3062
G01 X2.6650 Y72.2988
G01 X2.6618 Y72.2936
G01 X2.6597 Y72.2891
G01 X2.6569 Y72.2798
G01 X2.6559 Y72.2700
G01 X2.6559 Y71.2688
G01 X2.6569 Y71.2602
G01 X2.6597 Y71.2509
G01 X2.6643 Y71.2422
G01 X2.6697 Y71.2355
G01 X2.6771 Y71.2291
G01 X2.6856 Y71.2243
G01 X2.6949 Y71.2212
G01 X2.6998 Y71.2204
G01 X2.7059 Y71.2200
G01 X3.7071 Y71.2200
G01 X3.7157 Y71.2210
G01 X3.7250 Y71.2238
G01 X3.7326 Y71.2278
G01 X3.7404 Y71.2338
G01 X3.7468 Y71.2412
G01 X3.7516 Y71.2497
G01 X3.7547 Y71.2590
G01 X3.7559 Y71.2688
G01 X3.7559 Y72.2700
G00 Z2.0000
G00 X13.6111 Y78.6229
G01 F60.00
G01 Z-0.0499
G01 F60.00
G01 X13.6111 Y69.8415
G01 X13.5821 Y69.8199
G01 X13.5734 Y69.8130
G01 X13.5004 Y69.7467
G01 X13.4926 Y69.7388
G01 X13.4289 Y69.6685
G01 X13.4220 Y69.6598
G01 X13.3634 Y69.5805
G01 X13.3126 Y69.4960
G01 X13.3072 Y69.4863
G01 X13.2666 Y69.4005
G01 X13.2610 Y69.3869
G01 X13.2279 Y69.2940
G01 X13.2038 Y69.1984
G01 X13.2009 Y69.1839
G01 X13.1866 Y69.0864
G01 X13.1814 Y68.9805
G01 X13.1866 Y68.8746
G01 X13.2009 Y68.7771
G01 X13.2038 Y68.7626
G01 X13.2279 Y68.6670
G01 X13.2610 Y68.5741
G01 X13.2666 Y68.5605
G01 X13.3072 Y68.4747
G01 X13.3126 Y68.4650
G01 X13.3634 Y68.3805
G01 X13.4220 Y68.3012
G01 X13.4289 Y68.2925
G01 X13.4926 Y68.2222
G01 X13.5004 Y68.2143
G01 X13.5734 Y68.1480
G01 X13.5821 Y68.1411
G01 X13.6111 Y68.1195
G01 X13.6111 Y58.5600
G01 X13.5821 Y58.5384
G01 X13.5734 Y58.5315
G01 X13.5004 Y58.4652
G01 X13.4926 Y58.4573
G01 X13.4289 Y58.3870
G01 X13.4220 Y58.3783
G01 X13.3634 Y58.2990
G01 X13.3126 Y58.2145
G01 X13.3072 Y58.2048
G01 X13.2666 Y58.1190
G01 X13.2610 Y58.1054
G01 X13.2279 Y58.0125
G01 X13.2038 Y57.9169
G01 X13.2009 Y57.9024
G01 X13.1866 Y57.8049
G01 X13.1814 Y57.6990
G01 X13.1866 Y57.5931
G01 X13.2009 Y57.4956
G01 X13.2038 Y57.4811
G01 X13.2279 Y57.3855
G01 X13.2610 Y57.2926
G01 X13.2666 Y57.2790
G01 X13.3072 Y57.1932
G01 X13.3126 Y57.1835
G01 X13.3634 Y57.0990
G01 X13.4220 Y57.0197
G01 X13.4289 Y57.0110
G01 X13.4926 Y56.9407
G01 X13.5004 Y56.9328
G01 X13.5734 Y56.8665
G01 X13.5821 Y56.8596
G01 X13.6111 Y56.8380
G01 X13.6111 Y47.2785
G01 X13.5821 Y47.2569
G01 X13.5734 Y47.2500
G01 X13.5004 Y47.1837
G01 X13.4926 Y47.1758
G01 X13.4289 Y47.1055
G01 X13.4220 Y47.0968
G01 X13.3634 Y47.0175
G01 X13.3126 Y46.9330
G01 X13.3072 Y46.9233
G01 X13.2666 Y46.8375
G01 X13.2610 Y46.8239
G01 X13.2279 Y46.7310
G01 X13.2038 Y46.6354
G01 X13.2009 Y46.6209
G01 X13.1866 Y46.5234
G01 X13.1814 Y46.4175
G01 X13.1866 Y46.3116
G01 X13.2009 Y46.2141
G01 X13.2038 Y46.1996
G01 X13.2279 Y46.1040
G01 X13.2610 Y46.0111
G01 X13.2666 Y45.9975
G01 X13.3072 Y45.9117
G01 X13.3126 Y45.9020
G01 X13.3634 Y45.8175
G01 X13.4220 Y45.7382
G01 X13.4289 Y45.7295
G01 X13.4926 Y45.6592
G01 X13.5004 Y45.6513
G01 X13.5734 Y45.5850
G01 X13.5821 Y45.5781
G01 X13.6111 Y45.5565
G01 X13.6111 Y35.9970
G01 X13.5821 Y35.9754
G01 X13.5734 Y35.9685
G01 X13.5004 Y35.9022
G01 X13.4926 Y35.8943
G01 X13.4289 Y35.8240
G01 X13.4220 Y35.8153
G01 X13.3634 Y35.7360
G01 X13.3126 Y35.6515
G01 X13.3072 Y35.6418
G01 X13.2666 Y35.5560
G01 X13.2610 Y35.5424
G01 X13.2279 Y35.4495
G01 X13.2038 Y35.3539
G01 X13.2009 Y35.3394
G01 X13.1866 Y35.2419
G01 X13.1814 Y35.1360
G01 X13.1866 Y35.0301
G01 X13.2009 Y34.9326
G01 X13.2038 Y34.9181
G01 X13.2279 Y34.8225
G01 X13.2610 Y34.7296
G01 X13.2666 Y34.7160
G01 X13.3072 Y34.6302
G01 X13.3126 Y34.6205
G01 X13.3634 Y34.5360
G01 X13.4220 Y34.4567
G01 X13.4289 Y34.4480
G01 X13.4926 Y34.3777
G01 X13.5004 Y34.3698
G01 X13.5734 Y34.3035
G01 X13.5821 Y34.2966
G01 X13.6111 Y34.2750
G01 X13.6111 Y24.7155
G01 X13.5821 Y24.6939
G01 X13.5734 Y24.6870
G01 X13.5004 Y24.6207
G01 X13.4926 Y24.6128
G01 X13.4289 Y24.5425
G01 X13.4220 Y24.5338
G01 X13.3634 Y24.4545
G01 X13.3126 Y24.3700
G01 X13.3072 Y24.3603
G01 X13.2666 Y24.2745
G01 X13.2610 Y24.2609
G01 X13.2279 Y24.1680
G01 X13.2038 Y24.0724
G01 X13.2009 Y24.0579
G01 X13.1866 Y23.9604
G01 X13.1814 Y23.8545
G01 X13.1866 Y23.7486
G01 X13.2022 Y23.6438
G01 X13.2279 Y23.5410
G01 X13.2636 Y23.4412
G01 X13.3089 Y23.3454
G01 X13.3634 Y23.2545
G01 X13.4265 Y23.1694
G01 X13.4977 Y23.0908
G01 X13.5763 Y23.0196
G01 X13.6614 Y22.9565
G01 X13.7523 Y22.9020
G01 X13.8481 Y22.8567
G01 X13.9479 Y22.8210
G01 X14.0507 Y22.7953
G01 X14.1555 Y22.7797
G01 X14.2614 Y22.7745
G01 X14.3673 Y22.7797
G01 X14.4721 Y22.7953
G01 X14.5749 Y22.8210
G01 X14.6747 Y22.8567
G01 X14.7705 Y22.9020
G01 X14.8614 Y22.9565
G01 X14.9465 Y23.0196
G01 X15.0251 Y23.0908
G01 X15.0963 Y23.1694
G01 X15.1594 Y23.2545
G01 X15.2139 Y23.3454
G01 X15.2592 Y23.4412
G01 X15.2949 Y23.5410
G01 X15.3206 Y23.6438
G01 X15.3362 Y23.7486
G01 X15.3414 Y23.8545
G01 X15.3362 Y23.9604
G01 X15.3219 Y24.0579
G01 X15.3190 Y24.0724
G01 X15.2949 Y24.1680
G01 X15.2618 Y24.2609
G01 X15.2562 Y24.2745
G01 X15.2156 Y24.3603
G01 X15.2102 Y24.3700
G01 X15.1594 Y24.4545
G01 X15.1008 Y24.5338
G01 X15.0939 Y24.5425
G01 X15.0302 Y24.6128
G01 X15.0224 Y24.6207
G01 X14.9494 Y24.6870
G01 X14.9407 Y24.6939
G01 X14.9117 Y24.7155
G01 X14.9117 Y34.2750
G01 X14.9407 Y34.2966
G01 X14.9494 Y34.3035
G01 X15.0224 Y34.3698
G01 X15.0302 Y34.3777
G01 X15.0939 Y34.4480
G01 X15.1008 Y34.4567
G01 X15.1594 Y34.5360
G01 X15.2102 Y34.6205
G01 X15.2156 Y34.6302
G01 X15.2562 Y34.7160
G01 X15.2618 Y34.7296
G01 X15.2949 Y34.8225
G01 X15.3190 Y34.9181
G01 X15.3219 Y34.9326
G01 X15.3362 Y35.0301
G01 X15.3414 Y35.1360
G01 X15.3362 Y35.2419
G01 X15.3219 Y35.3394
G01 X15.3190 Y35.3539
G01 X15.2949 Y35.4495
G01 X15.2618 Y35.5424
G01 X15.2562 Y35.5560
G01 X15.2156 Y35.6418
G01 X15.2102 Y35.6515
G01 X15.1594 Y35.7360
G01 X15.1008 Y35.8153
G01 X15.0939 Y35.8240
G01 X15.0302 Y35.8943
G01 X15.0224 Y35.9022
G01 X14.9494 Y35.9685
G01 X14.9407 Y35.9754
G01 X14.9117 Y35.9970
G01 X14.9117 Y45.5565
G01 X14.9407 Y45.5781
G01 X14.9494 Y45.5850
G01 X15.0224 Y45.6513
G01 X15.0302 Y45.6592
G01 X15.0939 Y45.7295
G01 X15.1008 Y45.7382
G01 X15.1594 Y45.8175
G01 X15.2102 Y45.9020
G01 X15.2156 Y45.9117
G01 X15.2562 Y45.9975
G01 X15.2618 Y46.0111
G01 X15.2949 Y46.1040
G01 X15.3190 Y46.1996
G01 X15.3219 Y46.2141
G01 X15.3362 Y46.3116
G01 X15.3414 Y46.4175
G01 X15.3362 Y46.5234
G01 X15.3219 Y46.6209
G01 X15.3190 Y46.6354
G01 X15.2949 Y46.7310
G01 X15.2618 Y46.8239
G01 X15.2562 Y46.8375
G01 X15.2156 Y46.9233
G01 X15.2102 Y46.9330
G01 X15.1594 Y47.0175
G01 X15.1008 Y47.0968
G01 X15.0939 Y47.1055
G01 X15.0302 Y47.1758
G01 X15.0224 Y47.1837
G01 X14.9494 Y47.2500
G01 X14.9407 Y47.2569
G01 X14.9117 Y47.2785
G01 X14.9117 Y56.8380
G01 X14.9407 Y56.8596
G01 X14.9494 Y56.8665
G01 X15.0224 Y56.9328
G01 X15.0302 Y56.9407
G01 X15.0939 Y57.0110
G01 X15.1008 Y57.0197
G01 X15.1594 Y57.0990
G01 X15.2102 Y57.1835
G01 X15.2156 Y57.1932
G01 X15.2562 Y57.2790
G01 X15.2618 Y57.2926
G01 X15.2949 Y57.3855
G01 X15.3190 Y57.4811
G01 X15.3219 Y57.4956
G01 X15.3362 Y57.5931
G01 X15.3414 Y57.6990
G01 X15.3362 Y57.8049
G01 X15.3219 Y57.9024
G01 X15.3190 Y57.9169
G01 X15.2949 Y58.0125
G01 X15.2618 Y58.1054
G01 X15.2562 Y58.1190
G01 X15.2156 Y58.2048
G01 X15.2102 Y58.2145
G01 X15.1594 Y58.2990
G01 X15.1008 Y58.3783
G01 X15.0939 Y58.3870
G01 X15.0302 Y58.4573
G01 X15.0224 Y58.4652
