(G-CODE GENERATED BY FLATCAM v8.994 - www.flatcam.org - Version Date: 2020/11/7)

(Name: WB-Edge_Cuts.gbr_iso_combined_cnc)
(Type: G-code from Geometry)
(Units: MM)

(Created on Saturday, 12 November 2022 at 16:17)

(This preprocessor is the default preprocessor used by FlatCAM.)
(It is made to work with MACH3 compatible motion controllers.)

(TOOL DIAMETER: 0.2353 mm)
(Feedrate_XY: 60.0 mm/min)
(Feedrate_Z: 60.0 mm/min)
(Feedrate rapids 1500.0 mm/min)

(Z_Cut: -0.1001 mm)
(Z_Move: 2.0 mm)
(Z Start: None mm)
(Z End: 15.0 mm)
(X,Y End: None mm)
(Steps per circle: 64)
(Preprocessor Geometry: default)

(X range:   -0.2000 ...   89.3540  mm)
(Y range:   -0.2000 ...   84.4010  mm)

(Spindle Speed: 0.0 RPM)
G21
G90
G94

G01 F60.00

M5
G00 Z15.0000
G00 X0.0000 Y0.0000
T1
M6    
(MSG, Change to Tool Dia = 0.2353)
M0
G00 Z15.0000

M03
G01 F60.00
G00 X-0.1000 Y-0.0025
G01 F60.00
G01 Z-0.1001
G01 F60.00
G01 X-0.0995 Y-0.0098
G01 X-0.0981 Y-0.0195
G01 X-0.0957 Y-0.0290
G01 X-0.0924 Y-0.0383
G01 X-0.0882 Y-0.0472
G01 X-0.0832 Y-0.0556
G01 X-0.0773 Y-0.0635
G01 X-0.0707 Y-0.0707
G01 X-0.0635 Y-0.0773
G01 X-0.0556 Y-0.0832
G01 X-0.0472 Y-0.0882
G01 X-0.0383 Y-0.0924
G01 X-0.0290 Y-0.0957
G01 X-0.0195 Y-0.0981
G01 X-0.0098 Y-0.0995
G01 X0.0000 Y-0.1000
G01 X89.1540 Y-0.1000
G01 X89.1638 Y-0.0995
G01 X89.1735 Y-0.0981
G01 X89.1830 Y-0.0957
G01 X89.1923 Y-0.0924
G01 X89.2012 Y-0.0882
G01 X89.2096 Y-0.0832
G01 X89.2175 Y-0.0773
G01 X89.2238 Y-0.0716
G01 X89.2313 Y-0.0635
G01 X89.2372 Y-0.0556
G01 X89.2422 Y-0.0472
G01 X89.2464 Y-0.0383
G01 X89.2497 Y-0.0290
G01 X89.2521 Y-0.0195
G01 X89.2535 Y-0.0098
G01 X89.2540 Y0.0000
G01 X89.2540 Y84.2010
G01 X89.2535 Y84.2108
G01 X89.2521 Y84.2205
G01 X89.2497 Y84.2300
G01 X89.2464 Y84.2393
G01 X89.2422 Y84.2482
G01 X89.2372 Y84.2566
G01 X89.2313 Y84.2645
G01 X89.2256 Y84.2708
G01 X89.2175 Y84.2783
G01 X89.2096 Y84.2842
G01 X89.2012 Y84.2892
G01 X89.1923 Y84.2934
G01 X89.1830 Y84.2967
G01 X89.1735 Y84.2991
G01 X89.1638 Y84.3005
G01 X89.1540 Y84.3010
G01 X0.0000 Y84.3010
G01 X-0.0098 Y84.3005
G01 X-0.0195 Y84.2991
G01 X-0.0290 Y84.2967
G01 X-0.0383 Y84.2934
G01 X-0.0472 Y84.2892
G01 X-0.0556 Y84.2842
G01 X-0.0635 Y84.2783
G01 X-0.0698 Y84.2726
G01 X-0.0773 Y84.2645
G01 X-0.0832 Y84.2566
G01 X-0.0882 Y84.2482
G01 X-0.0924 Y84.2393
G01 X-0.0957 Y84.2300
G01 X-0.0981 Y84.2205
G01 X-0.0995 Y84.2108
G01 X-0.1000 Y84.2010
G01 X-0.1000 Y-0.0025
G00 Z2.0000
G00 X-0.1998 Y-0.0074
G01 F60.00
G01 Z-0.1001
G01 F60.00
G01 X-0.1987 Y-0.0233
G01 X-0.1954 Y-0.0426
G01 X-0.1903 Y-0.0616
G01 X-0.1833 Y-0.0799
G01 X-0.1746 Y-0.0975
G01 X-0.1642 Y-0.1142
G01 X-0.1523 Y-0.1297
G01 X-0.1388 Y-0.1440
G01 X-0.1269 Y-0.1546
G01 X-0.1111 Y-0.1663
G01 X-0.0943 Y-0.1764
G01 X-0.0765 Y-0.1848
G01 X-0.0581 Y-0.1914
G01 X-0.0390 Y-0.1962
G01 X-0.0196 Y-0.1991
G01 X0.0000 Y-0.2000
G01 X89.1540 Y-0.2000
G01 X89.1736 Y-0.1991
G01 X89.1930 Y-0.1962
G01 X89.2121 Y-0.1914
G01 X89.2305 Y-0.1848
G01 X89.2483 Y-0.1764
G01 X89.2651 Y-0.1663
G01 X89.2809 Y-0.1546
G01 X89.2928 Y-0.1440
G01 X89.3005 Y-0.1361
G01 X89.3086 Y-0.1269
G01 X89.3203 Y-0.1111
G01 X89.3304 Y-0.0943
G01 X89.3388 Y-0.0765
G01 X89.3454 Y-0.0581
G01 X89.3502 Y-0.0390
G01 X89.3531 Y-0.0196
G01 X89.3540 Y0.0000
G01 X89.3540 Y84.2010
G01 X89.3531 Y84.2206
G01 X89.3502 Y84.2400
G01 X89.3454 Y84.2591
G01 X89.3388 Y84.2775
G01 X89.3304 Y84.2953
G01 X89.3203 Y84.3121
G01 X89.3086 Y84.3279
G01 X89.2980 Y84.3398
G01 X89.2901 Y84.3475
G01 X89.2809 Y84.3556
G01 X89.2651 Y84.3673
G01 X89.2483 Y84.3774
G01 X89.2305 Y84.3858
G01 X89.2121 Y84.3924
G01 X89.1930 Y84.3972
G01 X89.1736 Y84.4001
G01 X89.1540 Y84.4010
G01 X0.0000 Y84.4010
G01 X-0.0196 Y84.4001
G01 X-0.0390 Y84.3972
G01 X-0.0581 Y84.3924
G01 X-0.0765 Y84.3858
G01 X-0.0943 Y84.3774
G01 X-0.1111 Y84.3673
G01 X-0.1269 Y84.3556
G01 X-0.1388 Y84.3450
G01 X-0.1465 Y84.3371
G01 X-0.1546 Y84.3279
G01 X-0.1663 Y84.3121
G01 X-0.1764 Y84.2953
G01 X-0.1848 Y84.2775
G01 X-0.1914 Y84.2591
G01 X-0.1962 Y84.2400
G01 X-0.1991 Y84.2206
G01 X-0.2000 Y84.2010
G01 X-0.1998 Y-0.0074
G00 Z2.0000
G00 X0.1000 Y0.1000
G01 F60.00
G01 Z-0.1001
G01 F60.00
G01 X89.0540 Y0.1000
G01 X89.0540 Y84.1010
G01 X0.1000 Y84.1010
G01 X0.1000 Y0.1000
G00 Z2.0000
G00 X0.2000 Y0.2000
G01 F60.00
G01 Z-0.1001
G01 F60.00
G01 X88.9540 Y0.2000
G01 X88.9540 Y84.0010
G01 X0.2000 Y84.0010
G01 X0.2000 Y0.2000
G00 Z2.0000
G00 X78.2180 Y26.9175
G01 F60.00
G01 Z-0.1001
G01 F60.00
G01 X78.2278 Y26.8866
G01 X78.2402 Y26.8566
G01 X78.2450 Y26.8464
G01 X78.2587 Y26.8212
G01 X78.2665 Y26.8084
G01 X78.2850 Y26.7817
G01 X78.3107 Y26.7511
G01 X78.3394 Y26.7232
G01 X78.3647 Y26.7029
G01 X78.3769 Y26.6942
G01 X78.4043 Y26.6767
G01 X78.4331 Y26.6618
G01 X78.4433 Y26.6571
G01 X78.4736 Y26.6453
G01 X81.2806 Y25.7096
G01 X81.3150 Y25.7002
G01 X81.3463 Y25.6945
G01 X81.3609 Y25.6926
G01 X81.3854 Y25.6907
G01 X81.3965 Y25.6903
G01 X81.4320 Y25.6912
G01 X81.4674 Y25.6953
G01 X81.4782 Y25.6973
G01 X81.5022 Y25.7026
G01 X81.5164 Y25.7065
G01 X81.5397 Y25.7142
G01 X81.5501 Y25.7180
G01 X81.5759 Y25.7293
G01 X81.5859 Y25.7341
G01 X81.6168 Y25.7517
G01 X81.6431 Y25.7699
G01 X81.6519 Y25.7765
G01 X81.6788 Y25.7998
G01 X81.7059 Y25.8282
G01 X81.7302 Y25.8591
G01 X81.7475 Y25.8859
G01 X81.7531 Y25.8954
G01 X81.7690 Y25.9272
G01 X81.7833 Y25.9638
G01 X81.7938 Y26.0016
G01 X81.8006 Y26.0403
G01 X81.8036 Y26.0794
G01 X81.8028 Y26.1187
G01 X81.7981 Y26.1577
G01 X81.7914 Y26.1889
G01 X81.7886 Y26.1996
G01 X81.7774 Y26.2333
G01 X81.7615 Y26.2693
G01 X81.7423 Y26.3035
G01 X81.7198 Y26.3357
G01 X81.6942 Y26.3655
G01 X81.6658 Y26.3926
G01 X81.6349 Y26.4169
G01 X81.6018 Y26.4379
G01 X81.5668 Y26.4557
G01 X81.5302 Y26.4699
G01 X81.0038 Y26.6454
G01 X81.0038 Y27.4019
G01 X81.5371 Y27.5799
G01 X81.5668 Y27.5916
G01 X81.6018 Y27.6094
G01 X81.6349 Y27.6305
G01 X81.6658 Y27.6547
G01 X81.6942 Y27.6819
G01 X81.7151 Y27.7060
G01 X81.7241 Y27.7176
G01 X81.7423 Y27.7438
G01 X81.7581 Y27.7716
G01 X81.7647 Y27.7847
G01 X81.7774 Y27.8140
G01 X81.7896 Y27.8513
G01 X81.7981 Y27.8897
G01 X81.8021 Y27.9213
G01 X81.8031 Y27.9360
G01 X81.8036 Y27.9679
G01 X81.8006 Y28.0070
G01 X81.7953 Y28.0385
G01 X81.7920 Y28.0529
G01 X81.7833 Y28.0835
G01 X81.7690 Y28.1201
G01 X81.7513 Y28.1552
G01 X81.7302 Y28.1883
G01 X81.7059 Y28.2192
G01 X81.6788 Y28.2475
G01 X81.6490 Y28.2731
G01 X81.6168 Y28.2956
G01 X81.5826 Y28.3149
G01 X81.5467 Y28.3307
G01 X81.5093 Y28.3429
G01 X81.4710 Y28.3514
G01 X81.4320 Y28.3561
G01 X81.3928 Y28.3570
G01 X81.3536 Y28.3540
G01 X81.3150 Y28.3472
G01 X81.2771 Y28.3366
G01 X78.4771 Y27.4033
G01 X78.4468 Y27.3916
G01 X78.4365 Y27.3872
G01 X78.4043 Y27.3706
G01 X78.3707 Y27.3490
G01 X78.3394 Y27.3241
G01 X78.3160 Y27.3016
G01 X78.3058 Y27.2906
G01 X78.2873 Y27.2686
G01 X78.2806 Y27.2596
G01 X78.2665 Y27.2390
G01 X78.2605 Y27.2294
G01 X78.2467 Y27.2042
G01 X78.2417 Y27.1942
G01 X78.2278 Y27.1608
G01 X78.2160 Y27.1226
G01 X78.2080 Y27.0834
G01 X78.2043 Y27.0474
G01 X78.2039 Y27.0362
G01 X78.2039 Y27.0074
G01 X78.2046 Y26.9962
G01 X78.2071 Y26.9714
G01 X78.2086 Y26.9602
G01 X78.2143 Y26.9321
G01 X78.2180 Y26.9175
G00 Z2.0000
G00 X78.3135 Y26.9471
G01 F60.00
G01 Z-0.1001
G01 F60.00
G01 X78.3217 Y26.9208
G01 X78.3323 Y26.8955
G01 X78.3465 Y26.8691
G01 X78.3647 Y26.8422
G01 X78.3840 Y26.8192
G01 X78.4054 Y26.7983
G01 X78.4310 Y26.7783
G01 X78.4541 Y26.7635
G01 X78.4786 Y26.7509
G01 X78.5076 Y26.7394
G01 X81.3099 Y25.8052
G01 X81.3371 Y25.7977
G01 X81.3637 Y25.7929
G01 X81.3955 Y25.7903
G01 X81.4249 Y25.7910
G01 X81.4518 Y25.7941
G01 X81.4853 Y25.8016
G01 X81.5109 Y25.8100
G01 X81.5379 Y25.8219
G01 X81.5636 Y25.8363
G01 X81.5896 Y25.8548
G01 X81.6100 Y25.8724
G01 X81.6320 Y25.8956
G01 X81.6499 Y25.9189
G01 X81.6644 Y25.9417
G01 X81.6767 Y25.9658
G01 X81.6884 Y25.9954
G01 X81.6963 Y26.0238
G01 X81.7014 Y26.0528
G01 X81.7037 Y26.0822
G01 X81.7030 Y26.1116
G01 X81.6995 Y26.1409
G01 X81.6931 Y26.1696
G01 X81.6844 Y26.1964
G01 X81.6721 Y26.2246
G01 X81.6577 Y26.2502
G01 X81.6408 Y26.2743
G01 X81.6216 Y26.2967
G01 X81.6003 Y26.3171
G01 X81.5771 Y26.3352
G01 X81.5523 Y26.3511
G01 X81.5271 Y26.3639
G01 X81.4986 Y26.3751
G01 X80.9038 Y26.5733
G01 X80.9038 Y27.4740
G01 X81.4997 Y27.6727
G01 X81.5260 Y27.6830
G01 X81.5501 Y27.6951
G01 X81.5781 Y27.7128
G01 X81.6003 Y27.7303
G01 X81.6199 Y27.7489
G01 X81.6422 Y27.7750
G01 X81.6577 Y27.7971
G01 X81.6721 Y27.8228
G01 X81.6840 Y27.8497
G01 X81.6924 Y27.8754
G01 X81.6999 Y27.9089
G01 X81.7030 Y27.9357
G01 X81.7037 Y27.9652
G01 X81.7014 Y27.9945
G01 X81.6968 Y28.0211
G01 X81.6884 Y28.0519
G01 X81.6777 Y28.0794
G01 X81.6644 Y28.1056
G01 X81.6486 Y28.1305
G01 X81.6304 Y28.1536
G01 X81.6100 Y28.1749
G01 X81.5877 Y28.1941
G01 X81.5636 Y28.2110
G01 X81.5379 Y28.2254
G01 X81.5109 Y28.2373
G01 X81.4829 Y28.2465
G01 X81.4542 Y28.2528
G01 X81.4249 Y28.2564
G01 X81.3955 Y28.2570
G01 X81.3661 Y28.2548
G01 X81.3371 Y28.2497
G01 X81.3088 Y28.2417
G01 X78.5088 Y27.3084
G01 X78.4820 Y27.2980
G01 X78.4541 Y27.2839
G01 X78.4310 Y27.2691
G01 X78.4036 Y27.2473
G01 X78.3840 Y27.2281
G01 X78.3647 Y27.2052
G01 X78.3477 Y27.1804
G01 X78.3334 Y27.1541
G01 X78.3217 Y27.1265
G01 X78.3129 Y27.0979
G01 X78.3069 Y27.0685
G01 X78.3041 Y27.0411
G01 X78.3041 Y27.0062
G01 X78.3069 Y26.9789
G01 X78.3135 Y26.9471
G00 Z2.0000
G00 X80.2035 Y26.9121
G01 F60.00
G01 Z-0.1001
G01 F60.00
G01 X80.2035 Y27.1352
G01 X79.8690 Y27.0237
G01 X80.2035 Y26.9121
G00 Z2.0000
G00 X80.3035 Y26.7734
G01 F60.00
G01 Z-0.1001
G01 F60.00
G01 X80.3035 Y27.2739
G01 X79.5527 Y27.0237
G01 X80.3035 Y26.7734
G00 Z2.0000
G00 X80.9328 Y29.1905
G01 F60.00
G01 Z-0.1001
G01 F60.00
G01 X79.5370 Y29.1905
G01 X79.5076 Y29.1890
G01 X79.4772 Y29.1844
G01 X79.4499 Y29.1775
G01 X79.4221 Y29.1676
G01 X79.3955 Y29.1550
G01 X79.3703 Y29.1399
G01 X79.3466 Y29.1223
G01 X79.3248 Y29.1026
G01 X79.3050 Y29.0807
G01 X79.2875 Y29.0571
G01 X79.2723 Y29.0318
G01 X79.2597 Y29.0052
G01 X79.2498 Y28.9775
G01 X79.2426 Y28.9489
G01 X79.2383 Y28.9198
G01 X79.2369 Y28.8903
G01 X79.2383 Y28.8609
G01 X79.2429 Y28.8306
G01 X79.2498 Y28.8032
G01 X79.2597 Y28.7755
G01 X79.2723 Y28.7489
G01 X79.2861 Y28.7257
G01 X79.3066 Y28.6981
G01 X79.3248 Y28.6781
G01 X79.3466 Y28.6583
G01 X79.3703 Y28.6408
G01 X79.3934 Y28.6269
G01 X79.4244 Y28.6122
G01 X79.4499 Y28.6031
G01 X79.4784 Y28.5960
G01 X79.5076 Y28.5917
G01 X79.5358 Y28.5902
G01 X81.0037 Y28.5902
G01 X81.0315 Y28.5915
G01 X81.0590 Y28.5954
G01 X81.0861 Y28.6017
G01 X81.1125 Y28.6106
G01 X81.1358 Y28.6209
G01 X81.4046 Y28.7552
G01 X81.4296 Y28.7693
G01 X81.4514 Y28.7843
G01 X81.4708 Y28.8004
G01 X81.4921 Y28.8214
G01 X81.5111 Y28.8445
G01 X81.5253 Y28.8654
G01 X81.5377 Y28.8874
G01 X81.6721 Y29.1561
G01 X81.6825 Y29.1794
G01 X81.6928 Y29.2102
G01 X81.6986 Y29.2350
G01 X81.7025 Y29.2625
G01 X81.7038 Y29.2903
G01 X81.7038 Y29.6903
G01 X81.7024 Y29.7193
G01 X81.6986 Y29.7457
G01 X81.6928 Y29.7705
G01 X81.6838 Y29.7980
G01 X81.6726 Y29.8235
G01 X81.6349 Y29.8990
G01 X81.6532 Y29.9236
G01 X81.6684 Y29.9489
G01 X81.6809 Y29.9755
G01 X81.6909 Y30.0032
G01 X81.6980 Y30.0318
G01 X81.7023 Y30.0609
G01 X81.7038 Y30.0903
G01 X81.7022 Y30.1210
G01 X81.6980 Y30.1489
G01 X81.6901 Y30.1798
G01 X81.6809 Y30.2052
G01 X81.6695 Y30.2296
G01 X81.6545 Y30.2550
G01 X81.6357 Y30.2807
G01 X81.6159 Y30.3026
G01 X81.5941 Y30.3223
G01 X81.5694 Y30.3405
G01 X81.5451 Y30.3550
G01 X81.5208 Y30.3666
G01 X81.4908 Y30.3775
G01 X81.4598 Y30.3851
G01 X81.4331 Y30.3890
G01 X81.4049 Y30.3904
G01 X79.5345 Y30.3904
G01 X79.5051 Y30.3887
G01 X79.4784 Y30.3847
G01 X79.4522 Y30.3782
G01 X79.4221 Y30.3676
G01 X79.3955 Y30.3550
G01 X79.3683 Y30.3385
G01 X79.3466 Y30.3223
G01 X79.3266 Y30.3042
G01 X79.3050 Y30.2807
G01 X79.2868 Y30.2560
G01 X79.2712 Y30.2296
G01 X79.2597 Y30.2052
G01 X79.2506 Y30.1798
G01 X79.2426 Y30.1489
G01 X79.2383 Y30.1198
G01 X79.2369 Y30.0903
G01 X79.2386 Y30.0585
G01 X79.2426 Y30.0318
G01 X79.2491 Y30.0056
G01 X79.2588 Y29.9778
G01 X79.2723 Y29.9489
G01 X79.2875 Y29.9236
G01 X79.3050 Y29.8999
G01 X79.3266 Y29.8764
G01 X79.3466 Y29.8583
G01 X79.3683 Y29.8422
G01 X79.3934 Y29.8269
G01 X79.4221 Y29.8131
G01 X79.4511 Y29.8028
G01 X79.4784 Y29.7960
G01 X79.5051 Y29.7920
G01 X79.5370 Y29.7902
G01 X81.0127 Y29.7902
G01 X81.0237 Y29.7792
G01 X81.1035 Y29.6195
G01 X81.1035 Y29.3612
G01 X81.0466 Y29.2474
G01 X80.9328 Y29.1905
G00 Z2.0000
G00 X80.9092 Y29.2905
G01 F60.00
G01 Z-0.1001
G01 F60.00
G01 X79.5333 Y29.2904
G01 X79.5051 Y29.2891
G01 X79.4941 Y29.2881
G01 X79.4626 Y29.2834
G01 X79.4518 Y29.2812
G01 X79.4244 Y29.2743
G01 X79.4139 Y29.2709
G01 X79.3839 Y29.2600
G01 X79.3550 Y29.2465
G01 X79.3420 Y29.2396
G01 X79.3147 Y29.2230
G01 X79.2890 Y29.2042
G01 X79.2776 Y29.1948
G01 X79.2541 Y29.1733
G01 X79.2301 Y29.1470
G01 X79.2232 Y29.1384
G01 X79.2085 Y29.1187
G01 X79.2023 Y29.1095
G01 X79.1841 Y29.0790
G01 X79.1703 Y29.0502
G01 X79.1647 Y29.0366
G01 X79.1541 Y29.0065
G01 X79.1462 Y28.9756
G01 X79.1433 Y28.9611
G01 X79.1388 Y28.9296
G01 X79.1369 Y28.8940
G01 X79.1371 Y28.8830
G01 X79.1383 Y28.8585
G01 X79.1392 Y28.8475
G01 X79.1446 Y28.8123
G01 X79.1521 Y28.7813
G01 X79.1564 Y28.7672
G01 X79.1673 Y28.7372
G01 X79.1808 Y28.7083
G01 X79.1878 Y28.6953
G01 X79.2043 Y28.6680
G01 X79.2232 Y28.6423
G01 X79.2325 Y28.6309
G01 X79.2541 Y28.6074
G01 X79.2776 Y28.5858
G01 X79.2890 Y28.5765
G01 X79.3147 Y28.5576
G01 X79.3452 Y28.5392
G01 X79.3550 Y28.5341
G01 X79.3839 Y28.5207
G01 X79.4139 Y28.5097
G01 X79.4279 Y28.5055
G01 X79.4589 Y28.4979
G01 X79.4905 Y28.4930
G01 X79.5014 Y28.4918
G01 X79.5333 Y28.4903
G01 X81.0037 Y28.4902
G01 X81.0373 Y28.4916
G01 X81.0476 Y28.4927
G01 X81.0740 Y28.4965
G01 X81.0843 Y28.4985
G01 X81.1068 Y28.5038
G01 X81.1202 Y28.5077
G01 X81.1454 Y28.5162
G01 X81.1551 Y28.5201
G01 X81.1826 Y28.5325
G01 X81.4493 Y28.6658
G01 X81.4754 Y28.6802
G01 X81.4843 Y28.6856
G01 X81.5089 Y28.7025
G01 X81.5171 Y28.7088
G01 X81.5400 Y28.7280
G01 X81.5612 Y28.7490
G01 X81.5705 Y28.7592
G01 X81.5895 Y28.7823
G01 X81.6065 Y28.8069
G01 X81.6121 Y28.8156
G01 X81.6282 Y28.8447
G01 X81.7631 Y29.1145
G01 X81.7753 Y29.1421
G01 X81.7790 Y29.1518
G01 X81.7884 Y29.1805
G01 X81.7962 Y29.2131
G01 X81.7981 Y29.2234
G01 X81.8021 Y29.2533
G01 X81.8038 Y29.2869
G01 X81.8038 Y29.6903
G01 X81.8024 Y29.7239
G01 X81.8013 Y29.7343
G01 X81.7969 Y29.7641
G01 X81.7902 Y29.7935
G01 X81.7874 Y29.8035
G01 X81.7790 Y29.8288
G01 X81.7753 Y29.8386
G01 X81.7631 Y29.8661
G01 X81.7505 Y29.8913
G01 X81.7582 Y29.9050
G01 X81.7703 Y29.9305
G01 X81.7747 Y29.9406
G01 X81.7866 Y29.9742
G01 X81.7953 Y30.0087
G01 X81.7974 Y30.0195
G01 X81.8010 Y30.0438
G01 X81.8024 Y30.0585
G01 X81.8038 Y30.0903
G01 X81.8019 Y30.1296
G01 X81.7961 Y30.1684
G01 X81.7866 Y30.2065
G01 X81.7733 Y30.2435
G01 X81.7599 Y30.2724
G01 X81.7529 Y30.2854
G01 X81.7384 Y30.3095
G01 X81.7321 Y30.3187
G01 X81.7130 Y30.3442
G01 X81.6866 Y30.3733
G01 X81.6575 Y30.3996
G01 X81.6260 Y30.4230
G01 X81.5923 Y30.4432
G01 X81.5635 Y30.4570
G01 X81.5534 Y30.4614
G01 X81.5233 Y30.4721
G01 X81.5127 Y30.4752
G01 X81.4889 Y30.4812
G01 X81.4781 Y30.4834
G01 X81.4502 Y30.4876
G01 X81.4355 Y30.4891
G01 X81.4037 Y30.4905
G01 X79.5370 Y30.4905
G01 X79.4978 Y30.4885
G01 X79.4589 Y30.4828
G01 X79.4279 Y30.4752
G01 X79.4139 Y30.4709
G01 X79.3839 Y30.4600
G01 X79.3550 Y30.4465
G01 X79.3420 Y30.4396
G01 X79.3147 Y30.4230
G01 X79.2832 Y30.3996
G01 X79.2594 Y30.3783
G01 X79.2490 Y30.3679
G01 X79.2277 Y30.3442
G01 X79.2085 Y30.3187
G01 X79.2023 Y30.3095
G01 X79.1859 Y30.2822
G01 X79.1808 Y30.2724
G01 X79.1673 Y30.2435
G01 X79.1541 Y30.2065
G01 X79.1446 Y30.1684
G01 X79.1388 Y30.1296
G01 X79.1369 Y30.0903
G01 X79.1388 Y30.0511
G01 X79.1446 Y30.0123
G01 X79.1541 Y29.9742
G01 X79.1673 Y29.9372
G01 X79.1841 Y29.9017
G01 X79.2043 Y29.8680
G01 X79.2277 Y29.8365
G01 X79.2541 Y29.8074
G01 X79.2832 Y29.7810
G01 X79.3147 Y29.7576
G01 X79.3452 Y29.7392
G01 X79.3550 Y29.7341
G01 X79.3839 Y29.7207
G01 X79.4139 Y29.7097
G01 X79.4279 Y29.7055
G01 X79.4589 Y29.6979
G01 X79.4905 Y29.6930
G01 X79.5014 Y29.6918
G01 X79.5333 Y29.6903
G01 X80.9564 Y29.6902
G01 X81.0035 Y29.5959
G01 X81.0035 Y29.3848
G01 X80.9721 Y29.3219
G01 X80.9092 Y29.2905
G00 Z2.0000
G00 X79.1369 Y31.0235
G01 F60.00
G01 Z-0.1001
G01 F60.00
G01 X79.1388 Y30.9844
G01 X79.1446 Y30.9456
G01 X79.1541 Y30.9075
G01 X79.1673 Y30.8705
G01 X79.1841 Y30.8350
G01 X79.2043 Y30.8014
G01 X79.2277 Y30.7698
G01 X79.2541 Y30.7407
G01 X79.2832 Y30.7144
G01 X79.3147 Y30.6910
G01 X79.3484 Y30.6708
G01 X79.3839 Y30.6540
G01 X79.4208 Y30.6408
G01 X79.4589 Y30.6312
G01 X79.4978 Y30.6255
G01 X79.5296 Y30.6237
G01 X79.5407 Y30.6236
G01 X79.5762 Y30.6255
G01 X79.6151 Y30.6312
G01 X79.6532 Y30.6408
G01 X79.6901 Y30.6540
G01 X79.7256 Y30.6708
G01 X79.7593 Y30.6910
G01 X79.7908 Y30.7144
G01 X79.8199 Y30.7407
G01 X79.8463 Y30.7698
G01 X79.8697 Y30.8014
G01 X79.8899 Y30.8350
G01 X79.9067 Y30.8705
G01 X79.9199 Y30.9075
G01 X79.9294 Y30.9456
G01 X79.9352 Y30.9844
G01 X79.9371 Y31.0235
G01 X81.0071 Y31.0236
G01 X81.0338 Y31.0248
G01 X81.0442 Y31.0256
G01 X81.0740 Y31.0298
G01 X81.0843 Y31.0318
G01 X81.1135 Y31.0389
G01 X81.1422 Y31.0484
G01 X81.1519 Y31.0521
G01 X81.1795 Y31.0643
G01 X81.4554 Y31.2023
G01 X81.4814 Y31.2171
G01 X81.5089 Y31.2358
G01 X81.5348 Y31.2568
G01 X81.5450 Y31.2661
G01 X81.5660 Y31.2874
G01 X81.5874 Y31.3129
G01 X81.6065 Y31.3402
G01 X81.6138 Y31.3519
G01 X81.6282 Y31.3781
G01 X81.7615 Y31.6447
G01 X81.7766 Y31.6786
G01 X81.7863 Y31.7071
G01 X81.7902 Y31.7205
G01 X81.7969 Y31.7499
G01 X81.8013 Y31.7797
G01 X81.8024 Y31.7901
G01 X81.8038 Y31.8202
G01 X81.8038 Y32.0903
G01 X81.8022 Y32.1259
G01 X81.8010 Y32.1369
G01 X81.7968 Y32.1648
G01 X81.7945 Y32.1756
G01 X81.7885 Y32.1994
G01 X81.7843 Y32.2135
G01 X81.7747 Y32.2400
G01 X81.7703 Y32.2502
G01 X81.7565 Y32.2790
G01 X81.7364 Y32.3126
G01 X81.7130 Y32.3442
G01 X81.6892 Y32.3706
G01 X81.6813 Y32.3783
G01 X81.6603 Y32.3973
G01 X81.6517 Y32.4042
G01 X81.6320 Y32.4188
G01 X81.6197 Y32.4270
G01 X81.5987 Y32.4396
G01 X81.5890 Y32.4449
G01 X81.5568 Y32.4600
G01 X81.5198 Y32.4732
G01 X81.4817 Y32.4828
G01 X81.4502 Y32.4876
G01 X81.4355 Y32.4891
G01 X81.4073 Y32.4904
G01 X81.3963 Y32.4903
G01 X81.3718 Y32.4891
G01 X81.3608 Y32.4881
G01 X81.3329 Y32.4840
G01 X81.3220 Y32.4820
G01 X81.2875 Y32.4732
G01 X81.2505 Y32.4600
G01 X81.2150 Y32.4432
G01 X81.1814 Y32.4230
G01 X81.1498 Y32.3996
G01 X81.1207 Y32.3733
G01 X81.0944 Y32.3442
G01 X81.0752 Y32.3187
G01 X81.0690 Y32.3095
G01 X81.0508 Y32.2790
G01 X81.0340 Y32.2435
G01 X81.0208 Y32.2065
G01 X81.0128 Y32.1756
G01 X81.0106 Y32.1648
G01 X81.0055 Y32.1296
G01 X81.0036 Y32.0940
G01 X81.0035 Y31.9181
G01 X80.9721 Y31.8552
G01 X80.9092 Y31.8238
G01 X79.9371 Y31.8238
G01 X79.9371 Y32.0940
G01 X79.9352 Y32.1296
G01 X79.9301 Y32.1648
G01 X79.9278 Y32.1756
G01 X79.9219 Y32.1994
G01 X79.9188 Y32.2100
G01 X79.9067 Y32.2435
G01 X79.8932 Y32.2724
G01 X79.8862 Y32.2854
G01 X79.8697 Y32.3126
G01 X79.8508 Y32.3384
G01 X79.8415 Y32.3497
G01 X79.8199 Y32.3733
G01 X79.7908 Y32.3996
G01 X79.7593 Y32.4230
G01 X79.7320 Y32.4396
G01 X79.7190 Y32.4465
G01 X79.6969 Y32.4570
G01 X79.6867 Y32.4614
G01 X79.6532 Y32.4732
G01 X79.6187 Y32.4820
G01 X79.6078 Y32.4840
G01 X79.5835 Y32.4876
G01 X79.5689 Y32.4891
G01 X79.5370 Y32.4905
G01 X79.4978 Y32.4885
G01 X79.4589 Y32.4828
G01 X79.4279 Y32.4752
G01 X79.4139 Y32.4709
G01 X79.3873 Y32.4614
G01 X79.3771 Y32.4570
G01 X79.3550 Y32.4465
G01 X79.3452 Y32.4414
G01 X79.3209 Y32.4270
G01 X79.3117 Y32.4209
G01 X79.2832 Y32.3996
G01 X79.2594 Y32.3783
G01 X79.2515 Y32.3706
G01 X79.2277 Y32.3442
G01 X79.2043 Y32.3126
G01 X79.1841 Y32.2790
G01 X79.1703 Y32.2502
G01 X79.1660 Y32.2400
G01 X79.1541 Y32.2065
G01 X79.1462 Y32.1756
G01 X79.1433 Y32.1611
G01 X79.1397 Y32.1369
G01 X79.1385 Y32.1259
G01 X79.1369 Y32.0903
G01 X79.1369 Y31.8238
G01 X78.6000 Y31.8237
G01 X78.5644 Y31.8219
G01 X78.5292 Y31.8168
G01 X78.5184 Y31.8145
G01 X78.4946 Y31.8085
G01 X78.4805 Y31.8043
G01 X78.4505 Y31.7933
G01 X78.4216 Y31.7799
G01 X78.4086 Y31.7729
G01 X78.3814 Y31.7564
G01 X78.3556 Y31.7375
G01 X78.3443 Y31.7282
G01 X78.3207 Y31.7066
G01 X78.2967 Y31.6803
G01 X78.2898 Y31.6717
G01 X78.2710 Y31.6460
G01 X78.2544 Y31.6187
G01 X78.2475 Y31.6057
G01 X78.2340 Y31.5768
G01 X78.2219 Y31.5433
G01 X78.2188 Y31.5327
G01 X78.2128 Y31.5089
G01 X78.2106 Y31.4981
G01 X78.2055 Y31.4629
G01 X78.2036 Y31.4273
G01 X78.2037 Y31.4163
G01 X78.2049 Y31.3918
G01 X78.2064 Y31.3771
G01 X78.2112 Y31.3456
G01 X78.2208 Y31.3075
G01 X78.2340 Y31.2705
G01 X78.2475 Y31.2416
G01 X78.2544 Y31.2286
G01 X78.2690 Y31.2045
G01 X78.2752 Y31.1954
G01 X78.2944 Y31.1698
G01 X78.3207 Y31.1407
G01 X78.3498 Y31.1144
G01 X78.3753 Y31.0952
G01 X78.3876 Y31.0870
G01 X78.4086 Y31.0744
G01 X78.4183 Y31.0691
G01 X78.4505 Y31.0540
G01 X78.4875 Y31.0408
G01 X78.5256 Y31.0312
G01 X78.5571 Y31.0264
G01 X78.5681 Y31.0252
G01 X78.6037 Y31.0235
G01 X79.1369 Y31.0235
G00 Z2.0000
G00 X79.2369 Y31.1235
G01 F60.00
G01 Z-0.1001
G01 F60.00
G01 X79.2369 Y31.0212
G01 X79.2383 Y30.9942
G01 X79.2429 Y30.9639
G01 X79.2498 Y30.9365
G01 X79.2607 Y30.9066
G01 X79.2735 Y30.8801
G01 X79.2875 Y30.8569
G01 X79.3035 Y30.8352
G01 X79.3248 Y30.8114
G01 X79.3466 Y30.7917
G01 X79.3703 Y30.7741
G01 X79.3977 Y30.7579
G01 X79.4221 Y30.7464
G01 X79.4475 Y30.7372
G01 X79.4761 Y30.7298
G01 X79.5076 Y30.7250
G01 X79.5370 Y30.7235
G01 X79.5664 Y30.7250
G01 X79.5979 Y30.7298
G01 X79.6265 Y30.7372
G01 X79.6519 Y30.7464
G01 X79.6763 Y30.7579
G01 X79.7037 Y30.7741
G01 X79.7274 Y30.7917
G01 X79.7492 Y30.8114
G01 X79.7705 Y30.8352
G01 X79.7865 Y30.8569
G01 X79.8005 Y30.8801
G01 X79.8133 Y30.9066
G01 X79.8242 Y30.9365
G01 X79.8311 Y30.9639
G01 X79.8357 Y30.9942
G01 X79.8371 Y31.0212
G01 X79.8371 Y31.1235
G01 X81.0048 Y31.1236
G01 X81.0315 Y31.1248
G01 X81.0590 Y31.1287
G01 X81.0861 Y31.1351
G01 X81.1146 Y31.1448
G01 X81.1379 Y31.1552
G01 X81.4046 Y31.2886
G01 X81.4296 Y31.3026
G01 X81.4514 Y31.3176
G01 X81.4708 Y31.3337
G01 X81.4921 Y31.3548
G01 X81.5111 Y31.3778
G01 X81.5253 Y31.3987
G01 X81.5382 Y31.4218
G01 X81.6726 Y31.6905
G01 X81.6834 Y31.7149
G01 X81.6916 Y31.7390
G01 X81.6986 Y31.7683
G01 X81.7025 Y31.7959
G01 X81.7038 Y31.8225
G01 X81.7037 Y32.0928
G01 X81.7023 Y32.1198
G01 X81.6980 Y32.1489
G01 X81.6909 Y32.1775
G01 X81.6805 Y32.2063
G01 X81.6684 Y32.2318
G01 X81.6518 Y32.2591
G01 X81.6357 Y32.2807
G01 X81.6176 Y32.3008
G01 X81.5959 Y32.3207
G01 X81.5704 Y32.3399
G01 X81.5451 Y32.3550
G01 X81.5185 Y32.3676
G01 X81.4908 Y32.3775
G01 X81.4622 Y32.3847
G01 X81.4331 Y32.3890
G01 X81.4037 Y32.3905
G01 X81.3718 Y32.3887
G01 X81.3451 Y32.3847
G01 X81.3189 Y32.3782
G01 X81.2911 Y32.3685
G01 X81.2622 Y32.3550
G01 X81.2380 Y32.3405
G01 X81.2133 Y32.3223
G01 X81.1932 Y32.3042
G01 X81.1702 Y32.2788
G01 X81.1541 Y32.2571
G01 X81.1390 Y32.2318
G01 X81.1264 Y32.2052
G01 X81.1165 Y32.1775
G01 X81.1089 Y32.1465
G01 X81.1050 Y32.1198
G01 X81.1036 Y32.0928
G01 X81.1035 Y31.8945
G01 X81.0466 Y31.7807
G01 X80.9328 Y31.7238
G01 X79.8371 Y31.7238
G01 X79.8371 Y32.0903
G01 X79.8357 Y32.1198
G01 X79.8314 Y32.1489
G01 X79.8234 Y32.1798
G01 X79.8143 Y32.2052
G01 X79.8028 Y32.2296
G01 X79.7872 Y32.2560
G01 X79.7690 Y32.2807
G01 X79.7509 Y32.3008
G01 X79.7255 Y32.3238
G01 X79.7037 Y32.3399
G01 X79.6785 Y32.3550
G01 X79.6519 Y32.3676
G01 X79.6241 Y32.3775
G01 X79.5956 Y32.3847
G01 X79.5664 Y32.3890
G01 X79.5370 Y32.3905
G01 X79.5100 Y32.3892
G01 X79.4761 Y32.3842
G01 X79.4499 Y32.3775
G01 X79.4210 Y32.3671
G01 X79.3955 Y32.3550
G01 X79.3683 Y32.3385
G01 X79.3466 Y32.3223
G01 X79.3266 Y32.3042
G01 X79.3066 Y32.2826
G01 X79.2875 Y32.2571
G01 X79.2723 Y32.2318
G01 X79.2597 Y32.2052
G01 X79.2495 Y32.1763
G01 X79.2422 Y32.1465
G01 X79.2383 Y32.1198
G01 X79.2369 Y32.0916
G01 X79.2369 Y31.7238
G01 X78.6024 Y31.7238
G01 X78.5718 Y31.7220
G01 X78.5451 Y31.7180
G01 X78.5177 Y31.7112
G01 X78.4866 Y31.7000
G01 X78.4622 Y31.6884
G01 X78.4369 Y31.6732
G01 X78.4133 Y31.6557
G01 X78.3932 Y31.6376
G01 X78.3717 Y31.6141
G01 X78.3541 Y31.5904
G01 X78.3402 Y31.5673
G01 X78.3264 Y31.5385
G01 X78.3158 Y31.5084
G01 X78.3093 Y31.4822
G01 X78.3053 Y31.4555
G01 X78.3035 Y31.4237
G01 X78.3048 Y31.3967
G01 X78.3098 Y31.3627
G01 X78.3165 Y31.3365
G01 X78.3264 Y31.3088
G01 X78.3390 Y31.2822
G01 X78.3541 Y31.2569
G01 X78.3717 Y31.2333
G01 X78.3898 Y31.2132
G01 X78.4152 Y31.1902
G01 X78.4369 Y31.1741
G01 X78.4622 Y31.1590
G01 X78.4888 Y31.1464
G01 X78.5142 Y31.1372
G01 X78.5475 Y31.1289
G01 X78.5742 Y31.1250
G01 X78.6024 Y31.1236
G01 X79.2369 Y31.1235
G00 Z2.0000
G00 X79.1543 Y33.3071
G01 F60.00
G01 Z-0.1001
G01 F60.00
G01 X79.1641 Y33.2786
G01 X79.1776 Y33.2479
G01 X79.3143 Y32.9745
G01 X79.3337 Y32.9408
G01 X79.3539 Y32.9124
G01 X79.3613 Y32.9029
G01 X79.3846 Y32.8770
G01 X79.5236 Y32.7379
G01 X79.5526 Y32.7121
G01 X79.5841 Y32.6892
G01 X79.5943 Y32.6828
G01 X79.6247 Y32.6658
G01 X79.8977 Y32.5295
G01 X79.9221 Y32.5187
G01 X79.9318 Y32.5150
G01 X79.9605 Y32.5056
G01 X79.9897 Y32.4985
G01 X80.0000 Y32.4965
G01 X80.0298 Y32.4923
G01 X80.0402 Y32.4914
G01 X80.0669 Y32.4902
G01 X80.8703 Y32.4902
G01 X80.9074 Y32.4919
G01 X80.9373 Y32.4959
G01 X80.9509 Y32.4985
G01 X80.9802 Y32.5056
G01 X81.0088 Y32.5150
G01 X81.0186 Y32.5187
G01 X81.0461 Y32.5309
G01 X81.3159 Y32.6658
G01 X81.3463 Y32.6828
G01 X81.3566 Y32.6892
G01 X81.3880 Y32.7121
G01 X81.4170 Y32.7379
G01 X81.5533 Y32.8741
G01 X81.5819 Y32.9060
G01 X81.6025 Y32.9341
G01 X81.6091 Y32.9442
G01 X81.6282 Y32.9781
G01 X81.7632 Y33.2480
G01 X81.7747 Y33.2740
G01 X81.7786 Y33.2841
G01 X81.7854 Y33.3040
G01 X81.7905 Y33.3215
G01 X81.7961 Y33.3456
G01 X81.7987 Y33.3600
G01 X81.8019 Y33.3844
G01 X81.8030 Y33.3990
G01 X81.8037 Y33.4200
G01 X81.8038 Y33.8237
G01 X81.8021 Y33.8607
G01 X81.7981 Y33.8906
G01 X81.7955 Y33.9043
G01 X81.7884 Y33.9335
G01 X81.7790 Y33.9622
G01 X81.7753 Y33.9719
G01 X81.7631 Y33.9995
G01 X81.6282 Y34.2693
G01 X81.6112 Y34.2997
G01 X81.6025 Y34.3132
G01 X81.5819 Y34.3414
G01 X81.5561 Y34.3704
G01 X81.4170 Y34.5094
G01 X81.3880 Y34.5353
G01 X81.3566 Y34.5581
G01 X81.3463 Y34.5645
G01 X81.3159 Y34.5815
G01 X81.0461 Y34.7164
G01 X81.0186 Y34.7286
G01 X81.0088 Y34.7323
G01 X80.9802 Y34.7417
G01 X80.9509 Y34.7488
G01 X80.9407 Y34.7509
G01 X80.9108 Y34.7550
G01 X80.9004 Y34.7559
G01 X80.8738 Y34.7571
G01 X80.0703 Y34.7571
G01 X80.0333 Y34.7554
G01 X80.0034 Y34.7514
G01 X79.9897 Y34.7488
G01 X79.9605 Y34.7417
G01 X79.9318 Y34.7323
G01 X79.9221 Y34.7286
G01 X79.8945 Y34.7164
G01 X79.6247 Y34.5815
G01 X79.5943 Y34.5645
G01 X79.5841 Y34.5581
G01 X79.5526 Y34.5353
G01 X79.5236 Y34.5094
G01 X79.3874 Y34.3733
G01 X79.3587 Y34.3414
G01 X79.3382 Y34.3132
G01 X79.3295 Y34.2997
G01 X79.3125 Y34.2693
G01 X79.1776 Y33.9995
G01 X79.1641 Y33.9687
G01 X79.1543 Y33.9402
G01 X79.1505 Y33.9268
G01 X79.1437 Y33.8974
G01 X79.1386 Y33.8607
G01 X79.1369 Y33.8271
G01 X79.1369 Y33.4202
G01 X79.1386 Y33.3866
G01 X79.1431 Y33.3533
G01 X79.1452 Y33.3431
G01 X79.1505 Y33.3205
G01 X79.1543 Y33.3071
G00 Z2.0000
G00 X79.2491 Y33.3390
G01 F60.00
G01 Z-0.1001
G01 F60.00
G01 X79.2573 Y33.3149
G01 X79.2681 Y33.2905
G01 X79.4025 Y33.0216
G01 X79.4178 Y32.9948
G01 X79.4350 Y32.9708
G01 X79.4384 Y32.9667
G01 X79.4581 Y32.9448
G01 X79.5924 Y32.8105
G01 X79.6154 Y32.7899
G01 X79.6404 Y32.7719
G01 X79.6694 Y32.7552
G01 X79.9361 Y32.6219
G01 X79.9594 Y32.6115
G01 X79.9879 Y32.6017
G01 X80.0150 Y32.5954
G01 X80.0425 Y32.5915
G01 X80.0692 Y32.5902
G01 X80.8703 Y32.5902
G01 X80.8981 Y32.5915
G01 X80.9268 Y32.5956
G01 X80.9550 Y32.6024
G01 X80.9791 Y32.6106
G01 X81.0035 Y32.6214
G01 X81.2712 Y32.7552
G01 X81.3003 Y32.7719
G01 X81.3253 Y32.7899
G01 X81.3483 Y32.8105
G01 X81.4826 Y32.9448
G01 X81.5041 Y32.9687
G01 X81.5236 Y32.9960
G01 X81.5388 Y33.0228
G01 X81.6726 Y33.2906
G01 X81.6805 Y33.3077
G01 X81.6835 Y33.3153
G01 X81.6905 Y33.3354
G01 X81.6934 Y33.3456
G01 X81.6980 Y33.3651
G01 X81.6997 Y33.3744
G01 X81.7023 Y33.3942
G01 X81.7031 Y33.4036
G01 X81.7038 Y33.4237
G01 X81.7038 Y33.8248
G01 X81.7025 Y33.8515
G01 X81.6984 Y33.8801
G01 X81.6916 Y33.9083
G01 X81.6834 Y33.9325
G01 X81.6726 Y33.9568
G01 X81.5388 Y34.2246
G01 X81.5243 Y34.2502
G01 X81.5214 Y34.2547
G01 X81.5041 Y34.2786
G01 X81.4835 Y34.3016
G01 X81.3483 Y34.4368
G01 X81.3253 Y34.4574
G01 X81.3003 Y34.4755
G01 X81.2712 Y34.4921
G01 X81.0035 Y34.6259
G01 X80.9769 Y34.6375
G01 X80.9528 Y34.6456
G01 X80.9279 Y34.6515
G01 X80.8981 Y34.6558
G01 X80.8715 Y34.6571
G01 X80.0703 Y34.6571
G01 X80.0425 Y34.6558
G01 X80.0139 Y34.6518
G01 X79.9857 Y34.6449
G01 X79.9615 Y34.6367
G01 X79.9372 Y34.6259
G01 X79.6694 Y34.4921
G01 X79.6404 Y34.4755
G01 X79.6154 Y34.4574
G01 X79.5924 Y34.4368
G01 X79.4581 Y34.3026
G01 X79.4366 Y34.2786
G01 X79.4193 Y34.2547
G01 X79.4164 Y34.2502
G01 X79.4019 Y34.2246
G01 X79.2681 Y33.9568
G01 X79.2573 Y33.9325
G01 X79.2491 Y33.9083
G01 X79.2420 Y33.8790
G01 X79.2382 Y33.8515
G01 X79.2369 Y33.8237
G01 X79.2369 Y33.4225
G01 X79.2382 Y33.3959
G01 X79.2416 Y33.3706
G01 X79.2491 Y33.3390
G00 Z2.0000
G00 X81.0035 Y33.5181
G01 F60.00
G01 Z-0.1001
G01 F60.00
G01 X81.0035 Y33.7292
G01 X80.9415 Y33.8533
G01 X80.9000 Y33.8948
G01 X80.7759 Y33.9569
G01 X80.1648 Y33.9569
G01 X80.0407 Y33.8948
G01 X79.9992 Y33.8533
G01 X79.9371 Y33.7292
G01 X79.9371 Y33.5181
G01 X79.9992 Y33.3940
G01 X80.0407 Y33.3525
G01 X80.1648 Y33.2905
G01 X80.7759 Y33.2905
G01 X80.9000 Y33.3525
G01 X80.9415 Y33.3940
G01 X81.0035 Y33.5181
G00 Z2.0000
G00 X81.1035 Y33.4945
G01 F60.00
G01 Z-0.1001
G01 F60.00
G01 X81.1035 Y33.7528
G01 X81.0237 Y33.9126
G01 X80.9592 Y33.9770
G01 X80.7995 Y34.0569
G01 X80.1412 Y34.0569
G01 X79.9814 Y33.9770
G01 X79.9170 Y33.9126
G01 X79.8371 Y33.7528
G01 X79.8371 Y33.4945
G01 X79.9170 Y33.3348
G01 X79.9814 Y33.2703
G01 X80.1412 Y33.1905
G01 X80.7995 Y33.1905
G01 X80.9592 Y33.2703
G01 X81.0237 Y33.3348
G01 X81.1035 Y33.4945
G00 Z2.0000
G00 X79.6369 Y35.8571
G01 F60.00
G01 Z-0.1001
G01 F60.00
G01 X78.9038 Y35.8571
G01 X78.9038 Y36.8916
G01 X78.9023 Y36.9198
G01 X78.8980 Y36.9489
G01 X78.8909 Y36.9775
G01 X78.8809 Y37.0052
G01 X78.8684 Y37.0318
G01 X78.8518 Y37.0591
G01 X78.8357 Y37.0807
G01 X78.8176 Y37.1008
G01 X78.7941 Y37.1223
G01 X78.7704 Y37.1399
G01 X78.7430 Y37.1561
G01 X78.7185 Y37.1676
G01 X78.6931 Y37.1768
G01 X78.6622 Y37.1847
G01 X78.6306 Y37.1892
G01 X78.6037 Y37.1905
G01 X78.5767 Y37.1892
G01 X78.5451 Y37.1847
G01 X78.5165 Y37.1775
G01 X78.4866 Y37.1666
G01 X78.4622 Y37.1550
G01 X78.4390 Y37.1412
G01 X78.4133 Y37.1223
G01 X78.3914 Y37.1026
G01 X78.3717 Y37.0807
G01 X78.3541 Y37.0571
G01 X78.3390 Y37.0318
G01 X78.3274 Y37.0074
G01 X78.3165 Y36.9775
G01 X78.3098 Y36.9513
G01 X78.3048 Y36.9173
G01 X78.3035 Y36.8903
G01 X78.3035 Y35.5570
G01 X78.3051 Y35.5264
G01 X78.3093 Y35.4984
G01 X78.3165 Y35.4699
G01 X78.3264 Y35.4421
G01 X78.3390 Y35.4155
G01 X78.3541 Y35.3903
G01 X78.3717 Y35.3666
G01 X78.3914 Y35.3448
G01 X78.4114 Y35.3266
G01 X78.4390 Y35.3061
G01 X78.4622 Y35.2923
G01 X78.4911 Y35.2788
G01 X78.5165 Y35.2698
G01 X78.5451 Y35.2626
G01 X78.5742 Y35.2583
G01 X78.6024 Y35.2569
G01 X81.4037 Y35.2569
G01 X81.4355 Y35.2586
G01 X81.4622 Y35.2626
G01 X81.4884 Y35.2691
G01 X81.5185 Y35.2797
G01 X81.5462 Y35.2929
G01 X81.5724 Y35.3089
G01 X81.5941 Y35.3250
G01 X81.6141 Y35.3431
G01 X81.6357 Y35.3666
G01 X81.6532 Y35.3903
G01 X81.6695 Y35.4177
G01 X81.6809 Y35.4421
G01 X81.6901 Y35.4675
G01 X81.6980 Y35.4984
G01 X81.7025 Y35.5288
G01 X81.7038 Y35.5570
G01 X81.7038 Y36.8916
G01 X81.7020 Y36.9222
G01 X81.6980 Y36.9489
G01 X81.6915 Y36.9751
G01 X81.6809 Y37.0052
G01 X81.6678 Y37.0329
G01 X81.6532 Y37.0571
G01 X81.6372 Y37.0788
G01 X81.6159 Y37.1026
G01 X81.5921 Y37.1238
G01 X81.5704 Y37.1399
G01 X81.5473 Y37.1538
G01 X81.5185 Y37.1676
G01 X81.4884 Y37.1782
G01 X81.4622 Y37.1847
G01 X81.4355 Y37.1887
G01 X81.4037 Y37.1905
G01 X81.3718 Y37.1887
G01 X81.3451 Y37.1847
G01 X81.3165 Y37.1775
G01 X81.2866 Y37.1666
G01 X81.2622 Y37.1550
G01 X81.2390 Y37.1412
G01 X81.2133 Y37.1223
G01 X81.1898 Y37.1008
G01 X81.1717 Y37.0807
G01 X81.1555 Y37.0591
G01 X81.1379 Y37.0296
G01 X81.1264 Y37.0052
G01 X81.1172 Y36.9798
G01 X81.1098 Y36.9513
G01 X81.1050 Y36.9198
G01 X81.1036 Y36.8916
G01 X81.1035 Y35.8571
G01 X80.2371 Y35.8571
G01 X80.2371 Y36.4916
G01 X80.2357 Y36.5198
G01 X80.2318 Y36.5465
G01 X80.2238 Y36.5786
G01 X80.2143 Y36.6052
G01 X80.2028 Y36.6296
G01 X80.1851 Y36.6591
G01 X80.1690 Y36.6807
G01 X80.1492 Y36.7026
G01 X80.1274 Y36.7223
G01 X80.1057 Y36.7385
G01 X80.0763 Y36.7561
G01 X80.0519 Y36.7676
G01 X80.0241 Y36.7775
G01 X79.9956 Y36.7847
G01 X79.9689 Y36.7887
G01 X79.9370 Y36.7905
G01 X79.9051 Y36.7887
G01 X79.8784 Y36.7847
G01 X79.8499 Y36.7775
G01 X79.8221 Y36.7676
G01 X79.7977 Y36.7561
G01 X79.7683 Y36.7385
G01 X79.7466 Y36.7223
G01 X79.7248 Y36.7026
G01 X79.7050 Y36.6807
G01 X79.6889 Y36.6591
G01 X79.6712 Y36.6296
G01 X79.6597 Y36.6052
G01 X79.6502 Y36.5786
G01 X79.6422 Y36.5465
G01 X79.6383 Y36.5198
G01 X79.6369 Y36.4916
G01 X79.6369 Y35.8571
G00 Z2.0000
G00 X79.5369 Y35.9571
G01 F60.00
G01 Z-0.1001
G01 F60.00
G01 X79.0038 Y35.9571
G01 X79.0038 Y36.8903
G01 X79.0019 Y36.9296
G01 X78.9961 Y36.9684
G01 X78.9866 Y37.0065
G01 X78.9733 Y37.0435
G01 X78.9599 Y37.0724
G01 X78.9529 Y37.0854
G01 X78.9384 Y37.1095
G01 X78.9321 Y37.1187
G01 X78.9130 Y37.1442
G01 X78.8866 Y37.1733
G01 X78.8575 Y37.1996
G01 X78.8260 Y37.2230
G01 X78.7923 Y37.2432
G01 X78.7568 Y37.2600
G01 X78.7198 Y37.2732
G01 X78.6817 Y37.2828
G01 X78.6429 Y37.2885
G01 X78.6037 Y37.2905
G01 X78.5644 Y37.2885
G01 X78.5256 Y37.2828
G01 X78.4875 Y37.2732
G01 X78.4505 Y37.2600
G01 X78.4150 Y37.2432
G01 X78.3814 Y37.2230
G01 X78.3498 Y37.1996
G01 X78.3207 Y37.1733
G01 X78.2944 Y37.1442
G01 X78.2710 Y37.1126
G01 X78.2508 Y37.0790
G01 X78.2370 Y37.0502
G01 X78.2326 Y37.0400
G01 X78.2231 Y37.0135
G01 X78.2188 Y36.9994
G01 X78.2128 Y36.9756
G01 X78.2106 Y36.9648
G01 X78.2064 Y36.9369
G01 X78.2052 Y36.9259
G01 X78.2035 Y36.8903
G01 X78.2035 Y35.5570
G01 X78.2049 Y35.5251
G01 X78.2064 Y35.5105
G01 X78.2112 Y35.4789
G01 X78.2208 Y35.4408
G01 X78.2340 Y35.4039
G01 X78.2508 Y35.3684
G01 X78.2710 Y35.3347
G01 X78.2944 Y35.3032
G01 X78.3207 Y35.2741
G01 X78.3443 Y35.2525
G01 X78.3527 Y35.2454
G01 X78.3753 Y35.2285
G01 X78.3876 Y35.2204
G01 X78.4086 Y35.2078
G01 X78.4183 Y35.2024
G01 X78.4438 Y35.1903
G01 X78.4540 Y35.1860
G01 X78.4875 Y35.1741
G01 X78.5256 Y35.1646
G01 X78.5644 Y35.1588
G01 X78.6000 Y35.1569
G01 X81.4073 Y35.1569
G01 X81.4429 Y35.1588
G01 X81.4745 Y35.1633
G01 X81.4889 Y35.1662
G01 X81.5198 Y35.1741
G01 X81.5499 Y35.1847
G01 X81.5635 Y35.1903
G01 X81.5923 Y35.2041
G01 X81.6197 Y35.2204
G01 X81.6320 Y35.2285
G01 X81.6575 Y35.2477
G01 X81.6866 Y35.2741
G01 X81.7130 Y35.3032
G01 X81.7321 Y35.3287
G01 X81.7403 Y35.3409
G01 X81.7565 Y35.3684
G01 X81.7703 Y35.3971
G01 X81.7747 Y35.4073
G01 X81.7854 Y35.4373
G01 X81.7885 Y35.4479
G01 X81.7961 Y35.4789
G01 X81.8010 Y35.5105
G01 X81.8022 Y35.5214
G01 X81.8038 Y35.5570
G01 X81.8037 Y36.8940
G01 X81.8024 Y36.9222
G01 X81.8015 Y36.9332
G01 X81.7968 Y36.9648
G01 X81.7945 Y36.9756
G01 X81.7866 Y37.0065
G01 X81.7760 Y37.0366
G01 X81.7719 Y37.0468
G01 X81.7582 Y37.0757
G01 X81.7529 Y37.0854
G01 X81.7364 Y37.1126
G01 X81.7175 Y37.1384
G01 X81.7082 Y37.1497
G01 X81.6866 Y37.1733
G01 X81.6631 Y37.1948
G01 X81.6517 Y37.2042
G01 X81.6260 Y37.2230
G01 X81.5987 Y37.2396
G01 X81.5857 Y37.2465
G01 X81.5568 Y37.2600
G01 X81.5268 Y37.2709
G01 X81.5127 Y37.2752
G01 X81.4817 Y37.2828
G01 X81.4502 Y37.2876
G01 X81.4355 Y37.2891
G01 X81.4037 Y37.2905
G01 X81.3718 Y37.2891
G01 X81.3571 Y37.2876
G01 X81.3256 Y37.2828
G01 X81.2946 Y37.2752
G01 X81.2805 Y37.2709
G01 X81.2505 Y37.2600
G01 X81.2216 Y37.2465
G01 X81.2086 Y37.2396
G01 X81.1814 Y37.2230
G01 X81.1556 Y37.2042
G01 X81.1443 Y37.1948
G01 X81.1207 Y37.1733
G01 X81.0992 Y37.1497
G01 X81.0898 Y37.1384
G01 X81.0710 Y37.1126
G01 X81.0544 Y37.0854
G01 X81.0475 Y37.0724
G01 X81.0340 Y37.0435
G01 X81.0231 Y37.0135
G01 X81.0188 Y36.9994
G01 X81.0112 Y36.9684
G01 X81.0064 Y36.9369
G01 X81.0049 Y36.9222
G01 X81.0035 Y36.8903
G01 X81.0035 Y35.9571
G01 X80.3371 Y35.9571
G01 X80.3371 Y36.4903
G01 X80.3352 Y36.5296
G01 X80.3294 Y36.5684
G01 X80.3219 Y36.5994
G01 X80.3176 Y36.6135
G01 X80.3067 Y36.6435
G01 X80.2932 Y36.6724
G01 X80.2862 Y36.6854
G01 X80.2697 Y36.7126
G01 X80.2463 Y36.7442
G01 X80.2199 Y36.7733
G01 X80.1908 Y36.7996
G01 X80.1653 Y36.8188
G01 X80.1531 Y36.8270
G01 X80.1288 Y36.8414
G01 X80.1190 Y36.8465
G01 X80.0969 Y36.8570
G01 X80.0867 Y36.8614
G01 X80.0567 Y36.8721
G01 X80.0461 Y36.8752
G01 X80.0151 Y36.8828
G01 X79.9762 Y36.8885
G01 X79.9370 Y36.8905
G01 X79.8978 Y36.8885
G01 X79.8589 Y36.8828
G01 X79.8208 Y36.8732
G01 X79.7839 Y36.8600
G01 X79.7517 Y36.8449
G01 X79.7420 Y36.8396
G01 X79.7147 Y36.8230
G01 X79.6832 Y36.7996
G01 X79.6541 Y36.7733
G01 X79.6325 Y36.7497
G01 X79.6254 Y36.7413
G01 X79.6085 Y36.7187
G01 X79.6023 Y36.7095
G01 X79.5859 Y36.6822
G01 X79.5808 Y36.6724
G01 X79.5673 Y36.6435
G01 X79.5564 Y36.6135
G01 X79.5531 Y36.6029
G01 X79.5462 Y36.5756
G01 X79.5439 Y36.5648
G01 X79.5392 Y36.5332
G01 X79.5383 Y36.5222
G01 X79.5369 Y36.4940
G01 X79.5369 Y35.9571
G00 Z2.0000
G00 X79.1543 Y38.5071
G01 F60.00
G01 Z-0.1001
G01 F60.00
G01 X79.1641 Y38.4786
G01 X79.1776 Y38.4479
G01 X79.2288 Y38.3454
G01 X79.2085 Y38.3187
G01 X79.2004 Y38.3064
G01 X79.1841 Y38.2790
G01 X79.1703 Y38.2502
G01 X79.1647 Y38.2366
G01 X79.1541 Y38.2065
G01 X79.1462 Y38.1756
G01 X79.1433 Y38.1611
G01 X79.1388 Y38.1296
G01 X79.1371 Y38.0977
G01 X79.1371 Y38.0830
G01 X79.1388 Y38.0511
G01 X79.1433 Y38.0195
G01 X79.1462 Y38.0051
G01 X79.1541 Y37.9742
G01 X79.1660 Y37.9406
G01 X79.1703 Y37.9305
G01 X79.1841 Y37.9017
G01 X79.2004 Y37.8743
G01 X79.2085 Y37.8620
G01 X79.2277 Y37.8365
G01 X79.2490 Y37.8127
G01 X79.2594 Y37.8023
G01 X79.2832 Y37.7810
G01 X79.3147 Y37.7576
G01 X79.3420 Y37.7411
G01 X79.3550 Y37.7341
G01 X79.3839 Y37.7207
G01 X79.4139 Y37.7097
G01 X79.4279 Y37.7055
G01 X79.4589 Y37.6979
G01 X79.4978 Y37.6921
G01 X79.5370 Y37.6902
G01 X81.4037 Y37.6902
G01 X81.4355 Y37.6916
G01 X81.4465 Y37.6925
G01 X81.4817 Y37.6979
G01 X81.5163 Y37.7064
G01 X81.5268 Y37.7097
G01 X81.5499 Y37.7180
G01 X81.5635 Y37.7237
G01 X81.5923 Y37.7375
G01 X81.6260 Y37.7576
G01 X81.6575 Y37.7810
G01 X81.6813 Y37.8023
G01 X81.6917 Y37.8127
G01 X81.7106 Y37.8337
G01 X81.7175 Y37.8423
G01 X81.7364 Y37.8680
G01 X81.7565 Y37.9017
G01 X81.7733 Y37.9372
G01 X81.7843 Y37.9672
G01 X81.7885 Y37.9813
G01 X81.7961 Y38.0123
G01 X81.8019 Y38.0511
G01 X81.8038 Y38.0903
G01 X81.8019 Y38.1296
G01 X81.7961 Y38.1684
G01 X81.7866 Y38.2065
G01 X81.7733 Y38.2435
G01 X81.7565 Y38.2790
G01 X81.7403 Y38.3064
G01 X81.7343 Y38.3157
G01 X81.7153 Y38.3413
G01 X81.7082 Y38.3497
G01 X81.6917 Y38.3679
G01 X81.6813 Y38.3783
G01 X81.6603 Y38.3973
G01 X81.6517 Y38.4042
G01 X81.6260 Y38.4230
G01 X81.5923 Y38.4432
G01 X81.5568 Y38.4600
G01 X81.5198 Y38.4732
G01 X81.4889 Y38.4812
G01 X81.4745 Y38.4840
G01 X81.4429 Y38.4885
G01 X81.4073 Y38.4904
G01 X80.1648 Y38.4905
G01 X80.0407 Y38.5525
G01 X79.9992 Y38.5940
G01 X79.9371 Y38.7181
G01 X79.9371 Y38.8940
G01 X79.9355 Y38.9259
G01 X79.9343 Y38.9369
G01 X79.9307 Y38.9611
G01 X79.9287 Y38.9720
G01 X79.9219 Y38.9994
G01 X79.9188 Y39.0100
G01 X79.9093 Y39.0366
G01 X79.9052 Y39.0468
G01 X79.8916 Y39.0757
G01 X79.8862 Y39.0854
G01 X79.8717 Y39.1095
G01 X79.8655 Y39.1187
G01 X79.8463 Y39.1442
G01 X79.8250 Y39.1679
G01 X79.8173 Y39.1758
G01 X79.7937 Y39.1973
G01 X79.7850 Y39.2042
G01 X79.7653 Y39.2188
G01 X79.7531 Y39.2270
G01 X79.7256 Y39.2432
G01 X79.6901 Y39.2600
G01 X79.6532 Y39.2732
G01 X79.6151 Y39.2828
G01 X79.5835 Y39.2876
G01 X79.5689 Y39.2891
G01 X79.5370 Y39.2905
G01 X79.4978 Y39.2885
G01 X79.4589 Y39.2828
G01 X79.4279 Y39.2752
G01 X79.4139 Y39.2709
G01 X79.3873 Y39.2614
G01 X79.3771 Y39.2570
G01 X79.3484 Y39.2432
G01 X79.3178 Y39.2250
G01 X79.3087 Y39.2188
G01 X79.2890 Y39.2042
G01 X79.2776 Y39.1948
G01 X79.2541 Y39.1733
G01 X79.2277 Y39.1442
G01 X79.2043 Y39.1126
G01 X79.1878 Y39.0854
G01 X79.1808 Y39.0724
G01 X79.1673 Y39.0435
G01 X79.1541 Y39.0065
G01 X79.1446 Y38.9684
G01 X79.1397 Y38.9369
G01 X79.1383 Y38.9222
G01 X79.1369 Y38.8903
G01 X79.1370 Y38.6167
G01 X79.1386 Y38.5866
G01 X79.1431 Y38.5533
G01 X79.1452 Y38.5431
G01 X79.1505 Y38.5205
G01 X79.1543 Y38.5071
G00 Z2.0000
G00 X79.2491 Y38.5390
G01 F60.00
G01 Z-0.1001
G01 F60.00
G01 X79.2573 Y38.5149
G01 X79.2681 Y38.4905
G01 X79.3506 Y38.3254
G01 X79.3447 Y38.3207
G01 X79.3231 Y38.3008
G01 X79.3050 Y38.2807
G01 X79.2875 Y38.2571
G01 X79.2712 Y38.2296
G01 X79.2597 Y38.2052
G01 X79.2498 Y38.1775
G01 X79.2426 Y38.1489
G01 X79.2386 Y38.1222
G01 X79.2369 Y38.0903
G01 X79.2386 Y38.0585
G01 X79.2426 Y38.0318
G01 X79.2498 Y38.0032
G01 X79.2607 Y37.9732
G01 X79.2723 Y37.9489
G01 X79.2861 Y37.9257
G01 X79.3050 Y37.8999
G01 X79.3266 Y37.8764
G01 X79.3466 Y37.8583
G01 X79.3683 Y37.8422
G01 X79.3955 Y37.8256
G01 X79.4221 Y37.8131
G01 X79.4475 Y37.8039
G01 X79.4784 Y37.7960
G01 X79.5076 Y37.7917
G01 X79.5370 Y37.7902
G01 X81.4037 Y37.7902
G01 X81.4331 Y37.7917
G01 X81.4622 Y37.7960
G01 X81.4884 Y37.8025
G01 X81.5208 Y37.8140
G01 X81.5451 Y37.8256
G01 X81.5704 Y37.8408
G01 X81.5941 Y37.8583
G01 X81.6141 Y37.8764
G01 X81.6372 Y37.9019
G01 X81.6532 Y37.9236
G01 X81.6684 Y37.9489
G01 X81.6809 Y37.9755
G01 X81.6901 Y38.0009
G01 X81.6980 Y38.0318
G01 X81.7023 Y38.0609
G01 X81.7038 Y38.0903
G01 X81.7023 Y38.1198
G01 X81.6980 Y38.1489
G01 X81.6909 Y38.1775
G01 X81.6809 Y38.2052
G01 X81.6684 Y38.2318
G01 X81.6545 Y38.2550
G01 X81.6357 Y38.2807
G01 X81.6159 Y38.3026
G01 X81.5941 Y38.3223
G01 X81.5724 Y38.3385
G01 X81.5430 Y38.3561
G01 X81.5185 Y38.3676
G01 X81.4884 Y38.3782
G01 X81.4622 Y38.3847
G01 X81.4355 Y38.3887
G01 X81.4037 Y38.3905
G01 X80.1412 Y38.3905
G01 X79.9814 Y38.4703
G01 X79.9170 Y38.5348
G01 X79.8371 Y38.6945
G01 X79.8371 Y38.8903
G01 X79.8357 Y38.9198
G01 X79.8314 Y38.9489
G01 X79.8242 Y38.9775
G01 X79.8143 Y39.0052
G01 X79.8017 Y39.0318
G01 X79.7865 Y39.0571
G01 X79.7674 Y39.0826
G01 X79.7474 Y39.1042
G01 X79.7274 Y39.1223
G01 X79.7057 Y39.1385
G01 X79.6785 Y39.1550
G01 X79.6519 Y39.1676
G01 X79.6241 Y39.1775
G01 X79.5956 Y39.1847
G01 X79.5664 Y39.1890
G01 X79.5395 Y39.1904
G01 X79.5051 Y39.1887
G01 X79.4784 Y39.1847
G01 X79.4499 Y39.1775
G01 X79.4221 Y39.1676
G01 X79.3977 Y39.1561
G01 X79.3683 Y39.1385
G01 X79.3466 Y39.1223
G01 X79.3248 Y39.1026
G01 X79.3050 Y39.0807
G01 X79.2889 Y39.0591
G01 X79.2723 Y39.0318
G01 X79.2597 Y39.0052
G01 X79.2491 Y38.9751
G01 X79.2426 Y38.9489
G01 X79.2386 Y38.9222
G01 X79.2369 Y38.8928
G01 X79.2369 Y38.6225
G01 X79.2382 Y38.5959
G01 X79.2416 Y38.5706
G01 X79.2491 Y38.5390
G00 Z2.0000
G00 X79.1543 Y39.9738
G01 F60.00
G01 Z-0.1001
G01 F60.00
G01 X79.1641 Y39.9453
G01 X79.1776 Y39.9145
G01 X79.3125 Y39.6447
G01 X79.3317 Y39.6105
G01 X79.3520 Y39.5813
G01 X79.3589 Y39.5726
G01 X79.3749 Y39.5540
G01 X79.3850 Y39.5433
G01 X79.4082 Y39.5214
G01 X79.4391 Y39.4972
G01 X79.4722 Y39.4761
G01 X79.5006 Y39.4615
G01 X79.5140 Y39.4555
G01 X79.5369 Y39.4466
G01 X79.5473 Y39.4430
G01 X79.5816 Y39.4335
G01 X79.6130 Y39.4278
G01 X79.6239 Y39.4263
G01 X79.6521 Y39.4241
G01 X79.6631 Y39.4236
G01 X79.6950 Y39.4243
G01 X79.7060 Y39.4253
G01 X79.7340 Y39.4287
G01 X79.7449 Y39.4307
G01 X79.7760 Y39.4378
G01 X79.8064 Y39.4475
G01 X79.8168 Y39.4513
G01 X79.8460 Y39.4642
G01 X79.8558 Y39.4692
G01 X79.8804 Y39.4831
G01 X79.8896 Y39.4891
G01 X79.9157 Y39.5076
G01 X79.9455 Y39.5331
G01 X79.9726 Y39.5615
G01 X79.9968 Y39.5924
G01 X80.0179 Y39.6255
G01 X80.0325 Y39.6539
G01 X80.0372 Y39.6639
G01 X80.0474 Y39.6902
G01 X80.0510 Y39.7006
G01 X80.0596 Y39.7314
G01 X80.0624 Y39.7448
G01 X80.1140 Y39.6417
G01 X80.1304 Y39.6126
G01 X80.1472 Y39.5879
G01 X80.1555 Y39.5769
G01 X80.1771 Y39.5515
G01 X80.2007 Y39.5280
G01 X80.2263 Y39.5066
G01 X80.2346 Y39.5005
G01 X80.2593 Y39.4837
G01 X80.2883 Y39.4674
G01 X80.5581 Y39.3325
G01 X80.5855 Y39.3201
G01 X80.5952 Y39.3162
G01 X80.6271 Y39.3056
G01 X80.6564 Y39.2985
G01 X80.6701 Y39.2959
G01 X80.6930 Y39.2927
G01 X80.7034 Y39.2916
G01 X80.7370 Y39.2902
G01 X81.0071 Y39.2902
G01 X81.0338 Y39.2914
G01 X81.0442 Y39.2923
G01 X81.0740 Y39.2965
G01 X81.0843 Y39.2985
G01 X81.1135 Y39.3056
G01 X81.1422 Y39.3150
G01 X81.1519 Y39.3187
G01 X81.1795 Y39.3309
G01 X81.4493 Y39.4658
G01 X81.4784 Y39.4819
G01 X81.5061 Y39.5005
G01 X81.5171 Y39.5088
G01 X81.5400 Y39.5280
G01 X81.5636 Y39.5515
G01 X81.5852 Y39.5769
G01 X81.5935 Y39.5879
G01 X81.6103 Y39.6126
G01 X81.6266 Y39.6417
G01 X81.7631 Y39.9145
G01 X81.7766 Y39.9453
G01 X81.7874 Y39.9771
G01 X81.7902 Y39.9872
G01 X81.7955 Y40.0097
G01 X81.7981 Y40.0234
G01 X81.8021 Y40.0533
G01 X81.8038 Y40.0869
G01 X81.8038 Y40.7570
G01 X81.8021 Y40.7941
G01 X81.7975 Y40.8274
G01 X81.7955 Y40.8376
G01 X81.7893 Y40.8635
G01 X81.7806 Y40.8905
G01 X81.7876 Y40.9111
G01 X81.7945 Y40.9384
G01 X81.7968 Y40.9492
G01 X81.8019 Y40.9844
G01 X81.8036 Y41.0163
G01 X81.8037 Y41.0273
G01 X81.8019 Y41.0629
G01 X81.7974 Y41.0945
G01 X81.7953 Y41.1053
G01 X81.7885 Y41.1327
G01 X81.7854 Y41.1433
G01 X81.7747 Y41.1734
G01 X81.7703 Y41.1835
G01 X81.7565 Y41.2123
G01 X81.7403 Y41.2397
G01 X81.7321 Y41.2520
G01 X81.7130 Y41.2775
G01 X81.6917 Y41.3013
G01 X81.6813 Y41.3117
G01 X81.6575 Y41.3330
G01 X81.6320 Y41.3521
G01 X81.6197 Y41.3603
G01 X81.5923 Y41.3765
G01 X81.5635 Y41.3904
G01 X81.5499 Y41.3960
G01 X81.5198 Y41.4066
G01 X81.4889 Y41.4145
G01 X81.4745 Y41.4174
G01 X81.4429 Y41.4219
G01 X81.4037 Y41.4238
G01 X79.9335 Y41.4238
G01 X79.9069 Y41.4226
G01 X79.8965 Y41.4217
G01 X79.8666 Y41.4175
G01 X79.8564 Y41.4155
G01 X79.8271 Y41.4084
G01 X79.7985 Y41.3990
G01 X79.7887 Y41.3953
G01 X79.7612 Y41.3831
G01 X79.4914 Y41.2482
G01 X79.4652 Y41.2338
G01 X79.4535 Y41.2265
G01 X79.4263 Y41.2074
G01 X79.4007 Y41.1860
G01 X79.3795 Y41.1650
G01 X79.3702 Y41.1548
G01 X79.3491 Y41.1289
G01 X79.3304 Y41.1014
G01 X79.3157 Y41.0754
G01 X79.1791 Y40.8026
G01 X79.1668 Y40.7751
G01 X79.1629 Y40.7654
G01 X79.1533 Y40.7369
G01 X79.1505 Y40.7268
G01 X79.1444 Y40.7009
G01 X79.1426 Y40.6906
G01 X79.1386 Y40.6607
G01 X79.1369 Y40.6271
G01 X79.1369 Y40.0869
G01 X79.1386 Y40.0533
G01 X79.1431 Y40.0200
G01 X79.1452 Y40.0097
G01 X79.1505 Y39.9872
G01 X79.1543 Y39.9738
G00 Z2.0000
G00 X79.2491 Y40.0057
G01 F60.00
G01 Z-0.1001
G01 F60.00
G01 X79.2573 Y39.9815
G01 X79.2686 Y39.9561
G01 X79.4019 Y39.6894
G01 X79.4157 Y39.6648
G01 X79.4332 Y39.6397
G01 X79.4524 Y39.6173
G01 X79.4737 Y39.5969
G01 X79.4989 Y39.5774
G01 X79.5217 Y39.5629
G01 X79.5480 Y39.5496
G01 X79.5754 Y39.5389
G01 X79.6014 Y39.5316
G01 X79.6352 Y39.5257
G01 X79.6622 Y39.5237
G01 X79.6916 Y39.5243
G01 X79.7208 Y39.5278
G01 X79.7472 Y39.5336
G01 X79.7799 Y39.5443
G01 X79.8046 Y39.5552
G01 X79.8302 Y39.5697
G01 X79.8543 Y39.5866
G01 X79.8767 Y39.6057
G01 X79.8971 Y39.6270
G01 X79.9152 Y39.6502
G01 X79.9311 Y39.6750
G01 X79.9453 Y39.7036
G01 X79.9558 Y39.7311
G01 X79.9630 Y39.7571
G01 X79.9677 Y39.7837
G01 X79.9703 Y39.8155
G01 X79.9698 Y39.8437
G01 X79.9657 Y39.8766
G01 X79.9598 Y39.9029
G01 X79.9502 Y39.9321
G01 X79.9388 Y39.9579
G01 X79.8371 Y40.1612
G01 X79.8371 Y40.5528
G01 X79.8940 Y40.6666
G01 X80.0078 Y40.7235
G01 X80.0182 Y40.7235
G01 X80.0369 Y40.6861
G01 X80.0369 Y40.0903
G01 X80.0382 Y40.0625
G01 X80.0422 Y40.0339
G01 X80.0484 Y40.0079
G01 X80.0565 Y39.9837
G01 X80.0686 Y39.9561
G01 X80.2024 Y39.6884
G01 X80.2166 Y39.6634
G01 X80.2310 Y39.6426
G01 X80.2478 Y39.6223
G01 X80.2681 Y39.6019
G01 X80.2893 Y39.5843
G01 X80.3120 Y39.5687
G01 X80.3351 Y39.5558
G01 X80.6038 Y39.4214
G01 X80.6304 Y39.4098
G01 X80.6546 Y39.4017
G01 X80.6794 Y39.3958
G01 X80.7092 Y39.3915
G01 X80.7358 Y39.3902
G01 X81.0037 Y39.3902
G01 X81.0291 Y39.3913
G01 X81.0590 Y39.3954
G01 X81.0861 Y39.4017
G01 X81.1125 Y39.4106
G01 X81.1368 Y39.4214
G01 X81.4046 Y39.5552
G01 X81.4266 Y39.5675
G01 X81.4532 Y39.5857
G01 X81.4726 Y39.6019
G01 X81.4913 Y39.6206
G01 X81.5111 Y39.6445
G01 X81.5253 Y39.6654
G01 X81.5382 Y39.6884
G01 X81.6726 Y39.9572
G01 X81.6834 Y39.9815
G01 X81.6919 Y40.0068
G01 X81.6990 Y40.0373
G01 X81.7025 Y40.0625
G01 X81.7038 Y40.0892
G01 X81.7038 Y40.7582
G01 X81.7022 Y40.7871
G01 X81.6986 Y40.8123
G01 X81.6928 Y40.8372
G01 X81.6834 Y40.8658
G01 X81.6724 Y40.8906
G01 X81.6809 Y40.9088
G01 X81.6901 Y40.9342
G01 X81.6978 Y40.9639
G01 X81.7023 Y40.9942
G01 X81.7038 Y41.0237
G01 X81.7023 Y41.0531
G01 X81.6980 Y41.0822
G01 X81.6909 Y41.1108
G01 X81.6800 Y41.1408
G01 X81.6684 Y41.1651
G01 X81.6545 Y41.1883
G01 X81.6357 Y41.2141
G01 X81.6141 Y41.2376
G01 X81.5941 Y41.2557
G01 X81.5724 Y41.2718
G01 X81.5451 Y41.2884
G01 X81.5162 Y41.3018
G01 X81.4908 Y41.3109
G01 X81.4646 Y41.3175
G01 X81.4319 Y41.3225
G01 X81.4037 Y41.3238
G01 X79.9358 Y41.3238
G01 X79.9092 Y41.3225
G01 X79.8794 Y41.3182
G01 X79.8546 Y41.3123
G01 X79.8304 Y41.3042
G01 X79.8038 Y41.2926
G01 X79.5361 Y41.1588
G01 X79.5140 Y41.1465
G01 X79.4875 Y41.1283
G01 X79.4681 Y41.1121
G01 X79.4502 Y41.0942
G01 X79.4296 Y41.0695
G01 X79.4153 Y41.0486
G01 X79.4024 Y41.0256
G01 X79.2686 Y40.7579
G01 X79.2582 Y40.7346
G01 X79.2484 Y40.7061
G01 X79.2420 Y40.6790
G01 X79.2382 Y40.6515
G01 X79.2369 Y40.6248
G01 X79.2369 Y40.0892
G01 X79.2382 Y40.0625
G01 X79.2416 Y40.0373
G01 X79.2491 Y40.0057
G00 Z2.0000
G00 X80.6371 Y40.7235
G01 F60.00
G01 Z-0.1001
G01 F60.00
G01 X80.6371 Y40.1612
G01 X80.6940 Y40.0474
G01 X80.8078 Y39.9905
G01 X80.9328 Y39.9905
G01 X81.0466 Y40.0474
G01 X81.1035 Y40.1612
G01 X81.1035 Y40.6862
G01 X81.0848 Y40.7235
G01 X80.6371 Y40.7235
G00 Z2.0000
G00 X80.7371 Y40.6235
G01 F60.00
G01 Z-0.1001
G01 F60.00
G01 X80.7371 Y40.1848
G01 X80.7686 Y40.1219
G01 X80.8315 Y40.0905
G01 X80.9092 Y40.0905
G01 X80.9721 Y40.1219
G01 X81.0035 Y40.1848
G01 X81.0035 Y40.6235
G01 X80.7371 Y40.6235
G00 Z2.0000
G00 X79.2491 Y42.5390
G01 F60.00
G01 Z-0.1001
G01 F60.00
G01 X79.2573 Y42.5149
G01 X79.2686 Y42.4894
G01 X79.4019 Y42.2228
G01 X79.4148 Y42.1997
G01 X79.4310 Y42.1760
G01 X79.4502 Y42.1531
G01 X79.4681 Y42.1353
G01 X79.4875 Y42.1191
G01 X79.5111 Y42.1026
G01 X79.5361 Y42.0886
G01 X79.8028 Y41.9552
G01 X79.8282 Y41.9440
G01 X79.8568 Y41.9345
G01 X79.8817 Y41.9287
G01 X79.9115 Y41.9247
G01 X79.9370 Y41.9235
G01 X80.0715 Y41.9236
G01 X80.0981 Y41.9248
G01 X80.1257 Y41.9287
G01 X80.1528 Y41.9351
G01 X80.1769 Y41.9432
G01 X80.2046 Y41.9552
G01 X80.4712 Y42.0886
G01 X80.4953 Y42.1020
G01 X80.5180 Y42.1176
G01 X80.5409 Y42.1368
G01 X80.5587 Y42.1548
G01 X80.5749 Y42.1742
G01 X80.5914 Y42.1977
G01 X80.6054 Y42.2228
G01 X80.7388 Y42.4894
G01 X80.7500 Y42.5149
G01 X80.7595 Y42.5435
G01 X80.7653 Y42.5683
G01 X80.7689 Y42.5936
G01 X80.7704 Y42.6225
G01 X80.7705 Y42.9528
G01 X80.8274 Y43.0666
G01 X80.9370 Y43.1215
G01 X81.0466 Y43.0666
G01 X81.1035 Y42.9528
G01 X81.1035 Y42.5612
G01 X81.0014 Y42.3568
G01 X80.9900 Y42.3309
G01 X80.9809 Y42.3029
G01 X80.9745 Y42.2742
G01 X80.9712 Y42.2474
G01 X80.9703 Y42.2155
G01 X80.9729 Y42.1837
G01 X80.9777 Y42.1571
G01 X80.9856 Y42.1288
G01 X80.9963 Y42.1013
G01 X81.0096 Y42.0750
G01 X81.0254 Y42.0502
G01 X81.0436 Y42.0270
G01 X81.0640 Y42.0057
G01 X81.0863 Y41.9866
G01 X81.1104 Y41.9697
G01 X81.1339 Y41.9564
G01 X81.1654 Y41.9425
G01 X81.1911 Y41.9342
G01 X81.2222 Y41.9275
G01 X81.2491 Y41.9243
G01 X81.2785 Y41.9237
G01 X81.3079 Y41.9259
G01 X81.3369 Y41.9310
G01 X81.3652 Y41.9389
G01 X81.3927 Y41.9496
G01 X81.4190 Y41.9629
G01 X81.4418 Y41.9774
G01 X81.4688 Y41.9986
G01 X81.4883 Y42.0173
G01 X81.5082 Y42.0406
G01 X81.5243 Y42.0638
G01 X81.5388 Y42.0894
G01 X81.6726 Y42.3572
G01 X81.6834 Y42.3815
G01 X81.6919 Y42.4068
G01 X81.6990 Y42.4373
G01 X81.7025 Y42.4625
G01 X81.7038 Y42.4903
G01 X81.7038 Y43.0237
G01 X81.7025 Y43.0515
G01 X81.6984 Y43.0801
G01 X81.6916 Y43.1083
G01 X81.6834 Y43.1325
G01 X81.6726 Y43.1568
G01 X81.5377 Y43.4266
G01 X81.5241 Y43.4506
G01 X81.5097 Y43.4714
G01 X81.4936 Y43.4908
G01 X81.4726 Y43.5121
G01 X81.4495 Y43.5311
G01 X81.4286 Y43.5453
G01 X81.4056 Y43.5582
G01 X81.1379 Y43.6921
G01 X81.1125 Y43.7034
G01 X81.0850 Y43.7126
G01 X81.0590 Y43.7186
G01 X81.0291 Y43.7227
G01 X81.0037 Y43.7238
G01 X80.8703 Y43.7238
G01 X80.8425 Y43.7225
G01 X80.8173 Y43.7190
G01 X80.7857 Y43.7116
G01 X80.7615 Y43.7034
G01 X80.7361 Y43.6921
G01 X80.4694 Y43.5588
G01 X80.4464 Y43.5459
G01 X80.4226 Y43.5297
G01 X80.3998 Y43.5105
G01 X80.3819 Y43.4926
G01 X80.3657 Y43.4732
G01 X80.3493 Y43.4496
G01 X80.3352 Y43.4246
G01 X80.2019 Y43.1579
G01 X80.1906 Y43.1325
G01 X80.1812 Y43.1038
G01 X80.1754 Y43.0790
G01 X80.1718 Y43.0538
G01 X80.1702 Y43.0248
G01 X80.1702 Y42.6945
G01 X80.1133 Y42.5807
G01 X80.0037 Y42.5259
G01 X79.8940 Y42.5807
G01 X79.8371 Y42.6945
G01 X79.8371 Y42.9528
G01 X79.9393 Y43.1572
G01 X79.9506 Y43.1831
G01 X79.9598 Y43.2111
G01 X79.9662 Y43.2398
G01 X79.9695 Y43.2666
G01 X79.9703 Y43.2985
G01 X79.9681 Y43.3279
G01 X79.9635 Y43.3545
G01 X79.9542 Y43.3876
G01 X79.9444 Y43.4127
G01 X79.9311 Y43.4390
G01 X79.9152 Y43.4638
G01 X79.8971 Y43.4870
G01 X79.8767 Y43.5083
G01 X79.8543 Y43.5274
G01 X79.8302 Y43.5443
G01 X79.8067 Y43.5576
G01 X79.7753 Y43.5715
G01 X79.7496 Y43.5798
G01 X79.7184 Y43.5865
G01 X79.6916 Y43.5897
G01 X79.6622 Y43.5903
G01 X79.6328 Y43.5881
G01 X79.6038 Y43.5830
G01 X79.5754 Y43.5751
G01 X79.5502 Y43.5653
G01 X79.5196 Y43.5498
G01 X79.4969 Y43.5352
G01 X79.4737 Y43.5171
G01 X79.4524 Y43.4967
G01 X79.4332 Y43.4743
G01 X79.4163 Y43.4502
G01 X79.4019 Y43.4246
G01 X79.2686 Y43.1579
G01 X79.2565 Y43.1303
G01 X79.2484 Y43.1061
G01 X79.2420 Y43.0790
G01 X79.2382 Y43.0515
G01 X79.2369 Y43.0248
G01 X79.2369 Y42.6225
G01 X79.2382 Y42.5959
G01 X79.2416 Y42.5706
G01 X79.2491 Y42.5390
G00 Z2.0000
G00 X79.1543 Y42.5071
G01 F60.00
G01 Z-0.1001
G01 F60.00
G01 X79.1641 Y42.4786
G01 X79.1791 Y42.4447
G01 X79.3125 Y42.1781
G01 X79.3304 Y42.1460
G01 X79.3512 Y42.1156
G01 X79.3702 Y42.0926
G01 X79.3795 Y42.0824
G01 X79.4007 Y42.0614
G01 X79.4236 Y42.0421
G01 X79.4318 Y42.0358
G01 X79.4564 Y42.0189
G01 X79.4652 Y42.0136
G01 X79.4914 Y41.9991
G01 X79.7612 Y41.8643
G01 X79.7920 Y41.8508
G01 X79.8205 Y41.8410
G01 X79.8305 Y41.8380
G01 X79.8632 Y41.8304
G01 X79.8930 Y41.8261
G01 X79.9034 Y41.8250
G01 X79.9370 Y41.8235
G01 X80.0703 Y41.8235
G01 X80.1004 Y41.8248
G01 X80.1143 Y41.8261
G01 X80.1441 Y41.8304
G01 X80.1802 Y41.8389
G01 X80.2154 Y41.8508
G01 X80.2461 Y41.8643
G01 X80.5159 Y41.9991
G01 X80.5480 Y42.0171
G01 X80.5784 Y42.0379
G01 X80.6014 Y42.0568
G01 X80.6116 Y42.0661
G01 X80.6326 Y42.0874
G01 X80.6519 Y42.1102
G01 X80.6582 Y42.1184
G01 X80.6751 Y42.1431
G01 X80.6804 Y42.1519
G01 X80.6949 Y42.1781
G01 X80.8282 Y42.4447
G01 X80.8432 Y42.4786
G01 X80.8541 Y42.5105
G01 X80.8568 Y42.5205
G01 X80.8622 Y42.5431
G01 X80.8642 Y42.5533
G01 X80.8687 Y42.5866
G01 X80.8703 Y42.6167
G01 X80.8705 Y42.9292
G01 X80.9019 Y42.9921
G01 X80.9370 Y43.0096
G01 X80.9721 Y42.9921
G01 X81.0035 Y42.9292
G01 X81.0035 Y42.5848
G01 X80.9108 Y42.3993
G01 X80.8994 Y42.3735
G01 X80.8954 Y42.3632
G01 X80.8854 Y42.3329
G01 X80.8826 Y42.3222
G01 X80.8759 Y42.2910
G01 X80.8715 Y42.2557
G01 X80.8709 Y42.2447
G01 X80.8703 Y42.2201
G01 X80.8705 Y42.2091
G01 X80.8734 Y42.1736
G01 X80.8787 Y42.1422
G01 X80.8820 Y42.1278
G01 X80.8886 Y42.1042
G01 X80.8919 Y42.0937
G01 X80.9050 Y42.0605
G01 X80.9227 Y42.0255
G01 X80.9438 Y41.9924
G01 X80.9681 Y41.9615
G01 X80.9952 Y41.9331
G01 X81.0250 Y41.9076
G01 X81.0572 Y41.8850
G01 X81.0849 Y41.8692
G01 X81.0981 Y41.8627
G01 X81.1239 Y41.8513
G01 X81.1343 Y41.8475
G01 X81.1576 Y41.8399
G01 X81.1682 Y41.8368
G01 X81.1994 Y41.8299
G01 X81.2103 Y41.8282
G01 X81.2420 Y41.8245
G01 X81.2812 Y41.8237
G01 X81.3204 Y41.8267
G01 X81.3590 Y41.8335
G01 X81.3969 Y41.8441
G01 X81.4267 Y41.8555
G01 X81.4368 Y41.8598
G01 X81.4620 Y41.8726
G01 X81.4748 Y41.8799
G01 X81.5016 Y41.8972
G01 X81.5325 Y41.9214
G01 X81.5609 Y41.9485
G01 X81.5841 Y41.9755
G01 X81.5908 Y41.9843
G01 X81.6090 Y42.0105
G01 X81.6265 Y42.0415
G01 X81.7615 Y42.3114
G01 X81.7739 Y42.3389
G01 X81.7790 Y42.3518
G01 X81.7884 Y42.3805
G01 X81.7969 Y42.4166
G01 X81.8021 Y42.4533
G01 X81.8038 Y42.4869
G01 X81.8038 Y43.0271
G01 X81.8026 Y43.0538
G01 X81.8017 Y43.0642
G01 X81.7975 Y43.0940
G01 X81.7955 Y43.1043
G01 X81.7884 Y43.1335
G01 X81.7790 Y43.1622
G01 X81.7753 Y43.1719
G01 X81.7631 Y43.1995
G01 X81.6282 Y43.4693
G01 X81.6121 Y43.4984
G01 X81.6065 Y43.5071
G01 X81.5895 Y43.5317
G01 X81.5705 Y43.5548
G01 X81.5636 Y43.5625
G01 X81.5425 Y43.5836
G01 X81.5348 Y43.5905
G01 X81.5117 Y43.6095
G01 X81.4871 Y43.6265
G01 X81.4754 Y43.6338
G01 X81.4493 Y43.6482
G01 X81.1795 Y43.7831
G01 X81.1487 Y43.7966
G01 X81.1202 Y43.8063
G01 X81.1102 Y43.8093
G01 X81.0774 Y43.8169
G01 X81.0476 Y43.8213
G01 X81.0373 Y43.8224
G01 X81.0037 Y43.8238
G01 X80.8703 Y43.8238
G01 X80.8402 Y43.8226
G01 X80.8264 Y43.8213
G01 X80.7966 Y43.8169
G01 X80.7638 Y43.8093
G01 X80.7538 Y43.8063
G01 X80.7253 Y43.7966
G01 X80.6945 Y43.7831
G01 X80.4247 Y43.6482
G01 X80.3926 Y43.6303
G01 X80.3623 Y43.6095
G01 X80.3392 Y43.5905
G01 X80.3290 Y43.5812
G01 X80.3080 Y43.5600
G01 X80.2888 Y43.5371
G01 X80.2825 Y43.5289
G01 X80.2656 Y43.5043
G01 X80.2602 Y43.4954
G01 X80.2458 Y43.4693
G01 X80.1125 Y43.2026
G01 X80.0974 Y43.1687
G01 X80.0866 Y43.1369
G01 X80.0838 Y43.1268
G01 X80.0785 Y43.1043
G01 X80.0765 Y43.0940
G01 X80.0719 Y43.0607
G01 X80.0704 Y43.0306
G01 X80.0702 Y42.7181
G01 X80.0388 Y42.6552
G01 X80.0037 Y42.6377
G01 X79.9686 Y42.6552
G01 X79.9371 Y42.7181
G01 X79.9371 Y42.9292
G01 X80.0282 Y43.1114
G01 X80.0412 Y43.1405
G01 X80.0453 Y43.1508
G01 X80.0552 Y43.1811
G01 X80.0580 Y43.1918
G01 X80.0641 Y43.2194
G01 X80.0658 Y43.2303
G01 X80.0687 Y43.2546
G01 X80.0698 Y43.2693
G01 X80.0703 Y43.3012
G01 X80.0673 Y43.3404
G01 X80.0620 Y43.3718
G01 X80.0587 Y43.3862
G01 X80.0499 Y43.4169
G01 X80.0372 Y43.4501
G01 X80.0325 Y43.4601
G01 X80.0197 Y43.4853
G01 X80.0141 Y43.4948
G01 X80.0010 Y43.5155
G01 X79.9924 Y43.5275
G01 X79.9750 Y43.5497
G01 X79.9676 Y43.5579
G01 X79.9455 Y43.5809
G01 X79.9157 Y43.6064
G01 X79.8835 Y43.6290
G01 X79.8493 Y43.6482
G01 X79.8133 Y43.6640
G01 X79.7760 Y43.6762
G01 X79.7377 Y43.6848
G01 X79.7060 Y43.6888
G01 X79.6950 Y43.6897
G01 X79.6668 Y43.6903
G01 X79.6521 Y43.6899
G01 X79.6203 Y43.6873
G01 X79.5816 Y43.6805
G01 X79.5438 Y43.6699
G01 X79.5140 Y43.6585
G01 X79.5039 Y43.6542
G01 X79.4787 Y43.6414
G01 X79.4659 Y43.6341
G01 X79.4391 Y43.6169
G01 X79.4082 Y43.5926
G01 X79.3798 Y43.5655
G01 X79.3565 Y43.5385
G01 X79.3499 Y43.5297
G01 X79.3317 Y43.5035
G01 X79.3141 Y43.4725
G01 X79.1791 Y43.2026
G01 X79.1668 Y43.1751
G01 X79.1629 Y43.1654
G01 X79.1523 Y43.1335
G01 X79.1437 Y43.0974
G01 X79.1386 Y43.0607
G01 X79.1369 Y43.0271
G01 X79.1369 Y42.6202
G01 X79.1386 Y42.5866
G01 X79.1431 Y42.5533
G01 X79.1452 Y42.5431
G01 X79.1505 Y42.5205
G01 X79.1543 Y42.5071
G00 Z2.0000
G00 X79.1543 Y44.7738
G01 F60.00
G01 Z-0.1001
G01 F60.00
G01 X79.1641 Y44.7453
G01 X79.1776 Y44.7145
G01 X79.3140 Y44.4417
G01 X79.3304 Y44.4126
G01 X79.3491 Y44.3851
G01 X79.3702 Y44.3592
G01 X79.3795 Y44.3490
G01 X79.4007 Y44.3280
G01 X79.4290 Y44.3045
G01 X79.4593 Y44.2837
G01 X79.4853 Y44.2690
G01 X79.7581 Y44.1325
G01 X79.7855 Y44.1201
G01 X79.7985 Y44.1150
G01 X79.8271 Y44.1056
G01 X79.8632 Y44.0971
G01 X79.8999 Y44.0919
G01 X79.9370 Y44.0902
G01 X81.0071 Y44.0902
G01 X81.0407 Y44.0919
G01 X81.0706 Y44.0959
G01 X81.0843 Y44.0985
G01 X81.1135 Y44.1056
G01 X81.1487 Y44.1174
G01 X81.1795 Y44.1309
G01 X81.4523 Y44.2674
G01 X81.4814 Y44.2837
G01 X81.5061 Y44.3005
G01 X81.5171 Y44.3088
G01 X81.5425 Y44.3304
G01 X81.5660 Y44.3540
G01 X81.5852 Y44.3769
G01 X81.5935 Y44.3879
G01 X81.6121 Y44.4156
G01 X81.6282 Y44.4447
G01 X81.7631 Y44.7145
G01 X81.7753 Y44.7421
G01 X81.7790 Y44.7518
G01 X81.7884 Y44.7805
G01 X81.7955 Y44.8097
G01 X81.7975 Y44.8200
G01 X81.8017 Y44.8498
G01 X81.8026 Y44.8602
G01 X81.8038 Y44.8869
G01 X81.8038 Y45.4271
G01 X81.8021 Y45.4607
G01 X81.7981 Y45.4906
G01 X81.7955 Y45.5043
G01 X81.7884 Y45.5335
G01 X81.7766 Y45.5687
G01 X81.7631 Y45.5995
G01 X81.6282 Y45.8693
G01 X81.6109 Y45.9004
G01 X81.6049 Y45.9096
G01 X81.5864 Y45.9357
G01 X81.5609 Y45.9655
G01 X81.5325 Y45.9926
G01 X81.5075 Y46.0124
G01 X81.4986 Y46.0189
G01 X81.4685 Y46.0379
G01 X81.4401 Y46.0525
G01 X81.4267 Y46.0585
G01 X81.3969 Y46.0699
G01 X81.3590 Y46.0805
G01 X81.3277 Y46.0862
G01 X81.3131 Y46.0881
G01 X81.2812 Y46.0903
G01 X81.2493 Y46.0898
G01 X81.2346 Y46.0888
G01 X81.2030 Y46.0848
G01 X81.1647 Y46.0762
G01 X81.1273 Y46.0640
G01 X81.0981 Y46.0513
G01 X81.0849 Y46.0448
G01 X81.0635 Y46.0327
G01 X81.0541 Y46.0270
G01 X81.0279 Y46.0087
G01 X81.0193 Y46.0018
G01 X80.9952 Y45.9809
G01 X80.9730 Y45.9579
G01 X80.9634 Y45.9468
G01 X80.9438 Y45.9216
G01 X80.9227 Y45.8885
G01 X80.9050 Y45.8535
G01 X80.8932 Y45.8238
G01 X80.8886 Y45.8098
G01 X80.8802 Y45.7790
G01 X80.8744 Y45.7477
G01 X80.8729 Y45.7367
G01 X80.8705 Y45.7049
G01 X80.8703 Y45.6939
G01 X80.8712 Y45.6620
G01 X80.8759 Y45.6230
G01 X80.8844 Y45.5847
G01 X80.8954 Y45.5508
G01 X80.8994 Y45.5405
G01 X80.9125 Y45.5114
G01 X81.0035 Y45.3292
G01 X81.0035 Y44.9848
G01 X80.9721 Y44.9219
G01 X80.9092 Y44.8905
G01 X80.7984 Y44.8905
G01 X80.5953 Y45.9057
G01 X80.5864 Y45.9402
G01 X80.5758 Y45.9703
G01 X80.5717 Y45.9805
G01 X80.5597 Y46.0060
G01 X80.5546 Y46.0158
G01 X80.5382 Y46.0431
G01 X80.5320 Y46.0522
G01 X80.5128 Y46.0777
G01 X80.4864 Y46.1068
G01 X80.4573 Y46.1331
G01 X80.4258 Y46.1565
G01 X80.3922 Y46.1766
G01 X80.3567 Y46.1934
G01 X80.3197 Y46.2066
G01 X80.2853 Y46.2154
G01 X80.2744 Y46.2174
G01 X80.2429 Y46.2219
G01 X80.2073 Y46.2237
G01 X79.9335 Y46.2238
G01 X79.8999 Y46.2221
G01 X79.8701 Y46.2181
G01 X79.8564 Y46.2155
G01 X79.8271 Y46.2084
G01 X79.7920 Y46.1966
G01 X79.7612 Y46.1831
G01 X79.4883 Y46.0466
G01 X79.4593 Y46.0303
G01 X79.4346 Y46.0135
G01 X79.4236 Y46.0052
G01 X79.3982 Y45.9836
G01 X79.3747 Y45.9600
G01 X79.3555 Y45.9371
G01 X79.3472 Y45.9261
G01 X79.3286 Y45.8984
G01 X79.3125 Y45.8693
G01 X79.1776 Y45.5995
G01 X79.1654 Y45.5719
G01 X79.1617 Y45.5622
G01 X79.1523 Y45.5335
G01 X79.1452 Y45.5043
G01 X79.1431 Y45.4940
G01 X79.1390 Y45.4642
G01 X79.1381 Y45.4538
G01 X79.1369 Y45.4271
G01 X79.1369 Y44.8869
G01 X79.1386 Y44.8533
G01 X79.1431 Y44.8200
G01 X79.1452 Y44.8097
G01 X79.1505 Y44.7872
G01 X79.1543 Y44.7738
G00 Z2.0000
G00 X79.2491 Y44.8057
G01 F60.00
G01 Z-0.1001
G01 F60.00
G01 X79.2573 Y44.7815
G01 X79.2681 Y44.7572
G01 X79.4024 Y44.4884
G01 X79.4153 Y44.4654
G01 X79.4296 Y44.4445
G01 X79.4502 Y44.4198
G01 X79.4681 Y44.4019
G01 X79.4893 Y44.3843
G01 X79.5120 Y44.3687
G01 X79.5351 Y44.3558
G01 X79.8038 Y44.2214
G01 X79.8282 Y44.2106
G01 X79.8524 Y44.2024
G01 X79.8839 Y44.1950
G01 X79.9092 Y44.1915
G01 X79.9370 Y44.1902
G01 X81.0037 Y44.1902
G01 X81.0338 Y44.1918
G01 X81.0590 Y44.1954
G01 X81.0861 Y44.2017
G01 X81.1125 Y44.2106
G01 X81.1368 Y44.2214
G01 X81.4056 Y44.3558
G01 X81.4286 Y44.3687
G01 X81.4495 Y44.3829
G01 X81.4734 Y44.4027
G01 X81.4921 Y44.4214
G01 X81.5083 Y44.4408
G01 X81.5265 Y44.4674
G01 X81.5388 Y44.4894
G01 X81.6726 Y44.7572
G01 X81.6842 Y44.7837
G01 X81.6923 Y44.8079
G01 X81.6982 Y44.8327
G01 X81.7025 Y44.8625
G01 X81.7038 Y44.8892
G01 X81.7038 Y45.4248
G01 X81.7025 Y45.4515
G01 X81.6990 Y45.4767
G01 X81.6923 Y45.5061
G01 X81.6834 Y45.5325
G01 X81.6721 Y45.5579
G01 X81.5388 Y45.8246
G01 X81.5256 Y45.8481
G01 X81.5074 Y45.8743
G01 X81.4883 Y45.8967
G01 X81.4670 Y45.9171
G01 X81.4438 Y45.9352
G01 X81.4168 Y45.9522
G01 X81.3927 Y45.9644
G01 X81.3652 Y45.9751
G01 X81.3369 Y45.9830
G01 X81.3103 Y45.9877
G01 X81.2760 Y45.9904
G01 X81.2491 Y45.9897
G01 X81.2198 Y45.9862
G01 X81.1911 Y45.9798
G01 X81.1654 Y45.9715
G01 X81.1339 Y45.9576
G01 X81.1104 Y45.9443
G01 X81.0873 Y45.9282
G01 X81.0640 Y45.9083
G01 X81.0420 Y45.8851
G01 X81.0254 Y45.8638
G01 X81.0109 Y45.8411
G01 X80.9973 Y45.8149
G01 X80.9856 Y45.7852
G01 X80.9777 Y45.7569
G01 X80.9726 Y45.7279
G01 X80.9703 Y45.6961
G01 X80.9710 Y45.6691
G01 X80.9745 Y45.6398
G01 X80.9809 Y45.6111
G01 X80.9900 Y45.5831
G01 X81.0019 Y45.5561
G01 X81.1035 Y45.3528
G01 X81.1035 Y44.9612
G01 X81.0466 Y44.8474
G01 X80.9328 Y44.7905
G01 X80.7164 Y44.7905
G01 X80.4977 Y45.8837
G01 X80.4908 Y45.9111
G01 X80.4808 Y45.9388
G01 X80.4682 Y45.9654
G01 X80.4531 Y45.9906
G01 X80.4355 Y46.0142
G01 X80.4158 Y46.0360
G01 X80.3939 Y46.0558
G01 X80.3703 Y46.0733
G01 X80.3450 Y46.0884
G01 X80.3184 Y46.1010
G01 X80.2907 Y46.1109
G01 X80.2622 Y46.1180
G01 X80.2331 Y46.1223
G01 X80.2049 Y46.1238
G01 X79.9358 Y46.1238
G01 X79.9092 Y46.1225
G01 X79.8839 Y46.1190
G01 X79.8546 Y46.1123
G01 X79.8282 Y46.1034
G01 X79.8038 Y46.0926
G01 X79.5351 Y45.9582
G01 X79.5120 Y45.9453
G01 X79.4912 Y45.9311
G01 X79.4672 Y45.9113
G01 X79.4486 Y45.8926
G01 X79.4324 Y45.8732
G01 X79.4142 Y45.8466
G01 X79.4019 Y45.8246
G01 X79.2681 Y45.5568
G01 X79.2565 Y45.5303
G01 X79.2484 Y45.5061
G01 X79.2425 Y45.4813
G01 X79.2382 Y45.4515
G01 X79.2369 Y45.4248
G01 X79.2369 Y44.8892
G01 X79.2382 Y44.8625
G01 X79.2416 Y44.8373
G01 X79.2491 Y44.8057
G00 Z2.0000
G00 X79.9371 Y45.1161
G01 F60.00
G01 Z-0.1001
G01 F60.00
G01 X79.9371 Y44.9848
G01 X79.9686 Y44.9219
G01 X79.9768 Y44.9178
G01 X79.9371 Y45.1161
G00 Z2.0000
G00 X79.9622 Y45.5007
G01 F60.00
G01 Z-0.1001
G01 F60.00
G01 X79.8940 Y45.4666
G01 X79.8371 Y45.3528
G01 X79.8371 Y44.9612
G01 X79.8940 Y44.8474
G01 X80.0078 Y44.7905
G01 X80.1042 Y44.7905
G01 X79.9622 Y45.5007
G00 Z2.0000
G00 X79.2491 Y47.4724
G01 F60.00
G01 Z-0.1001
G01 F60.00
G01 X79.2573 Y47.4482
G01 X79.2681 Y47.4238
G01 X79.3506 Y47.2587
G01 X79.3447 Y47.2541
G01 X79.3231 Y47.2341
G01 X79.3050 Y47.2141
G01 X79.2875 Y47.1904
G01 X79.2712 Y47.1630
G01 X79.2597 Y47.1385
G01 X79.2498 Y47.1108
G01 X79.2426 Y47.0822
G01 X79.2386 Y47.0555
G01 X79.2369 Y47.0237
G01 X79.2386 Y46.9918
G01 X79.2426 Y46.9651
G01 X79.2498 Y46.9365
G01 X79.2607 Y46.9066
G01 X79.2723 Y46.8822
G01 X79.2861 Y46.8590
G01 X79.3050 Y46.8333
G01 X79.3266 Y46.8098
G01 X79.3466 Y46.7917
G01 X79.3683 Y46.7755
G01 X79.3955 Y46.7590
G01 X79.4221 Y46.7464
G01 X79.4475 Y46.7372
G01 X79.4784 Y46.7293
G01 X79.5076 Y46.7250
G01 X79.5370 Y46.7235
G01 X81.4037 Y46.7235
G01 X81.4331 Y46.7250
G01 X81.4622 Y46.7293
G01 X81.4884 Y46.7358
G01 X81.5208 Y46.7474
G01 X81.5451 Y46.7590
G01 X81.5704 Y46.7741
G01 X81.5941 Y46.7917
G01 X81.6141 Y46.8098
G01 X81.6372 Y46.8352
G01 X81.6532 Y46.8569
G01 X81.6684 Y46.8822
G01 X81.6809 Y46.9088
G01 X81.6901 Y46.9342
G01 X81.6980 Y46.9651
G01 X81.7023 Y46.9942
G01 X81.7038 Y47.0237
G01 X81.7023 Y47.0531
G01 X81.6980 Y47.0822
G01 X81.6909 Y47.1108
G01 X81.6809 Y47.1385
G01 X81.6684 Y47.1651
G01 X81.6545 Y47.1883
G01 X81.6357 Y47.2141
G01 X81.6159 Y47.2359
G01 X81.5941 Y47.2557
G01 X81.5724 Y47.2718
G01 X81.5430 Y47.2895
G01 X81.5185 Y47.3009
G01 X81.4884 Y47.3115
G01 X81.4622 Y47.3180
G01 X81.4355 Y47.3220
G01 X81.4037 Y47.3238
G01 X80.1412 Y47.3238
G01 X79.9814 Y47.4037
G01 X79.9170 Y47.4681
G01 X79.8371 Y47.6278
G01 X79.8371 Y47.8237
G01 X79.8357 Y47.8531
G01 X79.8314 Y47.8822
G01 X79.8242 Y47.9108
G01 X79.8143 Y47.9385
G01 X79.8017 Y47.9651
G01 X79.7865 Y47.9904
G01 X79.7674 Y48.0159
G01 X79.7474 Y48.0376
G01 X79.7274 Y48.0557
G01 X79.7057 Y48.0718
G01 X79.6785 Y48.0884
G01 X79.6519 Y48.1009
G01 X79.6241 Y48.1109
G01 X79.5956 Y48.1180
G01 X79.5664 Y48.1223
G01 X79.5395 Y48.1237
G01 X79.5051 Y48.1220
G01 X79.4784 Y48.1180
G01 X79.4499 Y48.1109
G01 X79.4221 Y48.1009
G01 X79.3977 Y48.0895
G01 X79.3683 Y48.0718
G01 X79.3466 Y48.0557
G01 X79.3248 Y48.0359
G01 X79.3050 Y48.0141
G01 X79.2889 Y47.9924
G01 X79.2723 Y47.9651
G01 X79.2597 Y47.9385
G01 X79.2491 Y47.9084
G01 X79.2426 Y47.8822
G01 X79.2386 Y47.8555
G01 X79.2369 Y47.8261
G01 X79.2369 Y47.5558
G01 X79.2382 Y47.5292
G01 X79.2416 Y47.5039
G01 X79.2491 Y47.4724
G00 Z2.0000
G00 X79.1543 Y47.4405
G01 F60.00
G01 Z-0.1001
G01 F60.00
G01 X79.1641 Y47.4120
G01 X79.1776 Y47.3812
G01 X79.2288 Y47.2788
G01 X79.2085 Y47.2520
G01 X79.2004 Y47.2397
G01 X79.1841 Y47.2123
G01 X79.1703 Y47.1835
G01 X79.1647 Y47.1699
G01 X79.1541 Y47.1398
G01 X79.1462 Y47.1089
G01 X79.1433 Y47.0945
G01 X79.1388 Y47.0629
G01 X79.1371 Y47.0310
G01 X79.1371 Y47.0163
G01 X79.1388 Y46.9844
G01 X79.1433 Y46.9529
G01 X79.1462 Y46.9384
G01 X79.1541 Y46.9075
G01 X79.1660 Y46.8740
G01 X79.1703 Y46.8638
G01 X79.1841 Y46.8350
G01 X79.2004 Y46.8076
G01 X79.2085 Y46.7954
G01 X79.2277 Y46.7698
G01 X79.2490 Y46.7461
G01 X79.2594 Y46.7357
G01 X79.2832 Y46.7144
G01 X79.3147 Y46.6910
G01 X79.3420 Y46.6744
G01 X79.3550 Y46.6675
G01 X79.3839 Y46.6540
G01 X79.4139 Y46.6431
G01 X79.4279 Y46.6388
G01 X79.4589 Y46.6312
G01 X79.4978 Y46.6255
G01 X79.5370 Y46.6235
G01 X81.4037 Y46.6235
G01 X81.4355 Y46.6249
G01 X81.4465 Y46.6259
G01 X81.4817 Y46.6312
G01 X81.5163 Y46.6397
G01 X81.5268 Y46.6431
G01 X81.5499 Y46.6514
G01 X81.5635 Y46.6570
G01 X81.5923 Y46.6708
G01 X81.6260 Y46.6910
G01 X81.6575 Y46.7144
G01 X81.6813 Y46.7357
G01 X81.6917 Y46.7461
G01 X81.7106 Y46.7670
G01 X81.7175 Y46.7756
G01 X81.7364 Y46.8014
G01 X81.7565 Y46.8350
G01 X81.7733 Y46.8705
G01 X81.7843 Y46.9005
G01 X81.7885 Y46.9146
G01 X81.7961 Y46.9456
G01 X81.8019 Y46.9844
G01 X81.8038 Y47.0237
G01 X81.8019 Y47.0629
G01 X81.7961 Y47.1017
G01 X81.7866 Y47.1398
G01 X81.7733 Y47.1768
G01 X81.7565 Y47.2123
G01 X81.7403 Y47.2397
G01 X81.7343 Y47.2490
G01 X81.7153 Y47.2746
G01 X81.7082 Y47.2831
G01 X81.6917 Y47.3013
G01 X81.6813 Y47.3117
G01 X81.6603 Y47.3306
G01 X81.6517 Y47.3375
G01 X81.6260 Y47.3564
G01 X81.5923 Y47.3765
G01 X81.5568 Y47.3933
G01 X81.5198 Y47.4066
G01 X81.4889 Y47.4145
G01 X81.4745 Y47.4174
G01 X81.4429 Y47.4219
G01 X81.4073 Y47.4237
G01 X80.1648 Y47.4238
G01 X80.0407 Y47.4858
G01 X79.9992 Y47.5274
G01 X79.9371 Y47.6515
G01 X79.9371 Y47.8273
G01 X79.9355 Y47.8592
G01 X79.9343 Y47.8702
G01 X79.9307 Y47.8945
G01 X79.9287 Y47.9053
G01 X79.9219 Y47.9327
G01 X79.9188 Y47.9433
G01 X79.9093 Y47.9699
G01 X79.9052 Y47.9802
G01 X79.8916 Y48.0090
G01 X79.8862 Y48.0187
G01 X79.8717 Y48.0429
G01 X79.8655 Y48.0520
G01 X79.8463 Y48.0775
G01 X79.8250 Y48.1013
G01 X79.8173 Y48.1092
G01 X79.7937 Y48.1306
G01 X79.7850 Y48.1375
G01 X79.7653 Y48.1521
G01 X79.7531 Y48.1603
G01 X79.7256 Y48.1765
G01 X79.6901 Y48.1933
G01 X79.6532 Y48.2066
G01 X79.6151 Y48.2161
G01 X79.5835 Y48.2210
G01 X79.5689 Y48.2224
G01 X79.5370 Y48.2238
G01 X79.4978 Y48.2219
G01 X79.4589 Y48.2161
G01 X79.4279 Y48.2085
G01 X79.4139 Y48.2043
G01 X79.3873 Y48.1947
G01 X79.3771 Y48.1904
G01 X79.3484 Y48.1765
G01 X79.3178 Y48.1584
G01 X79.3087 Y48.1521
G01 X79.2890 Y48.1375
G01 X79.2776 Y48.1282
G01 X79.2541 Y48.1066
G01 X79.2277 Y48.0775
G01 X79.2043 Y48.0460
G01 X79.1878 Y48.0187
G01 X79.1808 Y48.0057
G01 X79.1673 Y47.9768
G01 X79.1541 Y47.9398
G01 X79.1446 Y47.9017
G01 X79.1397 Y47.8702
G01 X79.1383 Y47.8555
G01 X79.1369 Y47.8237
G01 X79.1370 Y47.5500
G01 X79.1386 Y47.5199
G01 X79.1431 Y47.4866
G01 X79.1452 Y47.4764
G01 X79.1505 Y47.4538
G01 X79.1543 Y47.4405
G00 Z2.0000
G00 X78.9027 Y54.3466
G01 F60.00
G01 Z-0.1001
G01 F60.00
G01 X78.9078 Y54.3230
G01 X78.9106 Y54.3125
G01 X78.9191 Y54.2861
G01 X78.9228 Y54.2758
G01 X78.9369 Y54.2438
G01 X78.9519 Y54.2162
G01 X78.9575 Y54.2069
G01 X78.9775 Y54.1782
G01 X79.0024 Y54.1486
G01 X79.0300 Y54.1216
G01 X79.0543 Y54.1017
G01 X79.0630 Y54.0952
G01 X79.0924 Y54.0761
G01 X79.1266 Y54.0581
G01 X79.7782 Y53.7540
G01 X79.1266 Y53.4499
G01 X79.0955 Y53.4337
G01 X79.0862 Y53.4281
G01 X79.0601 Y53.4107
G01 X79.0355 Y53.3911
G01 X79.0247 Y53.3815
G01 X79.0024 Y53.3594
G01 X78.9820 Y53.3355
G01 X78.9753 Y53.3269
G01 X78.9575 Y53.3011
G01 X78.9519 Y53.2918
G01 X78.9369 Y53.2642
G01 X78.9215 Y53.2288
G01 X78.9096 Y53.1920
G01 X78.9013 Y53.1543
G01 X78.8967 Y53.1159
G01 X78.8958 Y53.0773
G01 X78.8986 Y53.0388
G01 X78.9037 Y53.0078
G01 X78.9069 Y52.9936
G01 X78.9142 Y52.9669
G01 X78.9177 Y52.9566
G01 X78.9290 Y52.9273
G01 X78.9428 Y52.8991
G01 X78.9480 Y52.8895
G01 X78.9646 Y52.8628
G01 X78.9709 Y52.8540
G01 X78.9855 Y52.8348
G01 X78.9949 Y52.8237
G01 X79.0164 Y52.8009
G01 X79.0453 Y52.7753
G01 X79.0766 Y52.7526
G01 X79.1099 Y52.7330
G01 X79.1450 Y52.7167
G01 X79.1745 Y52.7061
G01 X79.1884 Y52.7020
G01 X79.2189 Y52.6947
G01 X79.2500 Y52.6899
G01 X79.2608 Y52.6888
G01 X79.2921 Y52.6873
G01 X81.2958 Y52.6872
G01 X81.3313 Y52.6888
G01 X81.3423 Y52.6900
G01 X81.3738 Y52.6949
G01 X81.4048 Y52.7025
G01 X81.4189 Y52.7067
G01 X81.4489 Y52.7177
G01 X81.4778 Y52.7311
G01 X81.4908 Y52.7381
G01 X81.5181 Y52.7546
G01 X81.5496 Y52.7780
G01 X81.5734 Y52.7993
G01 X81.5838 Y52.8097
G01 X81.6051 Y52.8335
G01 X81.6242 Y52.8590
G01 X81.6324 Y52.8713
G01 X81.6486 Y52.8987
G01 X81.6654 Y52.9342
G01 X81.6763 Y52.9642
G01 X81.6806 Y52.9783
G01 X81.6874 Y53.0057
G01 X81.6895 Y53.0165
G01 X81.6940 Y53.0481
G01 X81.6959 Y53.0873
G01 X81.6940 Y53.1266
G01 X81.6895 Y53.1581
G01 X81.6874 Y53.1690
G01 X81.6806 Y53.1964
G01 X81.6763 Y53.2105
G01 X81.6654 Y53.2405
G01 X81.6486 Y53.2760
G01 X81.6285 Y53.3096
G01 X81.6096 Y53.3354
G01 X81.6003 Y53.3467
G01 X81.5838 Y53.3649
G01 X81.5761 Y53.3728
G01 X81.5496 Y53.3966
G01 X81.5241 Y53.4158
G01 X81.5118 Y53.4240
G01 X81.4844 Y53.4402
G01 X81.4489 Y53.4570
G01 X81.4189 Y53.4679
G01 X81.4048 Y53.4722
G01 X81.3738 Y53.4798
G01 X81.3350 Y53.4855
G01 X81.2994 Y53.4874
G01 X81.0227 Y53.4875
G01 X81.0450 Y53.5147
G01 X81.0670 Y53.5474
G01 X81.0857 Y53.5822
G01 X81.1009 Y53.6186
G01 X81.1124 Y53.6563
G01 X81.1201 Y53.6950
G01 X81.1240 Y53.7343
G01 X81.1242 Y53.7663
G01 X81.1234 Y53.7811
G01 X81.1206 Y53.8093
G01 X81.1188 Y53.8203
G01 X81.1140 Y53.8444
G01 X81.1114 Y53.8552
G01 X81.1032 Y53.8824
G01 X81.0996 Y53.8929
G01 X81.0857 Y53.9258
G01 X81.0670 Y53.9606
G01 X81.0450 Y53.9933
G01 X81.0227 Y54.0205
G01 X81.2958 Y54.0205
G01 X81.3313 Y54.0222
G01 X81.3423 Y54.0234
G01 X81.3666 Y54.0270
G01 X81.3810 Y54.0298
G01 X81.4119 Y54.0378
G01 X81.4455 Y54.0496
G01 X81.4556 Y54.0540
G01 X81.4844 Y54.0678
G01 X81.5181 Y54.0880
G01 X81.5496 Y54.1114
G01 X81.5787 Y54.1377
G01 X81.6051 Y54.1668
G01 X81.6285 Y54.1984
G01 X81.6486 Y54.2320
G01 X81.6624 Y54.2608
G01 X81.6681 Y54.2744
G01 X81.6787 Y54.3045
G01 X81.6882 Y54.3426
G01 X81.6940 Y54.3814
G01 X81.6959 Y54.4207
G01 X81.6940 Y54.4599
G01 X81.6882 Y54.4987
G01 X81.6787 Y54.5368
G01 X81.6681 Y54.5669
G01 X81.6640 Y54.5772
G01 X81.6503 Y54.6060
G01 X81.6450 Y54.6157
G01 X81.6324 Y54.6367
G01 X81.6242 Y54.6490
G01 X81.6074 Y54.6716
G01 X81.6003 Y54.6801
G01 X81.5787 Y54.7036
G01 X81.5496 Y54.7300
G01 X81.5181 Y54.7534
G01 X81.4844 Y54.7735
G01 X81.4489 Y54.7903
G01 X81.4189 Y54.8013
G01 X81.4048 Y54.8055
G01 X81.3738 Y54.8131
G01 X81.3423 Y54.8180
G01 X81.3313 Y54.8192
G01 X81.2994 Y54.8207
G01 X79.2958 Y54.8208
G01 X79.2572 Y54.8189
G01 X79.2225 Y54.8140
G01 X79.2119 Y54.8118
G01 X79.1814 Y54.8041
G01 X79.1450 Y54.7913
G01 X79.1099 Y54.7750
G01 X79.0766 Y54.7554
G01 X79.0453 Y54.7327
G01 X79.0164 Y54.7071
G01 X78.9901 Y54.6788
G01 X78.9666 Y54.6482
G01 X78.9462 Y54.6153
G01 X78.9290 Y54.5807
G01 X78.9153 Y54.5446
G01 X78.9051 Y54.5073
G01 X78.8986 Y54.4692
G01 X78.8958 Y54.4307
G01 X78.8967 Y54.3921
G01 X78.9002 Y54.3609
G01 X78.9027 Y54.3466
G00 Z2.0000
G00 X79.0003 Y54.3681
G01 F60.00
G01 Z-0.1001
G01 F60.00
G01 X79.0061 Y54.3421
G01 X79.0159 Y54.3123
G01 X79.0277 Y54.2858
G01 X79.0406 Y54.2626
G01 X79.0556 Y54.2407
G01 X79.0757 Y54.2166
G01 X79.0964 Y54.1963
G01 X79.1190 Y54.1781
G01 X79.1432 Y54.1622
G01 X79.1688 Y54.1487
G01 X80.0146 Y53.7540
G01 X79.1678 Y53.3588
G01 X79.1432 Y53.3458
G01 X79.1190 Y53.3299
G01 X79.0964 Y53.3117
G01 X79.0757 Y53.2914
G01 X79.0570 Y53.2692
G01 X79.0394 Y53.2433
G01 X79.0255 Y53.2178
G01 X79.0150 Y53.1934
G01 X79.0068 Y53.1682
G01 X78.9999 Y53.1376
G01 X78.9964 Y53.1088
G01 X78.9957 Y53.0798
G01 X78.9982 Y53.0485
G01 X79.0028 Y53.0223
G01 X79.0097 Y52.9967
G01 X79.0198 Y52.9695
G01 X79.0336 Y52.9413
G01 X79.0489 Y52.9167
G01 X79.0665 Y52.8937
G01 X79.0880 Y52.8708
G01 X79.1079 Y52.8533
G01 X79.1294 Y52.8376
G01 X79.1553 Y52.8221
G01 X79.1827 Y52.8093
G01 X79.2123 Y52.7991
G01 X79.2381 Y52.7928
G01 X79.2644 Y52.7889
G01 X79.2946 Y52.7872
G01 X81.2958 Y52.7872
G01 X81.3227 Y52.7885
G01 X81.3543 Y52.7930
G01 X81.3852 Y52.8009
G01 X81.4106 Y52.8101
G01 X81.4350 Y52.8215
G01 X81.4625 Y52.8378
G01 X81.4862 Y52.8553
G01 X81.5097 Y52.8769
G01 X81.5278 Y52.8969
G01 X81.5439 Y52.9186
G01 X81.5599 Y52.9448
G01 X81.5730 Y52.9725
G01 X81.5830 Y53.0002
G01 X81.5901 Y53.0288
G01 X81.5944 Y53.0579
G01 X81.5959 Y53.0873
G01 X81.5944 Y53.1168
G01 X81.5901 Y53.1459
G01 X81.5830 Y53.1745
G01 X81.5730 Y53.2022
G01 X81.5604 Y53.2288
G01 X81.5453 Y53.2541
G01 X81.5278 Y53.2777
G01 X81.5080 Y53.2996
G01 X81.4862 Y53.3193
G01 X81.4625 Y53.3369
G01 X81.4350 Y53.3531
G01 X81.4106 Y53.3646
G01 X81.3852 Y53.3738
G01 X81.3567 Y53.3812
G01 X81.3252 Y53.3860
G01 X81.2982 Y53.3874
G01 X80.6486 Y53.3875
G01 X80.8513 Y53.4820
G01 X80.8763 Y53.4952
G01 X80.9040 Y53.5137
G01 X80.9250 Y53.5309
G01 X80.9443 Y53.5499
G01 X80.9649 Y53.5745
G01 X80.9814 Y53.5991
G01 X80.9954 Y53.6251
G01 X81.0068 Y53.6524
G01 X81.0154 Y53.6807
G01 X81.0212 Y53.7098
G01 X81.0241 Y53.7392
G01 X81.0242 Y53.7663
G01 X81.0212 Y53.7982
G01 X81.0154 Y53.8273
G01 X81.0068 Y53.8556
G01 X80.9954 Y53.8829
G01 X80.9814 Y53.9089
G01 X80.9649 Y53.9335
G01 X80.9460 Y53.9563
G01 X80.9259 Y53.9763
G01 X80.9001 Y53.9972
G01 X80.8774 Y54.0121
G01 X80.8535 Y54.0249
G01 X80.6486 Y54.1205
G01 X81.2958 Y54.1205
G01 X81.3240 Y54.1219
G01 X81.3543 Y54.1263
G01 X81.3852 Y54.1342
G01 X81.4106 Y54.1434
G01 X81.4350 Y54.1549
G01 X81.4635 Y54.1718
G01 X81.4880 Y54.1903
G01 X81.5080 Y54.2084
G01 X81.5262 Y54.2284
G01 X81.5453 Y54.2539
G01 X81.5616 Y54.2814
G01 X81.5730 Y54.3058
G01 X81.5822 Y54.3312
G01 X81.5901 Y54.3621
G01 X81.5946 Y54.3937
G01 X81.5959 Y54.4207
G01 X81.5946 Y54.4476
G01 X81.5901 Y54.4792
G01 X81.5822 Y54.5101
G01 X81.5730 Y54.5355
G01 X81.5616 Y54.5600
G01 X81.5453 Y54.5874
G01 X81.5278 Y54.6111
G01 X81.5062 Y54.6346
G01 X81.4862 Y54.6527
G01 X81.4645 Y54.6688
G01 X81.4383 Y54.6848
G01 X81.4106 Y54.6979
G01 X81.3805 Y54.7085
G01 X81.3543 Y54.7150
G01 X81.3276 Y54.7190
G01 X81.2970 Y54.7208
G01 X79.2958 Y54.7208
G01 X79.2656 Y54.7193
G01 X79.2381 Y54.7152
G01 X79.2100 Y54.7083
G01 X79.1827 Y54.6987
G01 X79.1543 Y54.6853
G01 X79.1294 Y54.6704
G01 X79.1079 Y54.6547
G01 X79.0880 Y54.6372
G01 X79.0665 Y54.6143
G01 X79.0503 Y54.5933
G01 X79.0336 Y54.5667
G01 X79.0207 Y54.5407
G01 X79.0104 Y54.5136
G01 X79.0028 Y54.4857
G01 X78.9979 Y54.4571
G01 X78.9957 Y54.4282
G01 X78.9964 Y54.3992
G01 X79.0003 Y54.3681
G00 Z2.0000
G00 X79.5798 Y55.4470
G01 F60.00
G01 Z-0.1001
G01 F60.00
G01 X79.5895 Y55.4185
G01 X79.6030 Y55.3877
G01 X79.6998 Y55.1941
G01 X79.7190 Y55.1599
G01 X79.7416 Y55.1277
G01 X79.7622 Y55.1034
G01 X79.7723 Y55.0927
G01 X79.7955 Y55.0708
G01 X79.8264 Y55.0465
G01 X79.8595 Y55.0254
G01 X79.8879 Y55.0109
G01 X79.9013 Y55.0049
G01 X79.9311 Y54.9935
G01 X79.9690 Y54.9829
G01 X80.0003 Y54.9772
G01 X80.0149 Y54.9753
G01 X80.0468 Y54.9731
G01 X80.0787 Y54.9736
G01 X80.0934 Y54.9746
G01 X80.1250 Y54.9786
G01 X80.1598 Y54.9862
G01 X80.1704 Y54.9893
G01 X80.1937 Y54.9969
G01 X80.2075 Y55.0021
G01 X80.2366 Y55.0152
G01 X80.2677 Y55.0325
G01 X80.2770 Y55.0385
G01 X80.2971 Y55.0526
G01 X80.3059 Y55.0592
G01 X80.3301 Y55.0800
G01 X80.3434 Y55.0933
G01 X80.3620 Y55.0751
G01 X80.3823 Y55.0582
G01 X80.3905 Y55.0519
G01 X80.4181 Y55.0331
G01 X80.4471 Y55.0167
G01 X80.6469 Y54.9170
G01 X80.6745 Y54.9049
G01 X80.7031 Y54.8951
G01 X80.7130 Y54.8922
G01 X80.7424 Y54.8852
G01 X80.7527 Y54.8834
G01 X80.7825 Y54.8794
G01 X80.8161 Y54.8777
G01 X81.0100 Y54.8777
G01 X81.0436 Y54.8791
G01 X81.0540 Y54.8802
G01 X81.0838 Y54.8845
G01 X81.1166 Y54.8922
G01 X81.1266 Y54.8951
G01 X81.1518 Y54.9037
G01 X81.1615 Y54.9076
G01 X81.1827 Y54.9170
G01 X81.3795 Y55.0152
G01 X81.4086 Y55.0313
G01 X81.4363 Y55.0499
G01 X81.4473 Y55.0582
G01 X81.4702 Y55.0774
G01 X81.4938 Y55.1009
G01 X81.5154 Y55.1263
G01 X81.5237 Y55.1373
G01 X81.5405 Y55.1620
G01 X81.5568 Y55.1910
G01 X81.6552 Y55.3877
G01 X81.6687 Y55.4185
G01 X81.6784 Y55.4470
G01 X81.6823 Y55.4604
G01 X81.6876 Y55.4829
G01 X81.6896 Y55.4932
G01 X81.6942 Y55.5265
G01 X81.6958 Y55.5600
G01 X81.6958 Y56.0432
G01 X81.6947 Y56.0698
G01 X81.6938 Y56.0802
G01 X81.6890 Y56.1135
G01 X81.6841 Y56.1350
G01 X81.6889 Y56.1557
G01 X81.6936 Y56.1873
G01 X81.6945 Y56.1983
G01 X81.6957 Y56.2228
G01 X81.6958 Y56.2339
G01 X81.6940 Y56.2694
G01 X81.6882 Y56.3083
G01 X81.6787 Y56.3463
G01 X81.6681 Y56.3764
G01 X81.6640 Y56.3867
G01 X81.6503 Y56.4155
G01 X81.6450 Y56.4252
G01 X81.6285 Y56.4525
G01 X81.6074 Y56.4812
G01 X81.6003 Y56.4896
G01 X81.5787 Y56.5131
G01 X81.5552 Y56.5347
G01 X81.5438 Y56.5440
G01 X81.5181 Y56.5629
G01 X81.4908 Y56.5794
G01 X81.4778 Y56.5864
G01 X81.4489 Y56.5999
G01 X81.4189 Y56.6108
G01 X81.4048 Y56.6151
G01 X81.3738 Y56.6226
G01 X81.3386 Y56.6280
G01 X81.3276 Y56.6289
G01 X81.2958 Y56.6303
G01 X80.2447 Y56.6303
G01 X80.2180 Y56.6291
G01 X80.2076 Y56.6282
G01 X80.1778 Y56.6241
G01 X80.1676 Y56.6220
G01 X80.1416 Y56.6158
G01 X80.1316 Y56.6129
G01 X80.1031 Y56.6031
G01 X80.0755 Y56.5910
G01 X79.8787 Y56.4928
G01 X79.8496 Y56.4767
G01 X79.8219 Y56.4581
G01 X79.8109 Y56.4498
G01 X79.7880 Y56.4306
G01 X79.7644 Y56.4071
G01 X79.7428 Y56.3817
G01 X79.7365 Y56.3735
G01 X79.7177 Y56.3460
G01 X79.7030 Y56.3200
G01 X79.6045 Y56.1234
G01 X79.5922 Y56.0959
G01 X79.5883 Y56.0863
G01 X79.5787 Y56.0577
G01 X79.5759 Y56.0476
G01 X79.5698 Y56.0217
G01 X79.5680 Y56.0114
G01 X79.5640 Y55.9815
G01 X79.5623 Y55.9480
G01 X79.5623 Y55.5600
G01 X79.5640 Y55.5265
G01 X79.5686 Y55.4932
G01 X79.5706 Y55.4829
G01 X79.5759 Y55.4604
G01 X79.5798 Y55.4470
G00 Z2.0000
G00 X79.6745 Y55.4789
G01 F60.00
G01 Z-0.1001
G01 F60.00
G01 X79.6827 Y55.4547
G01 X79.6935 Y55.4303
G01 X79.7892 Y55.2388
G01 X79.8037 Y55.2132
G01 X79.8198 Y55.1900
G01 X79.8415 Y55.1649
G01 X79.8610 Y55.1463
G01 X79.8842 Y55.1281
G01 X79.9090 Y55.1123
G01 X79.9331 Y55.1001
G01 X79.9628 Y55.0883
G01 X79.9911 Y55.0804
G01 X80.0201 Y55.0753
G01 X80.0495 Y55.0730
G01 X80.0789 Y55.0737
G01 X80.1082 Y55.0772
G01 X80.1369 Y55.0836
G01 X80.1649 Y55.0927
G01 X80.1919 Y55.1046
G01 X80.2176 Y55.1191
G01 X80.2417 Y55.1360
G01 X80.2640 Y55.1551
G01 X80.2844 Y55.1764
G01 X80.3026 Y55.1996
G01 X80.3184 Y55.2244
G01 X80.3317 Y55.2507
G01 X80.3418 Y55.2765
G01 X80.3612 Y55.2378
G01 X80.3729 Y55.2167
G01 X80.3897 Y55.1920
G01 X80.4073 Y55.1708
G01 X80.4252 Y55.1529
G01 X80.4490 Y55.1330
G01 X80.4708 Y55.1181
G01 X80.4949 Y55.1046
G01 X80.6864 Y55.0089
G01 X80.7108 Y54.9981
G01 X80.7349 Y54.9899
G01 X80.7665 Y54.9825
G01 X80.7918 Y54.9790
G01 X80.8173 Y54.9777
G01 X81.0124 Y54.9777
G01 X81.0401 Y54.9792
G01 X81.0654 Y54.9828
G01 X81.0902 Y54.9886
G01 X81.1188 Y54.9981
G01 X81.1422 Y55.0084
G01 X81.3347 Y55.1046
G01 X81.3578 Y55.1175
G01 X81.3834 Y55.1351
G01 X81.4028 Y55.1513
G01 X81.4215 Y55.1700
G01 X81.4412 Y55.1939
G01 X81.4555 Y55.2148
G01 X81.4684 Y55.2378
G01 X81.5647 Y55.4303
G01 X81.5755 Y55.4547
G01 X81.5840 Y55.4800
G01 X81.5911 Y55.5105
G01 X81.5946 Y55.5357
G01 X81.5959 Y55.5624
G01 X81.5959 Y56.0397
G01 X81.5946 Y56.0675
G01 X81.5909 Y56.0939
G01 X81.5847 Y56.1210
G01 X81.5801 Y56.1349
G01 X81.5833 Y56.1442
G01 X81.5903 Y56.1728
G01 X81.5944 Y56.2008
G01 X81.5959 Y56.2314
G01 X81.5944 Y56.2596
G01 X81.5901 Y56.2887
G01 X81.5830 Y56.3173
G01 X81.5726 Y56.3462
G01 X81.5604 Y56.3717
G01 X81.5466 Y56.3949
G01 X81.5278 Y56.4206
G01 X81.5062 Y56.4441
G01 X81.4862 Y56.4622
G01 X81.4645 Y56.4783
G01 X81.4372 Y56.4949
G01 X81.4083 Y56.5084
G01 X81.3829 Y56.5174
G01 X81.3567 Y56.5240
G01 X81.3252 Y56.5289
G01 X81.2958 Y56.5303
G01 X80.2470 Y56.5303
G01 X80.2204 Y56.5290
G01 X80.1905 Y56.5247
G01 X80.1657 Y56.5188
G01 X80.1415 Y56.5107
G01 X80.1160 Y56.4996
G01 X79.9234 Y56.4034
G01 X79.9004 Y56.3905
G01 X79.8748 Y56.3729
G01 X79.8554 Y56.3567
G01 X79.8367 Y56.3380
G01 X79.8169 Y56.3141
G01 X79.8027 Y56.2932
G01 X79.7898 Y56.2702
G01 X79.6940 Y56.0787
G01 X79.6836 Y56.0554
G01 X79.6738 Y56.0269
G01 X79.6674 Y55.9998
G01 X79.6636 Y55.9723
G01 X79.6623 Y55.9456
G01 X79.6623 Y55.5624
G01 X79.6636 Y55.5357
G01 X79.6671 Y55.5105
G01 X79.6745 Y55.4789
G00 Z2.0000
G00 X80.9956 Y55.9301
G01 F60.00
G01 Z-0.1001
G01 F60.00
G01 X80.8340 Y55.9301
G01 X80.8340 Y55.6344
G01 X80.8528 Y55.5967
G01 X80.8904 Y55.5779
G01 X80.9392 Y55.5779
G01 X80.9768 Y55.5967
G01 X80.9956 Y55.6344
G01 X80.9956 Y55.9301
G00 Z2.0000
G00 X80.3626 Y57.6396
G01 F60.00
G01 Z-0.1001
G01 F60.00
G01 X80.3626 Y57.5627
G01 X80.3865 Y57.5148
G01 X80.3899 Y57.5114
G01 X80.4378 Y57.4875
G01 X80.8204 Y57.4875
G01 X80.8683 Y57.5114
G01 X80.8717 Y57.5148
G01 X80.8956 Y57.5627
G01 X80.8956 Y57.6396
G01 X80.3626 Y57.6396
G00 Z2.0000
G00 X80.2626 Y57.7396
G01 F60.00
G01 Z-0.1001
G01 F60.00
G01 X80.2626 Y57.5391
G01 X80.3043 Y57.4556
G01 X80.3307 Y57.4292
G01 X80.4142 Y57.3875
G01 X80.8440 Y57.3875
G01 X80.9275 Y57.4292
G01 X80.9539 Y57.4556
G01 X80.9956 Y57.5391
G01 X80.9956 Y57.7396
G01 X80.2626 Y57.7396
G00 Z2.0000
G00 X79.2958 Y57.7396
G01 F60.00
G01 Z-0.1001
G01 F60.00
G01 X79.6623 Y57.7396
G01 X79.6623 Y57.4683
G01 X79.6634 Y57.4428
G01 X79.6674 Y57.4129
G01 X79.6733 Y57.3881
G01 X79.6836 Y57.3574
G01 X79.6940 Y57.3341
G01 X79.7898 Y57.1424
G01 X79.8051 Y57.1156
G01 X79.8231 Y57.0906
G01 X79.8454 Y57.0656
G01 X79.9426 Y56.9685
G01 X79.9668 Y56.9472
G01 X79.9907 Y56.9300
G01 X80.0163 Y56.9154
G01 X80.2092 Y56.8189
G01 X80.2335 Y56.8081
G01 X80.2632 Y56.7982
G01 X80.2880 Y56.7924
G01 X80.3133 Y56.7888
G01 X80.3434 Y56.7872
G01 X80.9148 Y56.7872
G01 X80.9426 Y56.7885
G01 X80.9690 Y56.7922
G01 X80.9994 Y56.7994
G01 X81.0236 Y56.8076
G01 X81.0469 Y56.8179
G01 X81.2395 Y56.9141
G01 X81.2652 Y56.9287
G01 X81.2697 Y56.9316
G01 X81.2936 Y56.9489
G01 X81.3156 Y56.9685
G01 X81.4137 Y57.0666
G01 X81.4342 Y57.0895
G01 X81.4523 Y57.1145
G01 X81.4690 Y57.1436
G01 X81.5647 Y57.3351
G01 X81.5755 Y57.3595
G01 X81.5849 Y57.3881
G01 X81.5907 Y57.4129
G01 X81.5943 Y57.4382
G01 X81.5959 Y57.4671
G01 X81.5959 Y57.8504
G01 X81.5946 Y57.8770
G01 X81.5909 Y57.9034
G01 X81.5847 Y57.9305
G01 X81.5801 Y57.9444
G01 X81.5833 Y57.9538
G01 X81.5899 Y57.9800
G01 X81.5945 Y58.0115
G01 X81.5958 Y58.0422
G01 X81.5944 Y58.0691
G01 X81.5905 Y58.0958
G01 X81.5822 Y58.1292
G01 X81.5730 Y58.1546
G01 X81.5604 Y58.1812
G01 X81.5453 Y58.2065
G01 X81.5293 Y58.2282
G01 X81.5062 Y58.2536
G01 X81.4862 Y58.2717
G01 X81.4625 Y58.2893
G01 X81.4372 Y58.3044
G01 X81.4129 Y58.3160
G01 X81.3805 Y58.3276
G01 X81.3543 Y58.3341
G01 X81.3252 Y58.3384
G01 X81.2958 Y58.3398
G01 X79.2958 Y58.3398
G01 X79.2663 Y58.3384
G01 X79.2396 Y58.3345
G01 X79.2086 Y58.3269
G01 X79.1809 Y58.3170
G01 X79.1543 Y58.3044
G01 X79.1311 Y58.2906
G01 X79.1054 Y58.2717
G01 X79.0853 Y58.2536
G01 X79.0623 Y58.2282
G01 X79.0462 Y58.2065
G01 X79.0311 Y58.1812
G01 X79.0185 Y58.1546
G01 X79.0086 Y58.1268
G01 X79.0014 Y58.0983
G01 X78.9971 Y58.0691
G01 X78.9956 Y58.0397
G01 X78.9971 Y58.0103
G01 X79.0014 Y57.9812
G01 X79.0086 Y57.9526
G01 X79.0185 Y57.9249
G01 X79.0300 Y57.9004
G01 X79.0476 Y57.8710
G01 X79.0638 Y57.8493
G01 X79.0853 Y57.8258
G01 X79.1054 Y57.8077
G01 X79.1290 Y57.7902
G01 X79.1543 Y57.7750
G01 X79.1809 Y57.7624
G01 X79.2086 Y57.7525
G01 X79.2372 Y57.7454
G01 X79.2663 Y57.7410
G01 X79.2958 Y57.7396
G00 Z2.0000
G00 X79.2958 Y57.6396
G01 F60.00
G01 Z-0.1001
G01 F60.00
G01 X79.5623 Y57.6396
G01 X79.5623 Y57.4683
G01 X79.5635 Y57.4382
G01 X79.5644 Y57.4278
G01 X79.5692 Y57.3945
G01 X79.5777 Y57.3584
G01 X79.5895 Y57.3233
G01 X79.6045 Y57.2893
G01 X79.7016 Y57.0953
G01 X79.7210 Y57.0616
G01 X79.7461 Y57.0268
G01 X79.7747 Y56.9949
G01 X79.8758 Y56.8941
G01 X79.8988 Y56.8735
G01 X79.9083 Y56.8661
G01 X79.9367 Y56.8459
G01 X79.9669 Y56.8285
G01 X80.1644 Y56.7295
G01 X80.1951 Y56.7157
G01 X80.2049 Y56.7120
G01 X80.2269 Y56.7047
G01 X80.2369 Y56.7017
G01 X80.2696 Y56.6941
G01 X80.2994 Y56.6897
G01 X80.3133 Y56.6884
G01 X80.3434 Y56.6872
G01 X80.9148 Y56.6872
G01 X80.9519 Y56.6889
G01 X80.9817 Y56.6929
G01 X80.9920 Y56.6948
G01 X81.0213 Y56.7017
G01 X81.0313 Y56.7047
G01 X81.0598 Y56.7144
G01 X81.0875 Y56.7265
G01 X81.2842 Y56.8247
G01 X81.3146 Y56.8417
G01 X81.3282 Y56.8504
G01 X81.3563 Y56.8710
G01 X81.3824 Y56.8941
G01 X81.4863 Y56.9978
G01 X81.5121 Y57.0268
G01 X81.5350 Y57.0582
G01 X81.5414 Y57.0685
G01 X81.5584 Y57.0989
G01 X81.6536 Y57.2893
G01 X81.6687 Y57.3233
G01 X81.6784 Y57.3518
G01 X81.6823 Y57.3651
G01 X81.6890 Y57.3945
G01 X81.6934 Y57.4243
G01 X81.6944 Y57.4347
G01 X81.6957 Y57.4613
G01 X81.6958 Y57.8527
G01 X81.6947 Y57.8794
G01 X81.6938 Y57.8897
G01 X81.6890 Y57.9230
G01 X81.6841 Y57.9446
G01 X81.6889 Y57.9653
G01 X81.6936 Y57.9968
G01 X81.6945 Y58.0078
G01 X81.6959 Y58.0397
G01 X81.6940 Y58.0789
G01 X81.6882 Y58.1178
G01 X81.6806 Y58.1488
G01 X81.6763 Y58.1629
G01 X81.6654 Y58.1928
G01 X81.6486 Y58.2283
G01 X81.6285 Y58.2620
G01 X81.6096 Y58.2877
G01 X81.6027 Y58.2964
G01 X81.5838 Y58.3173
G01 X81.5734 Y58.3277
G01 X81.5496 Y58.3490
G01 X81.5181 Y58.3724
G01 X81.4844 Y58.3926
G01 X81.4556 Y58.4064
G01 X81.4420 Y58.4120
G01 X81.4189 Y58.4203
G01 X81.4084 Y58.4236
G01 X81.3738 Y58.4322
G01 X81.3386 Y58.4375
G01 X81.3276 Y58.4385
G01 X81.2958 Y58.4398
G01 X79.2958 Y58.4398
G01 X79.2565 Y58.4379
G01 X79.2177 Y58.4322
G01 X79.1796 Y58.4226
G01 X79.1426 Y58.4094
G01 X79.1071 Y58.3926
G01 X79.0735 Y58.3724
G01 X79.0419 Y58.3490
G01 X79.0128 Y58.3226
G01 X78.9865 Y58.2936
G01 X78.9673 Y58.2680
G01 X78.9611 Y58.2589
G01 X78.9465 Y58.2347
G01 X78.9396 Y58.2218
G01 X78.9291 Y58.1996
G01 X78.9247 Y58.1894
G01 X78.9140 Y58.1594
G01 X78.9109 Y58.1488
G01 X78.9033 Y58.1178
G01 X78.8976 Y58.0789
G01 X78.8956 Y58.0397
G01 X78.8976 Y58.0005
G01 X78.9033 Y57.9617
G01 X78.9129 Y57.9236
G01 X78.9261 Y57.8866
G01 X78.9396 Y57.8577
G01 X78.9465 Y57.8447
G01 X78.9611 Y57.8205
G01 X78.9673 Y57.8114
G01 X78.9819 Y57.7917
G01 X78.9888 Y57.7831
G01 X79.0103 Y57.7594
G01 X79.0182 Y57.7517
G01 X79.0419 Y57.7304
G01 X79.0735 Y57.7070
G01 X79.1071 Y57.6868
G01 X79.1426 Y57.6700
G01 X79.1796 Y57.6568
G01 X79.2177 Y57.6473
G01 X79.2565 Y57.6415
G01 X79.2958 Y57.6396
G00 Z2.0000
G00 X79.5798 Y59.0661
G01 F60.00
G01 Z-0.1001
G01 F60.00
G01 X79.5895 Y59.0375
G01 X79.6030 Y59.0068
G01 X79.7014 Y58.8101
G01 X79.7177 Y58.7811
G01 X79.7345 Y58.7563
G01 X79.7428 Y58.7453
G01 X79.7644 Y58.7199
G01 X79.7880 Y58.6965
G01 X79.8109 Y58.6772
G01 X79.8219 Y58.6689
G01 X79.8496 Y58.6504
G01 X79.8787 Y58.6342
G01 X80.0692 Y58.5390
G01 X80.0967 Y58.5266
G01 X80.1064 Y58.5227
G01 X80.1383 Y58.5121
G01 X80.1744 Y58.5036
G01 X80.2111 Y58.4985
G01 X80.2481 Y58.4967
G01 X81.0135 Y58.4968
G01 X81.0471 Y58.4985
G01 X81.0770 Y58.5025
G01 X81.0906 Y58.5050
G01 X81.1199 Y58.5121
G01 X81.1551 Y58.5239
G01 X81.1859 Y58.5375
G01 X81.3825 Y58.6358
G01 X81.4116 Y58.6522
G01 X81.4363 Y58.6689
G01 X81.4473 Y58.6772
G01 X81.4702 Y58.6965
G01 X81.4962 Y58.7225
G01 X81.5154 Y58.7453
G01 X81.5237 Y58.7563
G01 X81.5423 Y58.7840
G01 X81.5584 Y58.8132
G01 X81.6552 Y59.0068
G01 X81.6660 Y59.0311
G01 X81.6699 Y59.0408
G01 X81.6795 Y59.0694
G01 X81.6823 Y59.0794
G01 X81.6890 Y59.1088
G01 X81.6934 Y59.1386
G01 X81.6944 Y59.1490
G01 X81.6957 Y59.1756
G01 X81.6958 Y59.5670
G01 X81.6942 Y59.6006
G01 X81.6901 Y59.6304
G01 X81.6876 Y59.6441
G01 X81.6805 Y59.6734
G01 X81.6687 Y59.7086
G01 X81.6552 Y59.7393
G01 X81.5584 Y59.9329
G01 X81.5391 Y59.9672
G01 X81.5166 Y59.9993
G01 X81.4960 Y60.0237
G01 X81.4859 Y60.0343
G01 X81.4627 Y60.0563
G01 X81.4318 Y60.0805
G01 X81.4050 Y60.0978
G01 X81.3922 Y60.1051
G01 X81.3637 Y60.1194
G01 X81.3305 Y60.1324
G01 X81.3200 Y60.1357
G01 X81.2892 Y60.1442
G01 X81.2542 Y60.1505
G01 X81.2432 Y60.1517
G01 X81.2151 Y60.1538
G01 X81.2041 Y60.1540
G01 X81.1795 Y60.1535
G01 X81.1685 Y60.1528
G01 X81.1405 Y60.1495
G01 X81.1259 Y60.1470
G01 X81.1020 Y60.1417
G01 X81.0913 Y60.1389
G01 X81.0610 Y60.1290
G01 X81.0507 Y60.1249
G01 X81.0282 Y60.1150
G01 X81.0183 Y60.1102
G01 X80.9937 Y60.0964
G01 X80.9843 Y60.0906
G01 X80.9552 Y60.0701
G01 X80.9309 Y60.0495
G01 X80.9228 Y60.0420
G01 X80.8982 Y60.0162
G01 X80.8740 Y59.9853
G01 X80.8529 Y59.9522
G01 X80.8383 Y59.9238
G01 X80.8337 Y59.9139
G01 X80.8302 Y59.9313
G01 X80.8214 Y59.9658
G01 X80.8108 Y59.9958
G01 X80.8067 Y60.0061
G01 X80.7913 Y60.0381
G01 X80.7751 Y60.0656
G01 X80.7691 Y60.0748
G01 X80.7500 Y60.1004
G01 X80.7429 Y60.1089
G01 X80.7214 Y60.1323
G01 X80.6979 Y60.1539
G01 X80.6894 Y60.1610
G01 X80.6638 Y60.1800
G01 X80.6546 Y60.1860
G01 X80.6271 Y60.2022
G01 X80.5984 Y60.2160
G01 X80.5882 Y60.2203
G01 X80.5582 Y60.2311
G01 X80.5476 Y60.2341
G01 X80.5202 Y60.2409
G01 X80.5094 Y60.2429
G01 X80.4815 Y60.2470
G01 X80.4705 Y60.2480
G01 X80.4460 Y60.2492
G01 X80.2481 Y60.2494
G01 X80.2180 Y60.2481
G01 X80.2042 Y60.2468
G01 X80.1744 Y60.2425
G01 X80.1383 Y60.2340
G01 X80.1031 Y60.2222
G01 X80.0723 Y60.2086
G01 X79.8757 Y60.1103
G01 X79.8466 Y60.0939
G01 X79.8219 Y60.0772
G01 X79.8109 Y60.0689
G01 X79.7880 Y60.0496
G01 X79.7620 Y60.0236
G01 X79.7428 Y60.0008
G01 X79.7345 Y59.9898
G01 X79.7159 Y59.9621
G01 X79.6998 Y59.9329
G01 X79.6030 Y59.7393
G01 X79.5922 Y59.7150
G01 X79.5883 Y59.7053
G01 X79.5787 Y59.6767
G01 X79.5759 Y59.6667
G01 X79.5692 Y59.6373
G01 X79.5648 Y59.6075
G01 X79.5637 Y59.5971
G01 X79.5623 Y59.5670
G01 X79.5623 Y59.1791
G01 X79.5640 Y59.1455
G01 X79.5686 Y59.1122
G01 X79.5706 Y59.1020
G01 X79.5759 Y59.0794
G01 X79.5798 Y59.0661
G00 Z2.0000
G00 X79.6745 Y59.0979
G01 F60.00
G01 Z-0.1001
G01 F60.00
G01 X79.6827 Y59.0738
G01 X79.6935 Y59.0494
G01 X79.7898 Y58.8569
G01 X79.8027 Y58.8338
G01 X79.8169 Y58.8129
G01 X79.8367 Y58.7890
G01 X79.8554 Y58.7703
G01 X79.8748 Y58.7541
G01 X79.9013 Y58.7359
G01 X79.9234 Y58.7237
G01 X80.1139 Y58.6284
G01 X80.1415 Y58.6164
G01 X80.1657 Y58.6083
G01 X80.1928 Y58.6019
G01 X80.2204 Y58.5980
G01 X80.2481 Y58.5967
G01 X81.0112 Y58.5967
G01 X81.0378 Y58.5980
G01 X81.0631 Y58.6015
G01 X81.0925 Y58.6083
G01 X81.1188 Y58.6171
G01 X81.1432 Y58.6279
G01 X81.3358 Y58.7242
G01 X81.3588 Y58.7371
G01 X81.3797 Y58.7514
G01 X81.4036 Y58.7711
G01 X81.4223 Y58.7899
G01 X81.4385 Y58.8093
G01 X81.4561 Y58.8348
G01 X81.4690 Y58.8579
G01 X81.5647 Y59.0494
G01 X81.5755 Y59.0738
G01 X81.5849 Y59.1024
G01 X81.5907 Y59.1272
G01 X81.5943 Y59.1525
G01 X81.5959 Y59.1814
G01 X81.5959 Y59.5647
G01 X81.5946 Y59.5913
G01 X81.5911 Y59.6166
G01 X81.5843 Y59.6459
G01 X81.5755 Y59.6723
G01 X81.5647 Y59.6967
G01 X81.4690 Y59.8882
G01 X81.4552 Y59.9128
G01 X81.4376 Y59.9380
G01 X81.4184 Y59.9604
G01 X81.3972 Y59.9807
G01 X81.3730 Y59.9996
G01 X81.3492 Y60.0147
G01 X81.3251 Y60.0270
G01 X81.2954 Y60.0387
G01 X81.2671 Y60.0467
G01 X81.2405 Y60.0514
G01 X81.2087 Y60.0540
G01 X81.1792 Y60.0534
G01 X81.1524 Y60.0502
G01 X81.1213 Y60.0435
G01 X81.0910 Y60.0334
G01 X81.0663 Y60.0224
G01 X81.0406 Y60.0080
G01 X81.0165 Y59.9911
G01 X80.9924 Y59.9702
G01 X80.9738 Y59.9506
G01 X80.9571 Y59.9294
G01 X80.9398 Y59.9026
G01 X80.9265 Y59.8764
G01 X80.9151 Y59.8466
G01 X80.9079 Y59.8205
G01 X80.9031 Y59.7940
G01 X80.9006 Y59.7634
G01 X80.9012 Y59.7327
G01 X80.9047 Y59.7035
G01 X80.9111 Y59.6747
G01 X80.9198 Y59.6479
G01 X80.9321 Y59.6198
G01 X80.9956 Y59.4927
G01 X80.9956 Y59.2534
G01 X80.9768 Y59.2158
G01 X80.9392 Y59.1970
G01 X80.8751 Y59.1970
G01 X80.7324 Y59.9105
G01 X80.7257 Y59.9366
G01 X80.7148 Y59.9666
G01 X80.7032 Y59.9909
G01 X80.6894 Y60.0141
G01 X80.6720 Y60.0379
G01 X80.6507 Y60.0616
G01 X80.6308 Y60.0797
G01 X80.6032 Y60.1002
G01 X80.5800 Y60.1140
G01 X80.5534 Y60.1266
G01 X80.5257 Y60.1365
G01 X80.4971 Y60.1436
G01 X80.4680 Y60.1479
G01 X80.4398 Y60.1493
G01 X80.2470 Y60.1494
G01 X80.2204 Y60.1481
G01 X80.1951 Y60.1446
G01 X80.1657 Y60.1378
G01 X80.1394 Y60.1290
G01 X80.1150 Y60.1182
G01 X79.9224 Y60.0219
G01 X79.8994 Y60.0090
G01 X79.8785 Y59.9947
G01 X79.8546 Y59.9750
G01 X79.8359 Y59.9562
G01 X79.8197 Y59.9368
G01 X79.8021 Y59.9113
G01 X79.7892 Y59.8882
G01 X79.6935 Y59.6967
G01 X79.6827 Y59.6723
G01 X79.6733 Y59.6437
G01 X79.6674 Y59.6189
G01 X79.6639 Y59.5936
G01 X79.6623 Y59.5647
G01 X79.6623 Y59.1814
G01 X79.6636 Y59.1548
G01 X79.6671 Y59.1295
G01 X79.6745 Y59.0979
G00 Z2.0000
G00 X79.2958 Y61.8301
G01 F60.00
G01 Z-0.1001
G01 F60.00
G01 X81.3031 Y61.8302
G01 X81.3350 Y61.8320
G01 X81.3738 Y61.8378
G01 X81.4119 Y61.8473
G01 X81.4455 Y61.8592
G01 X81.4556 Y61.8635
G01 X81.4811 Y61.8756
G01 X81.4908 Y61.8809
G01 X81.5118 Y61.8936
G01 X81.5241 Y61.9017
G01 X81.5438 Y61.9164
G01 X81.5524 Y61.9233
G01 X81.5787 Y61.9473
G01 X81.6051 Y61.9764
G01 X81.6285 Y62.0079
G01 X81.6450 Y62.0352
G01 X81.6519 Y62.0481
G01 X81.6640 Y62.0737
G01 X81.6681 Y62.0839
G01 X81.6763 Y62.1071
G01 X81.6797 Y62.1176
G01 X81.6866 Y62.1449
G01 X81.6889 Y62.1557
G01 X81.6940 Y62.1910
G01 X81.6957 Y62.2228
G01 X81.6958 Y62.2339
G01 X81.6945 Y62.2621
G01 X81.6936 Y62.2731
G01 X81.6889 Y62.3046
G01 X81.6841 Y62.3253
G01 X81.6890 Y62.3469
G01 X81.6938 Y62.3802
G01 X81.6947 Y62.3906
G01 X81.6958 Y62.4172
G01 X81.6958 Y62.8051
G01 X81.6942 Y62.8387
G01 X81.6890 Y62.8754
G01 X81.6805 Y62.9115
G01 X81.6687 Y62.9467
G01 X81.6536 Y62.9806
G01 X81.5584 Y63.1710
G01 X81.5414 Y63.2014
G01 X81.5350 Y63.2117
G01 X81.5121 Y63.2431
G01 X81.4835 Y63.2750
G01 X81.3853 Y63.3731
G01 X81.3563 Y63.3989
G01 X81.3282 Y63.4195
G01 X81.3146 Y63.4282
G01 X81.2842 Y63.4452
G01 X81.0938 Y63.5405
G01 X81.0598 Y63.5555
G01 X81.0313 Y63.5652
G01 X81.0180 Y63.5691
G01 X80.9954 Y63.5744
G01 X80.9852 Y63.5764
G01 X80.9519 Y63.5810
G01 X80.9183 Y63.5827
G01 X80.4058 Y63.5827
G01 X81.2877 Y63.8977
G01 X81.5416 Y63.7961
G01 X81.6062 Y63.6670
G01 X81.6238 Y63.6361
G01 X81.6463 Y63.6039
G01 X81.6719 Y63.5741
G01 X81.7003 Y63.5470
G01 X81.7312 Y63.5227
G01 X81.7580 Y63.5054
G01 X81.7708 Y63.4981
G01 X81.7960 Y63.4854
G01 X81.8061 Y63.4810
G01 X81.8359 Y63.4696
G01 X81.8666 Y63.4609
G01 X81.8773 Y63.4583
G01 X81.9087 Y63.4528
G01 X81.9197 Y63.4515
G01 X81.9479 Y63.4494
G01 X81.9589 Y63.4492
G01 X81.9908 Y63.4501
G01 X82.0298 Y63.4548
G01 X82.0681 Y63.4633
G01 X82.0985 Y63.4731
G01 X82.1089 Y63.4769
G01 X82.1414 Y63.4914
G01 X82.1693 Y63.5069
G01 X82.1817 Y63.5147
G01 X82.2078 Y63.5331
G01 X82.2321 Y63.5538
G01 X82.2428 Y63.5639
G01 X82.2647 Y63.5871
G01 X82.2868 Y63.6150
G01 X82.2931 Y63.6241
G01 X82.3062 Y63.6448
G01 X82.3118 Y63.6543
G01 X82.3278 Y63.6861
G01 X82.3395 Y63.7158
G01 X82.3442 Y63.7297
G01 X82.3526 Y63.7605
G01 X82.3583 Y63.7919
G01 X82.3602 Y63.8065
G01 X82.3623 Y63.8347
G01 X82.3624 Y63.8457
G01 X82.3615 Y63.8776
G01 X82.3579 Y63.9093
G01 X82.3554 Y63.9238
G01 X82.3483 Y63.9549
G01 X82.3361 Y63.9922
G01 X82.3203 Y64.0282
G01 X82.2232 Y64.2222
G01 X82.2039 Y64.2559
G01 X82.1837 Y64.2843
G01 X82.1762 Y64.2938
G01 X82.1501 Y64.3226
G01 X82.0549 Y64.4179
G01 X82.0278 Y64.4426
G01 X82.0188 Y64.4497
G01 X81.9984 Y64.4647
G01 X81.9858 Y64.4730
G01 X81.9573 Y64.4895
G01 X81.9241 Y64.5050
G01 X81.4333 Y64.7011
G01 X80.0935 Y65.1796
G01 X80.0594 Y65.1898
G01 X80.0282 Y65.1962
G01 X80.0136 Y65.1983
G01 X79.9818 Y65.2013
G01 X79.9499 Y65.2014
G01 X79.9352 Y65.2007
G01 X79.9035 Y65.1974
G01 X79.8722 Y65.1913
G01 X79.8579 Y65.1877
G01 X79.8274 Y65.1783
G01 X79.7979 Y65.1662
G01 X79.7878 Y65.1616
G01 X79.7597 Y65.1466
G01 X79.7503 Y65.1408
G01 X79.7239 Y65.1229
G01 X79.6963 Y65.1004
G01 X79.6882 Y65.0929
G01 X79.6709 Y65.0755
G01 X79.6610 Y65.0646
G01 X79.6454 Y65.0456
G01 X79.6387 Y65.0368
G01 X79.6230 Y65.0133
G01 X79.6173 Y65.0039
G01 X79.6006 Y64.9725
G01 X79.5856 Y64.9362
G01 X79.5742 Y64.8986
G01 X79.5679 Y64.8674
G01 X79.5657 Y64.8528
G01 X79.5630 Y64.8247
G01 X79.5626 Y64.8137
G01 X79.5628 Y64.7818
G01 X79.5667 Y64.7427
G01 X79.5744 Y64.7042
G01 X79.5835 Y64.6736
G01 X79.5871 Y64.6632
G01 X79.5978 Y64.6371
G01 X79.6041 Y64.6238
G01 X79.6194 Y64.5957
G01 X79.6369 Y64.5691
G01 X79.6457 Y64.5573
G01 X79.6661 Y64.5327
G01 X79.6886 Y64.5101
G01 X79.6995 Y64.5002
G01 X79.7243 Y64.4801
G01 X79.7569 Y64.4583
G01 X79.7916 Y64.4398
G01 X79.8244 Y64.4261
G01 X80.1061 Y64.3254
G01 X79.8244 Y64.2248
G01 X79.7983 Y64.2140
G01 X79.7883 Y64.2094
G01 X79.7601 Y64.1944
G01 X79.7507 Y64.1886
G01 X79.7243 Y64.1708
G01 X79.6939 Y64.1459
G01 X79.6661 Y64.1181
G01 X79.6434 Y64.0907
G01 X79.6369 Y64.0818
G01 X79.6213 Y64.0583
G01 X79.6157 Y64.0487
G01 X79.6041 Y64.0271
G01 X79.5978 Y64.0138
G01 X79.5884 Y63.9911
G01 X79.5846 Y63.9808
G01 X79.5753 Y63.9502
G01 X79.5727 Y63.9395
G01 X79.5667 Y63.9082
G01 X79.5633 Y63.8764
G01 X79.5626 Y63.8617
G01 X79.5628 Y63.8298
G01 X79.5666 Y63.7908
G01 X79.5742 Y63.7522
G01 X79.5833 Y63.7217
G01 X79.5883 Y63.7078
G01 X79.6006 Y63.6784
G01 X79.6155 Y63.6501
G01 X79.6230 Y63.6375
G01 X79.6409 Y63.6111
G01 X79.6658 Y63.5807
G01 X79.6882 Y63.5580
G01 X79.6991 Y63.5481
G01 X79.7239 Y63.5280
G01 X79.7503 Y63.5101
G01 X79.7629 Y63.5025
G01 X79.7911 Y63.4876
G01 X79.8205 Y63.4752
G01 X79.8344 Y63.4703
G01 X79.8650 Y63.4612
G01 X79.8962 Y63.4547
G01 X79.9108 Y63.4526
G01 X79.9426 Y63.4496
G01 X79.9828 Y63.4496
G01 X79.9704 Y63.4434
G01 X79.9436 Y63.4282
G01 X79.9300 Y63.4195
G01 X79.9019 Y63.3989
G01 X79.8700 Y63.3703
G01 X79.7747 Y63.2750
G01 X79.7486 Y63.2462
G01 X79.7412 Y63.2367
G01 X79.7210 Y63.2083
G01 X79.6998 Y63.1710
