(G-CODE GENERATED BY FLATCAM v8.994 - www.flatcam.org - Version Date: 2020/11/7)

(Name: WB-F_Cu.gbr_iso_combined_cnc)
(Type: G-code from Geometry)
(Units: MM)

(Created on Saturday, 12 November 2022 at 19:22)

(This preprocessor is the default preprocessor used by FlatCAM.)
(It is made to work with MACH3 compatible motion controllers.)

(TOOL DIAMETER: 0.2017 mm)
(Feedrate_XY: 60.0 mm/min)
(Feedrate_Z: 60.0 mm/min)
(Feedrate rapids 1500.0 mm/min)

(Z_Cut: -0.0048 mm)
(Z_Move: 2.0 mm)
(Z Start: None mm)
(Z End: 15.0 mm)
(X,Y End: None mm)
(Steps per circle: 64)
(Preprocessor Geometry: default)

(X range:    0.8474 ...   89.4568  mm)
(Y range:    1.1768 ...   83.8608  mm)

(Spindle Speed: 0.0 RPM)
G21
G90
G94

G01 F60.00

M5
G00 Z15.0000
G00 X0.0000 Y0.0000
T1
M6    
(MSG, Change to Tool Dia = 0.2017)
M0
G00 Z15.0000

M03
G01 F60.00
G00 X14.0894 Y3.1708
G01 F60.00
G01 Z-0.0048
G01 F60.00
G01 X14.1042 Y3.1705
G01 X14.1190 Y3.1708
G01 X14.2024 Y3.1749
G01 X14.2172 Y3.1760
G01 X14.2319 Y3.1778
G01 X14.3144 Y3.1901
G01 X14.3291 Y3.1926
G01 X14.3435 Y3.1958
G01 X14.4245 Y3.2161
G01 X14.4388 Y3.2201
G01 X14.4529 Y3.2247
G01 X14.5314 Y3.2528
G01 X14.5453 Y3.2582
G01 X14.5588 Y3.2642
G01 X14.6342 Y3.2999
G01 X14.6475 Y3.3065
G01 X14.6604 Y3.3139
G01 X14.7320 Y3.3567
G01 X14.7445 Y3.3647
G01 X14.7567 Y3.3732
G01 X14.8237 Y3.4229
G01 X14.8354 Y3.4321
G01 X14.8466 Y3.4418
G01 X14.9084 Y3.4978
G01 X14.9192 Y3.5080
G01 X14.9294 Y3.5188
G01 X14.9854 Y3.5806
G01 X14.9951 Y3.5918
G01 X15.0043 Y3.6035
G01 X15.0540 Y3.6705
G01 X15.0625 Y3.6827
G01 X15.0705 Y3.6952
G01 X15.1133 Y3.7668
G01 X15.1207 Y3.7797
G01 X15.1273 Y3.7930
G01 X15.1630 Y3.8684
G01 X15.1690 Y3.8819
G01 X15.1744 Y3.8958
G01 X15.2025 Y3.9743
G01 X15.2071 Y3.9884
G01 X15.2111 Y4.0027
G01 X15.2314 Y4.0837
G01 X15.2346 Y4.0981
G01 X15.2371 Y4.1128
G01 X15.2494 Y4.1953
G01 X15.2512 Y4.2100
G01 X15.2523 Y4.2248
G01 X15.2564 Y4.3082
G01 X15.2567 Y4.3230
G01 X15.2564 Y4.3378
G01 X15.2523 Y4.4212
G01 X15.2512 Y4.4360
G01 X15.2494 Y4.4507
G01 X15.2371 Y4.5332
G01 X15.2346 Y4.5479
G01 X15.2314 Y4.5623
G01 X15.2111 Y4.6433
G01 X15.2071 Y4.6576
G01 X15.2025 Y4.6717
G01 X15.1744 Y4.7502
G01 X15.1690 Y4.7641
G01 X15.1630 Y4.7776
G01 X15.1273 Y4.8530
G01 X15.1207 Y4.8663
G01 X15.1133 Y4.8792
G01 X15.0705 Y4.9508
G01 X15.0625 Y4.9633
G01 X15.0540 Y4.9755
G01 X15.0043 Y5.0425
G01 X14.9951 Y5.0542
G01 X14.9854 Y5.0654
G01 X14.9294 Y5.1272
G01 X14.9192 Y5.1380
G01 X14.9084 Y5.1482
G01 X14.8466 Y5.2042
G01 X14.8354 Y5.2139
G01 X14.8237 Y5.2231
G01 X14.7567 Y5.2728
G01 X14.7445 Y5.2813
G01 X14.7320 Y5.2893
G01 X14.6604 Y5.3321
G01 X14.6475 Y5.3395
G01 X14.6342 Y5.3461
G01 X14.5588 Y5.3818
G01 X14.5453 Y5.3878
G01 X14.5314 Y5.3932
G01 X14.4529 Y5.4213
G01 X14.4388 Y5.4259
G01 X14.4245 Y5.4299
G01 X14.3435 Y5.4502
G01 X14.3291 Y5.4534
G01 X14.3144 Y5.4559
G01 X14.2319 Y5.4682
G01 X14.2172 Y5.4700
G01 X14.2024 Y5.4711
G01 X14.1190 Y5.4752
G01 X14.1042 Y5.4755
G01 X14.0894 Y5.4752
G01 X14.0060 Y5.4711
G01 X13.9912 Y5.4700
G01 X13.9765 Y5.4682
G01 X13.8940 Y5.4559
G01 X13.8793 Y5.4534
G01 X13.8649 Y5.4502
G01 X13.7839 Y5.4299
G01 X13.7696 Y5.4259
G01 X13.7555 Y5.4213
G01 X13.6770 Y5.3932
G01 X13.6631 Y5.3878
G01 X13.6496 Y5.3818
G01 X13.5742 Y5.3461
G01 X13.5609 Y5.3395
G01 X13.5480 Y5.3321
G01 X13.4764 Y5.2893
G01 X13.4639 Y5.2813
G01 X13.4517 Y5.2728
G01 X13.3847 Y5.2231
G01 X13.3730 Y5.2139
G01 X13.3618 Y5.2042
G01 X13.3000 Y5.1482
G01 X13.2892 Y5.1380
G01 X13.2790 Y5.1272
G01 X13.2230 Y5.0654
G01 X13.2133 Y5.0542
G01 X13.2041 Y5.0425
G01 X13.1544 Y4.9755
G01 X13.1459 Y4.9633
G01 X13.1379 Y4.9508
G01 X13.0951 Y4.8792
G01 X13.0877 Y4.8663
G01 X13.0811 Y4.8530
G01 X13.0454 Y4.7776
G01 X13.0394 Y4.7641
G01 X13.0340 Y4.7502
G01 X13.0059 Y4.6717
G01 X13.0013 Y4.6576
G01 X12.9973 Y4.6433
G01 X12.9770 Y4.5623
G01 X12.9738 Y4.5479
G01 X12.9713 Y4.5332
G01 X12.9590 Y4.4507
G01 X12.9572 Y4.4360
G01 X12.9561 Y4.4212
G01 X12.9520 Y4.3378
G01 X12.9517 Y4.3230
G01 X12.9520 Y4.3082
G01 X12.9561 Y4.2248
G01 X12.9572 Y4.2100
G01 X12.9590 Y4.1953
G01 X12.9713 Y4.1128
G01 X12.9738 Y4.0981
G01 X12.9770 Y4.0837
G01 X12.9973 Y4.0027
G01 X13.0013 Y3.9884
G01 X13.0059 Y3.9743
G01 X13.0340 Y3.8958
G01 X13.0394 Y3.8819
G01 X13.0454 Y3.8684
G01 X13.0811 Y3.7930
G01 X13.0877 Y3.7797
G01 X13.0951 Y3.7668
G01 X13.1379 Y3.6952
G01 X13.1459 Y3.6827
G01 X13.1544 Y3.6705
G01 X13.2041 Y3.6035
G01 X13.2133 Y3.5918
G01 X13.2230 Y3.5806
G01 X13.2790 Y3.5188
G01 X13.2892 Y3.5080
G01 X13.3000 Y3.4978
G01 X13.3618 Y3.4418
G01 X13.3730 Y3.4321
G01 X13.3847 Y3.4229
G01 X13.4517 Y3.3732
G01 X13.4639 Y3.3647
G01 X13.4764 Y3.3567
G01 X13.5480 Y3.3139
G01 X13.5609 Y3.3065
G01 X13.5742 Y3.2999
G01 X13.6496 Y3.2642
G01 X13.6631 Y3.2582
G01 X13.6770 Y3.2528
G01 X13.7555 Y3.2247
G01 X13.7696 Y3.2201
G01 X13.7839 Y3.2161
G01 X13.8649 Y3.1958
G01 X13.8793 Y3.1926
G01 X13.8940 Y3.1901
G01 X13.9765 Y3.1778
G01 X13.9912 Y3.1760
G01 X14.0060 Y3.1749
G01 X14.0894 Y3.1708
G00 Z2.0000
G00 X14.0993 Y3.3723
G01 F60.00
G01 Z-0.0048
G01 F60.00
G01 X14.1091 Y3.3723
G01 X14.1974 Y3.3767
G01 X14.2897 Y3.3904
G01 X14.3802 Y3.4131
G01 X14.4681 Y3.4445
G01 X14.5524 Y3.4844
G01 X14.6325 Y3.5324
G01 X14.7074 Y3.5880
G01 X14.7766 Y3.6506
G01 X14.8392 Y3.7198
G01 X14.8948 Y3.7947
G01 X14.9428 Y3.8748
G01 X14.9827 Y3.9591
G01 X15.0141 Y4.0470
G01 X15.0368 Y4.1375
G01 X15.0505 Y4.2298
G01 X15.0550 Y4.3230
G01 X15.0505 Y4.4162
G01 X15.0368 Y4.5085
G01 X15.0141 Y4.5990
G01 X14.9827 Y4.6869
G01 X14.9428 Y4.7712
G01 X14.8948 Y4.8513
G01 X14.8392 Y4.9262
G01 X14.7766 Y4.9954
G01 X14.7074 Y5.0580
G01 X14.6325 Y5.1136
G01 X14.5524 Y5.1616
G01 X14.4681 Y5.2015
G01 X14.3802 Y5.2329
G01 X14.2897 Y5.2556
G01 X14.1974 Y5.2693
G01 X14.1042 Y5.2738
G01 X14.0110 Y5.2693
G01 X13.9187 Y5.2556
G01 X13.8282 Y5.2329
G01 X13.7403 Y5.2015
G01 X13.6560 Y5.1616
G01 X13.5759 Y5.1136
G01 X13.5010 Y5.0580
G01 X13.4318 Y4.9954
G01 X13.3692 Y4.9262
G01 X13.3136 Y4.8513
G01 X13.2656 Y4.7712
G01 X13.2257 Y4.6869
G01 X13.1943 Y4.5990
G01 X13.1716 Y4.5085
G01 X13.1579 Y4.4162
G01 X13.1534 Y4.3230
G01 X13.1579 Y4.2298
G01 X13.1716 Y4.1375
G01 X13.1943 Y4.0470
G01 X13.2257 Y3.9591
G01 X13.2656 Y3.8748
G01 X13.3136 Y3.7947
G01 X13.3692 Y3.7198
G01 X13.4318 Y3.6506
G01 X13.5010 Y3.5880
G01 X13.5759 Y3.5324
G01 X13.6560 Y3.4844
G01 X13.7403 Y3.4445
G01 X13.8282 Y3.4131
G01 X13.9187 Y3.3904
G01 X14.0110 Y3.3767
G01 X14.0993 Y3.3723
G00 Z2.0000
G00 X15.2132 Y6.2619
G01 F60.00
G01 Z-0.0048
G01 F60.00
G01 X15.2295 Y6.2442
G01 X19.9208 Y1.5528
G01 X19.9628 Y1.5149
G01 X20.0101 Y1.4798
G01 X20.0607 Y1.4495
G01 X20.1141 Y1.4243
G01 X20.1696 Y1.4044
G01 X20.2268 Y1.3900
G01 X20.2852 Y1.3814
G01 X20.3392 Y1.3786
G01 X77.1164 Y1.3786
G01 X77.1704 Y1.3814
G01 X77.2288 Y1.3900
G01 X77.2860 Y1.4044
G01 X77.3369 Y1.4225
G01 X77.3461 Y1.4263
G01 X77.3904 Y1.4473
G01 X77.3992 Y1.4519
G01 X77.4455 Y1.4798
G01 X77.4889 Y1.5119
G01 X77.4947 Y1.5165
G01 X77.5365 Y1.5546
G01 X79.0639 Y3.0819
G01 X79.5934 Y3.0819
G01 X79.6027 Y3.0674
G01 X79.6612 Y2.9885
G01 X79.6675 Y2.9809
G01 X79.7368 Y2.9046
G01 X79.8168 Y2.8320
G01 X79.8996 Y2.7705
G01 X79.9078 Y2.7650
G01 X79.9963 Y2.7121
G01 X80.0939 Y2.6659
G01 X80.1956 Y2.6296
G01 X80.2956 Y2.6044
G01 X80.3053 Y2.6025
G01 X80.4073 Y2.5875
G01 X80.5152 Y2.5822
G01 X80.6182 Y2.5871
G01 X80.6280 Y2.5881
G01 X80.7251 Y2.6025
G01 X80.7324 Y2.6038
G01 X80.8348 Y2.6296
G01 X80.9365 Y2.6659
G01 X81.0341 Y2.7121
G01 X81.1226 Y2.7650
G01 X81.1308 Y2.7705
G01 X81.2097 Y2.8290
G01 X81.2173 Y2.8353
G01 X81.2936 Y2.9046
G01 X81.3662 Y2.9846
G01 X81.4305 Y3.0714
G01 X81.4836 Y3.1598
G01 X81.4883 Y3.1685
G01 X81.5302 Y3.2572
G01 X81.5340 Y3.2663
G01 X81.5686 Y3.3634
G01 X81.5949 Y3.4682
G01 X81.6107 Y3.5751
G01 X81.6159 Y3.6781
G01 X81.6159 Y3.6879
G01 X81.6107 Y3.7909
G01 X81.5949 Y3.8978
G01 X81.5686 Y4.0026
G01 X81.5323 Y4.1043
G01 X81.4861 Y4.2019
G01 X81.4305 Y4.2946
G01 X81.3662 Y4.3814
G01 X81.2936 Y4.4614
G01 X81.2136 Y4.5340
G01 X81.1268 Y4.5983
G01 X81.0341 Y4.6539
G01 X80.9365 Y4.7001
G01 X80.8348 Y4.7364
G01 X80.7300 Y4.7627
G01 X80.6231 Y4.7785
G01 X80.5201 Y4.7837
G01 X80.5127 Y4.7838
G01 X80.4122 Y4.7789
G01 X80.4024 Y4.7779
G01 X80.3004 Y4.7627
G01 X80.2004 Y4.7378
G01 X80.1909 Y4.7349
G01 X80.0939 Y4.7001
G01 X79.9963 Y4.6539
G01 X79.9078 Y4.6010
G01 X79.8996 Y4.5955
G01 X79.8168 Y4.5340
G01 X79.7404 Y4.4648
G01 X79.7334 Y4.4578
G01 X79.6642 Y4.3814
G01 X79.6027 Y4.2986
G01 X79.5934 Y4.2841
G01 X78.8149 Y4.2841
G01 X78.7560 Y4.2812
G01 X78.6976 Y4.2726
G01 X78.6452 Y4.2595
G01 X78.6357 Y4.2567
G01 X78.5895 Y4.2401
G01 X78.5803 Y4.2363
G01 X78.5315 Y4.2131
G01 X78.4851 Y4.1854
G01 X78.4769 Y4.1799
G01 X78.4336 Y4.1477
G01 X78.3899 Y4.1080
G01 X76.8625 Y2.5807
G01 X20.5931 Y2.5807
G01 X16.2528 Y6.9210
G01 X16.2441 Y6.9803
G01 X16.2297 Y7.0375
G01 X16.2098 Y7.0930
G01 X16.1868 Y7.1419
G01 X16.1822 Y7.1507
G01 X16.1543 Y7.1970
G01 X16.1222 Y7.2404
G01 X16.1159 Y7.2481
G01 X16.0830 Y7.2845
G01 X16.0760 Y7.2915
G01 X16.0358 Y7.3277
G01 X15.9905 Y7.3614
G01 X15.9843 Y7.3654
G01 X15.9379 Y7.3931
G01 X15.8891 Y7.4163
G01 X15.8799 Y7.4201
G01 X15.8290 Y7.4382
G01 X15.7766 Y7.4515
G01 X15.7669 Y7.4534
G01 X15.7134 Y7.4612
G01 X15.6545 Y7.4641
G01 X15.0550 Y7.4641
G01 X15.0550 Y7.7130
G01 X15.0543 Y7.7253
G01 X15.0520 Y7.7375
G01 X15.0500 Y7.7446
G01 X15.0474 Y7.7516
G01 X15.0443 Y7.7583
G01 X15.0407 Y7.7648
G01 X15.0367 Y7.7711
G01 X15.0322 Y7.7770
G01 X15.0272 Y7.7825
G01 X15.0219 Y7.7877
G01 X15.0162 Y7.7925
G01 X15.0102 Y7.7969
G01 X15.0039 Y7.8007
G01 X14.9973 Y7.8042
G01 X14.9905 Y7.8071
G01 X14.9835 Y7.8095
G01 X14.9763 Y7.8114
G01 X14.9690 Y7.8128
G01 X14.9616 Y7.8136
G01 X14.9542 Y7.8138
G01 X13.2517 Y7.8138
G01 X13.2419 Y7.8131
G01 X13.2297 Y7.8108
G01 X13.2179 Y7.8071
G01 X13.2067 Y7.8019
G01 X13.1982 Y7.7969
G01 X13.1883 Y7.7894
G01 X13.1795 Y7.7807
G01 X13.1732 Y7.7731
G01 X13.1690 Y7.7670
G01 X13.1653 Y7.7605
G01 X13.1610 Y7.7516
G01 X13.1584 Y7.7446
G01 X13.1564 Y7.7375
G01 X13.1544 Y7.7278
G01 X13.1536 Y7.7204
G01 X13.1534 Y7.7130
G01 X13.1534 Y6.0130
G01 X13.1541 Y6.0007
G01 X13.1564 Y5.9885
G01 X13.1592 Y5.9790
G01 X13.1641 Y5.9677
G01 X13.1703 Y5.9570
G01 X13.1762 Y5.9490
G01 X13.1847 Y5.9400
G01 X13.1941 Y5.9320
G01 X13.2024 Y5.9265
G01 X13.2089 Y5.9229
G01 X13.2156 Y5.9198
G01 X13.2226 Y5.9172
G01 X13.2297 Y5.9152
G01 X13.2370 Y5.9136
G01 X13.2443 Y5.9126
G01 X13.2542 Y5.9122
G01 X14.9542 Y5.9122
G01 X14.9616 Y5.9124
G01 X14.9714 Y5.9136
G01 X14.9787 Y5.9152
G01 X14.9858 Y5.9172
G01 X14.9928 Y5.9198
G01 X14.9995 Y5.9229
G01 X15.0102 Y5.9291
G01 X15.0162 Y5.9335
G01 X15.0219 Y5.9383
G01 X15.0272 Y5.9435
G01 X15.0322 Y5.9490
G01 X15.0367 Y5.9549
G01 X15.0407 Y5.9612
G01 X15.0443 Y5.9677
G01 X15.0474 Y5.9744
G01 X15.0500 Y5.9814
G01 X15.0520 Y5.9885
G01 X15.0543 Y6.0007
G01 X15.0550 Y6.0130
G01 X15.0550 Y6.2619
G01 X15.2132 Y6.2619
G00 Z2.0000
G00 X19.1122 Y4.3468
G01 F60.00
G01 Z-0.0048
G01 F60.00
G01 X16.4424 Y7.0166
G01 X16.4386 Y7.0341
G01 X16.4267 Y7.0817
G01 X16.4227 Y7.0960
G01 X16.4181 Y7.1101
G01 X16.4015 Y7.1564
G01 X16.3962 Y7.1702
G01 X16.3902 Y7.1838
G01 X16.3692 Y7.2282
G01 X16.3625 Y7.2414
G01 X16.3552 Y7.2544
G01 X16.3299 Y7.2965
G01 X16.3220 Y7.3090
G01 X16.3135 Y7.3212
G01 X16.2842 Y7.3606
G01 X16.2751 Y7.3723
G01 X16.2654 Y7.3835
G01 X16.2324 Y7.4199
G01 X16.2169 Y7.4359
G01 X16.1750 Y7.4739
G01 X16.1580 Y7.4882
G01 X16.1066 Y7.5263
G01 X16.0880 Y7.5384
G01 X16.0394 Y7.5674
G01 X16.0197 Y7.5777
G01 X15.9753 Y7.5987
G01 X15.9617 Y7.6047
G01 X15.9479 Y7.6100
G01 X15.9016 Y7.6266
G01 X15.8875 Y7.6312
G01 X15.8732 Y7.6352
G01 X15.8256 Y7.6471
G01 X15.8111 Y7.6504
G01 X15.7965 Y7.6529
G01 X15.7406 Y7.6611
G01 X15.7184 Y7.6630
G01 X15.6693 Y7.6654
G01 X15.6545 Y7.6658
G01 X15.2567 Y7.6658
G01 X15.2567 Y7.7130
G01 X15.2559 Y7.7353
G01 X15.2545 Y7.7500
G01 X15.2523 Y7.7647
G01 X15.2494 Y7.7793
G01 X15.2458 Y7.7937
G01 X15.2415 Y7.8079
G01 X15.2365 Y7.8219
G01 X15.2308 Y7.8356
G01 X15.2244 Y7.8490
G01 X15.2174 Y7.8621
G01 X15.2098 Y7.8749
G01 X15.2016 Y7.8872
G01 X15.1927 Y7.8991
G01 X15.1833 Y7.9106
G01 X15.1733 Y7.9216
G01 X15.1628 Y7.9321
G01 X15.1518 Y7.9421
G01 X15.1403 Y7.9515
G01 X15.1284 Y7.9604
G01 X15.1161 Y7.9686
G01 X15.1033 Y7.9762
G01 X15.0902 Y7.9832
G01 X15.0768 Y7.9896
G01 X15.0631 Y7.9953
G01 X15.0491 Y8.0003
G01 X15.0349 Y8.0046
G01 X15.0205 Y8.0082
G01 X15.0059 Y8.0111
G01 X14.9839 Y8.0141
G01 X14.9690 Y8.0152
G01 X14.9542 Y8.0155
G01 X13.2542 Y8.0155
G01 X13.2319 Y8.0147
G01 X13.2172 Y8.0133
G01 X13.1952 Y8.0097
G01 X13.1735 Y8.0046
G01 X13.1593 Y8.0003
G01 X13.1384 Y7.9925
G01 X13.1248 Y7.9865
G01 X13.1116 Y7.9798
G01 X13.0923 Y7.9686
G01 X13.0740 Y7.9560
G01 X13.0623 Y7.9469
G01 X13.0456 Y7.9321
G01 X13.0351 Y7.9216
G01 X13.0251 Y7.9106
G01 X13.0112 Y7.8932
G01 X13.0026 Y7.8811
G01 X12.9910 Y7.8621
G01 X12.9840 Y7.8490
G01 X12.9747 Y7.8288
G01 X12.9669 Y7.8079
G01 X12.9626 Y7.7937
G01 X12.9575 Y7.7720
G01 X12.9549 Y7.7574
G01 X12.9531 Y7.7427
G01 X12.9517 Y7.7204
G01 X12.9517 Y6.0056
G01 X12.9525 Y5.9907
G01 X12.9539 Y5.9760
G01 X12.9561 Y5.9613
G01 X12.9590 Y5.9467
G01 X12.9626 Y5.9323
G01 X12.9669 Y5.9181
G01 X12.9719 Y5.9041
G01 X12.9776 Y5.8904
G01 X12.9840 Y5.8770
G01 X12.9947 Y5.8575
G01 X13.0026 Y5.8449
G01 X13.0112 Y5.8328
G01 X13.0203 Y5.8211
G01 X13.0300 Y5.8098
G01 X13.0403 Y5.7991
G01 X13.0510 Y5.7888
G01 X13.0681 Y5.7745
G01 X13.0800 Y5.7656
G01 X13.0923 Y5.7574
G01 X13.1051 Y5.7498
G01 X13.1182 Y5.7428
G01 X13.1384 Y5.7335
G01 X13.1593 Y5.7257
G01 X13.1735 Y5.7214
G01 X13.1879 Y5.7178
G01 X13.2098 Y5.7137
G01 X13.2245 Y5.7119
G01 X13.2394 Y5.7108
G01 X13.2542 Y5.7105
G01 X14.9542 Y5.7105
G01 X14.9765 Y5.7113
G01 X14.9912 Y5.7127
G01 X15.0059 Y5.7149
G01 X15.0277 Y5.7195
G01 X15.0491 Y5.7257
G01 X15.0700 Y5.7335
G01 X15.0902 Y5.7428
G01 X15.1097 Y5.7535
G01 X15.1284 Y5.7656
G01 X15.1403 Y5.7745
G01 X15.1518 Y5.7839
G01 X15.1681 Y5.7991
G01 X15.1833 Y5.8154
G01 X15.1927 Y5.8269
G01 X15.2016 Y5.8388
G01 X15.2137 Y5.8575
G01 X15.2244 Y5.8770
G01 X15.2337 Y5.8972
G01 X15.2415 Y5.9181
G01 X15.2479 Y5.9405
G01 X19.7817 Y1.4067
G01 X19.8236 Y1.3687
G01 X19.8348 Y1.3590
G01 X19.8465 Y1.3499
G01 X19.8859 Y1.3206
G01 X19.8981 Y1.3121
G01 X19.9106 Y1.3042
G01 X19.9527 Y1.2789
G01 X19.9657 Y1.2716
G01 X19.9789 Y1.2649
G01 X20.0233 Y1.2439
G01 X20.0438 Y1.2352
G01 X20.0970 Y1.2160
G01 X20.1111 Y1.2114
G01 X20.1254 Y1.2074
G01 X20.1730 Y1.1955
G01 X20.1875 Y1.1922
G01 X20.2021 Y1.1897
G01 X20.2507 Y1.1825
G01 X20.2654 Y1.1807
G01 X20.2802 Y1.1796
G01 X20.3293 Y1.1772
G01 X20.3441 Y1.1768
G01 X77.1115 Y1.1768
G01 X77.1263 Y1.1772
G01 X77.1754 Y1.1796
G01 X77.1902 Y1.1807
G01 X77.2049 Y1.1825
G01 X77.2535 Y1.1897
G01 X77.2681 Y1.1922
G01 X77.2826 Y1.1955
G01 X77.3302 Y1.2074
G01 X77.3445 Y1.2114
G01 X77.3586 Y1.2160
G01 X77.4049 Y1.2326
G01 X77.4187 Y1.2379
G01 X77.4323 Y1.2439
G01 X77.4767 Y1.2649
G01 X77.4899 Y1.2716
G01 X77.5029 Y1.2789
G01 X77.5450 Y1.3042
G01 X77.5575 Y1.3121
G01 X77.5697 Y1.3206
G01 X77.6091 Y1.3499
G01 X77.6265 Y1.3638
G01 X77.6684 Y1.4017
G01 X77.6792 Y1.4119
G01 X79.1474 Y2.8802
G01 X79.4904 Y2.8802
G01 X79.5037 Y2.8625
G01 X79.5131 Y2.8510
G01 X79.5839 Y2.7727
G01 X79.5995 Y2.7568
G01 X79.6776 Y2.6858
G01 X79.6889 Y2.6761
G01 X79.7006 Y2.6670
G01 X79.7854 Y2.6042
G01 X79.8041 Y2.5920
G01 X79.8883 Y2.5416
G01 X79.9012 Y2.5343
G01 X79.9144 Y2.5276
G01 X80.0032 Y2.4856
G01 X80.0167 Y2.4796
G01 X80.0306 Y2.4743
G01 X80.1300 Y2.4388
G01 X80.1514 Y2.4326
G01 X80.2466 Y2.4087
G01 X80.2611 Y2.4055
G01 X80.2757 Y2.4029
G01 X80.3728 Y2.3885
G01 X80.3875 Y2.3867
G01 X80.4023 Y2.3856
G01 X80.5004 Y2.3808
G01 X80.5152 Y2.3805
G01 X80.5300 Y2.3808
G01 X80.6355 Y2.3861
G01 X80.6576 Y2.3885
G01 X80.7547 Y2.4029
G01 X80.7693 Y2.4055
G01 X80.7838 Y2.4087
G01 X80.8790 Y2.4326
G01 X80.8933 Y2.4365
G01 X80.9074 Y2.4412
G01 X80.9998 Y2.4743
G01 X81.0137 Y2.4796
G01 X81.0272 Y2.4856
G01 X81.1160 Y2.5276
G01 X81.1292 Y2.5343
G01 X81.1421 Y2.5416
G01 X81.2263 Y2.5920
G01 X81.2389 Y2.6000
G01 X81.2510 Y2.6085
G01 X81.3298 Y2.6670
G01 X81.3415 Y2.6761
G01 X81.3528 Y2.6858
G01 X81.4255 Y2.7517
G01 X81.4362 Y2.7620
G01 X81.4465 Y2.7727
G01 X81.5124 Y2.8454
G01 X81.5221 Y2.8567
G01 X81.5312 Y2.8684
G01 X81.5897 Y2.9472
G01 X81.5982 Y2.9593
G01 X81.6062 Y2.9719
G01 X81.6604 Y3.0625
G01 X81.6706 Y3.0822
G01 X81.7126 Y3.1710
G01 X81.7186 Y3.1845
G01 X81.7239 Y3.1984
G01 X81.7570 Y3.2908
G01 X81.7617 Y3.3049
G01 X81.7656 Y3.3192
G01 X81.7895 Y3.4144
G01 X81.7927 Y3.4289
G01 X81.7953 Y3.4435
G01 X81.8097 Y3.5406
G01 X81.8115 Y3.5553
G01 X81.8126 Y3.5701
G01 X81.8174 Y3.6682
G01 X81.8177 Y3.6830
G01 X81.8174 Y3.6978
G01 X81.8126 Y3.7959
G01 X81.8115 Y3.8107
G01 X81.8097 Y3.8254
G01 X81.7953 Y3.9225
G01 X81.7927 Y3.9371
G01 X81.7895 Y3.9516
G01 X81.7656 Y4.0468
G01 X81.7617 Y4.0611
G01 X81.7570 Y4.0752
G01 X81.7239 Y4.1676
G01 X81.7157 Y4.1883
G01 X81.6706 Y4.2838
G01 X81.6639 Y4.2970
G01 X81.6566 Y4.3099
G01 X81.6062 Y4.3941
G01 X81.5982 Y4.4067
G01 X81.5897 Y4.4188
G01 X81.5312 Y4.4976
G01 X81.5221 Y4.5093
G01 X81.5124 Y4.5206
G01 X81.4465 Y4.5933
G01 X81.4362 Y4.6040
G01 X81.4255 Y4.6143
G01 X81.3528 Y4.6802
G01 X81.3415 Y4.6899
G01 X81.3298 Y4.6990
G01 X81.2510 Y4.7575
G01 X81.2389 Y4.7660
G01 X81.2263 Y4.7740
G01 X81.1421 Y4.8244
G01 X81.1292 Y4.8317
G01 X81.1160 Y4.8384
G01 X81.0272 Y4.8804
G01 X81.0137 Y4.8864
G01 X80.9998 Y4.8917
G01 X80.9074 Y4.9248
G01 X80.8933 Y4.9295
G01 X80.8790 Y4.9334
G01 X80.8008 Y4.9530
G01 X80.8790 Y4.9726
G01 X80.8933 Y4.9765
G01 X80.9074 Y4.9812
G01 X80.9998 Y5.0143
G01 X81.0137 Y5.0196
G01 X81.0272 Y5.0256
G01 X81.1160 Y5.0676
G01 X81.1292 Y5.0743
G01 X81.1421 Y5.0816
G01 X81.2263 Y5.1320
G01 X81.2389 Y5.1400
G01 X81.2510 Y5.1485
G01 X81.3298 Y5.2070
G01 X81.3415 Y5.2161
G01 X81.3528 Y5.2258
G01 X81.4255 Y5.2917
G01 X81.4362 Y5.3020
G01 X81.4465 Y5.3127
G01 X81.5124 Y5.3854
G01 X81.5221 Y5.3967
G01 X81.5312 Y5.4084
G01 X81.5897 Y5.4872
G01 X81.5982 Y5.4993
G01 X81.6062 Y5.5119
G01 X81.6566 Y5.5961
G01 X81.6639 Y5.6090
G01 X81.6706 Y5.6222
G01 X81.7126 Y5.7110
G01 X81.7186 Y5.7245
G01 X81.7239 Y5.7384
G01 X81.7570 Y5.8308
G01 X81.7617 Y5.8449
G01 X81.7656 Y5.8592
G01 X81.7895 Y5.9544
G01 X81.7927 Y5.9689
G01 X81.7953 Y5.9835
G01 X81.8097 Y6.0806
G01 X81.8115 Y6.0953
G01 X81.8126 Y6.1101
G01 X81.8174 Y6.2082
G01 X81.8177 Y6.2230
G01 X81.8174 Y6.2378
G01 X81.8126 Y6.3359
G01 X81.8115 Y6.3507
G01 X81.8097 Y6.3654
G01 X81.7953 Y6.4625
G01 X81.7927 Y6.4771
G01 X81.7895 Y6.4916
G01 X81.7656 Y6.5868
G01 X81.7617 Y6.6011
G01 X81.7570 Y6.6152
G01 X81.7239 Y6.7076
G01 X81.7186 Y6.7215
G01 X81.7126 Y6.7350
G01 X81.6706 Y6.8238
G01 X81.6639 Y6.8370
G01 X81.6566 Y6.8499
G01 X81.6062 Y6.9341
G01 X81.5982 Y6.9467
G01 X81.5897 Y6.9588
G01 X81.5312 Y7.0376
G01 X81.5221 Y7.0493
G01 X81.5124 Y7.0606
G01 X81.4465 Y7.1333
G01 X81.4362 Y7.1440
G01 X81.4255 Y7.1543
G01 X81.3528 Y7.2202
G01 X81.3415 Y7.2299
G01 X81.3298 Y7.2390
G01 X81.2510 Y7.2975
G01 X81.2389 Y7.3060
G01 X81.2263 Y7.3140
G01 X81.1421 Y7.3644
G01 X81.1292 Y7.3717
G01 X81.1160 Y7.3784
G01 X81.0272 Y7.4204
G01 X81.0137 Y7.4264
G01 X80.9998 Y7.4317
G01 X80.9074 Y7.4648
G01 X80.8933 Y7.4695
G01 X80.8790 Y7.4734
G01 X80.8008 Y7.4930
G01 X80.8790 Y7.5126
G01 X80.8933 Y7.5165
G01 X80.9074 Y7.5212
G01 X80.9998 Y7.5543
G01 X81.0137 Y7.5596
G01 X81.0272 Y7.5656
G01 X81.1160 Y7.6076
G01 X81.1292 Y7.6143
G01 X81.1421 Y7.6216
G01 X81.2326 Y7.6759
G01 X81.2510 Y7.6885
G01 X81.3298 Y7.7470
G01 X81.3415 Y7.7561
G01 X81.3528 Y7.7658
G01 X81.4255 Y7.8317
G01 X81.4362 Y7.8420
G01 X81.4465 Y7.8527
G01 X81.5124 Y7.9254
G01 X81.5267 Y7.9425
G01 X81.5400 Y7.9602
G01 X82.3909 Y7.9602
G01 X82.4057 Y7.9606
G01 X82.4548 Y7.9630
G01 X82.4696 Y7.9641
G01 X82.4843 Y7.9659
G01 X82.5329 Y7.9731
G01 X82.5475 Y7.9756
G01 X82.5620 Y7.9789
G01 X82.6096 Y7.9908
G01 X82.6239 Y7.9948
G01 X82.6380 Y7.9994
G01 X82.6843 Y8.0160
G01 X82.6981 Y8.0213
G01 X82.7117 Y8.0273
G01 X82.7561 Y8.0483
G01 X82.7693 Y8.0550
G01 X82.7823 Y8.0623
G01 X82.8244 Y8.0876
G01 X82.8369 Y8.0955
G01 X82.8491 Y8.1040
G01 X82.8766 Y8.1245
G01 X82.9002 Y8.1424
G01 X82.9114 Y8.1521
G01 X82.9403 Y8.1783
G01 X82.9586 Y8.1953
G01 X85.3804 Y10.6172
G01 X85.7234 Y10.6172
G01 X85.7367 Y10.5995
G01 X85.7461 Y10.5880
G01 X85.8220 Y10.5043
G01 X85.8379 Y10.4887
G01 X85.9106 Y10.4228
G01 X85.9219 Y10.4131
G01 X85.9336 Y10.4040
G01 X86.0124 Y10.3455
G01 X86.0245 Y10.3370
G01 X86.0371 Y10.3290
G01 X86.1213 Y10.2786
G01 X86.1342 Y10.2713
G01 X86.1474 Y10.2646
G01 X86.2362 Y10.2226
G01 X86.2497 Y10.2166
G01 X86.2636 Y10.2113
G01 X86.3560 Y10.1782
G01 X86.3701 Y10.1735
G01 X86.3844 Y10.1696
G01 X86.4796 Y10.1457
G01 X86.4941 Y10.1425
G01 X86.5087 Y10.1399
G01 X86.6058 Y10.1255
G01 X86.6205 Y10.1237
G01 X86.6353 Y10.1226
G01 X86.7334 Y10.1178
G01 X86.7556 Y10.1175
G01 X86.8611 Y10.1226
G01 X86.8759 Y10.1237
G01 X86.8906 Y10.1255
G01 X86.9877 Y10.1399
G01 X87.0023 Y10.1425
G01 X87.0168 Y10.1457
G01 X87.1120 Y10.1696
G01 X87.1263 Y10.1735
G01 X87.1404 Y10.1782
G01 X87.2328 Y10.2113
G01 X87.2467 Y10.2166
G01 X87.2602 Y10.2226
G01 X87.3490 Y10.2646
G01 X87.3622 Y10.2713
G01 X87.3751 Y10.2786
G01 X87.4593 Y10.3290
G01 X87.4719 Y10.3370
G01 X87.4840 Y10.3455
G01 X87.5628 Y10.4040
G01 X87.5745 Y10.4131
G01 X87.5858 Y10.4228
G01 X87.6585 Y10.4887
G01 X87.6692 Y10.4990
G01 X87.6795 Y10.5097
G01 X87.7454 Y10.5824
G01 X87.7551 Y10.5937
G01 X87.7642 Y10.6054
G01 X87.8227 Y10.6842
G01 X87.8353 Y10.7026
G01 X87.8896 Y10.7931
G01 X87.8969 Y10.8060
G01 X87.9036 Y10.8192
G01 X87.9456 Y10.9080
G01 X87.9516 Y10.9215
G01 X87.9569 Y10.9354
G01 X87.9900 Y11.0278
G01 X87.9947 Y11.0419
G01 X87.9986 Y11.0562
G01 X88.0225 Y11.1514
G01 X88.0257 Y11.1659
G01 X88.0283 Y11.1805
G01 X88.0427 Y11.2776
G01 X88.0445 Y11.2923
G01 X88.0456 Y11.3071
G01 X88.0504 Y11.4052
G01 X88.0507 Y11.4200
G01 X88.0504 Y11.4348
G01 X88.0456 Y11.5329
G01 X88.0445 Y11.5477
G01 X88.0427 Y11.5624
G01 X88.0283 Y11.6595
G01 X88.0257 Y11.6741
G01 X88.0225 Y11.6886
G01 X87.9986 Y11.7838
G01 X87.9947 Y11.7981
G01 X87.9900 Y11.8122
G01 X87.9569 Y11.9046
G01 X87.9516 Y11.9185
G01 X87.9456 Y11.9320
G01 X87.9036 Y12.0208
G01 X87.8969 Y12.0340
G01 X87.8896 Y12.0469
G01 X87.8392 Y12.1311
G01 X87.8312 Y12.1437
G01 X87.8227 Y12.1558
G01 X87.7642 Y12.2346
G01 X87.7551 Y12.2463
G01 X87.7454 Y12.2576
G01 X87.6795 Y12.3303
G01 X87.6692 Y12.3410
G01 X87.6585 Y12.3513
G01 X87.5858 Y12.4172
G01 X87.5745 Y12.4269
G01 X87.5628 Y12.4360
G01 X87.4840 Y12.4945
G01 X87.4719 Y12.5030
G01 X87.4593 Y12.5110
G01 X87.3751 Y12.5614
G01 X87.3622 Y12.5687
G01 X87.3490 Y12.5754
G01 X87.2602 Y12.6174
G01 X87.2467 Y12.6234
G01 X87.2328 Y12.6287
G01 X87.1404 Y12.6618
G01 X87.1263 Y12.6665
G01 X87.1120 Y12.6704
G01 X87.0338 Y12.6900
G01 X87.1120 Y12.7096
G01 X87.1263 Y12.7135
G01 X87.1404 Y12.7182
G01 X87.2328 Y12.7513
G01 X87.2467 Y12.7566
G01 X87.2602 Y12.7626
G01 X87.3490 Y12.8046
G01 X87.3622 Y12.8113
G01 X87.3751 Y12.8186
G01 X87.4593 Y12.8690
G01 X87.4719 Y12.8770
G01 X87.4840 Y12.8855
G01 X87.5628 Y12.9440
G01 X87.5745 Y12.9531
G01 X87.5858 Y12.9628
G01 X87.6585 Y13.0287
G01 X87.6692 Y13.0390
G01 X87.6795 Y13.0497
G01 X87.7454 Y13.1224
G01 X87.7551 Y13.1337
G01 X87.7642 Y13.1454
G01 X87.8227 Y13.2242
G01 X87.8312 Y13.2363
G01 X87.8392 Y13.2489
G01 X87.8896 Y13.3331
G01 X87.8969 Y13.3460
G01 X87.9036 Y13.3592
G01 X87.9456 Y13.4480
G01 X87.9516 Y13.4615
G01 X87.9569 Y13.4754
G01 X87.9900 Y13.5678
G01 X87.9947 Y13.5819
G01 X87.9986 Y13.5962
G01 X88.0225 Y13.6914
G01 X88.0257 Y13.7059
G01 X88.0283 Y13.7205
G01 X88.0427 Y13.8176
G01 X88.0445 Y13.8323
G01 X88.0456 Y13.8471
G01 X88.0504 Y13.9452
G01 X88.0507 Y13.9600
G01 X88.0504 Y13.9748
G01 X88.0456 Y14.0729
G01 X88.0445 Y14.0877
G01 X88.0427 Y14.1024
G01 X88.0283 Y14.1995
G01 X88.0257 Y14.2141
G01 X88.0225 Y14.2286
G01 X87.9986 Y14.3238
G01 X87.9947 Y14.3381
G01 X87.9900 Y14.3522
G01 X87.9569 Y14.4446
G01 X87.9516 Y14.4585
G01 X87.9456 Y14.4720
G01 X87.9036 Y14.5608
G01 X87.8969 Y14.5740
G01 X87.8896 Y14.5869
G01 X87.8392 Y14.6711
G01 X87.8312 Y14.6837
G01 X87.8227 Y14.6958
G01 X87.7642 Y14.7746
G01 X87.7551 Y14.7863
G01 X87.7454 Y14.7976
G01 X87.6795 Y14.8703
G01 X87.6692 Y14.8810
G01 X87.6585 Y14.8913
G01 X87.5858 Y14.9572
G01 X87.5745 Y14.9669
G01 X87.5628 Y14.9760
G01 X87.4840 Y15.0345
G01 X87.4719 Y15.0430
G01 X87.4593 Y15.0510
G01 X87.3751 Y15.1014
G01 X87.3622 Y15.1087
G01 X87.3490 Y15.1154
G01 X87.2602 Y15.1574
G01 X87.2467 Y15.1634
G01 X87.2328 Y15.1687
G01 X87.1404 Y15.2018
G01 X87.1263 Y15.2065
G01 X87.1120 Y15.2104
G01 X87.0338 Y15.2300
G01 X87.1120 Y15.2496
G01 X87.1263 Y15.2535
G01 X87.1404 Y15.2582
G01 X87.2328 Y15.2913
G01 X87.2467 Y15.2966
G01 X87.2602 Y15.3026
G01 X87.3490 Y15.3446
G01 X87.3622 Y15.3513
G01 X87.3751 Y15.3586
G01 X87.4593 Y15.4090
G01 X87.4719 Y15.4170
G01 X87.4840 Y15.4255
G01 X87.5628 Y15.4840
G01 X87.5745 Y15.4931
G01 X87.5858 Y15.5028
G01 X87.6585 Y15.5687
G01 X87.6692 Y15.5790
G01 X87.6795 Y15.5897
G01 X87.7454 Y15.6624
G01 X87.7551 Y15.6737
G01 X87.7642 Y15.6854
G01 X87.8227 Y15.7642
G01 X87.8312 Y15.7763
G01 X87.8392 Y15.7889
G01 X87.8896 Y15.8731
G01 X87.8969 Y15.8860
G01 X87.9036 Y15.8992
G01 X87.9456 Y15.9880
G01 X87.9516 Y16.0015
G01 X87.9569 Y16.0154
G01 X87.9900 Y16.1078
G01 X87.9947 Y16.1219
G01 X87.9986 Y16.1362
G01 X88.0225 Y16.2314
G01 X88.0257 Y16.2459
G01 X88.0283 Y16.2605
G01 X88.0437 Y16.3649
G01 X88.0456 Y16.3871
G01 X88.0504 Y16.4852
G01 X88.0507 Y16.5000
G01 X88.0504 Y16.5148
G01 X88.0456 Y16.6129
G01 X88.0445 Y16.6277
G01 X88.0427 Y16.6424
G01 X88.0283 Y16.7395
G01 X88.0257 Y16.7541
G01 X88.0225 Y16.7686
G01 X87.9986 Y16.8638
G01 X87.9947 Y16.8781
G01 X87.9900 Y16.8922
G01 X87.9569 Y16.9846
G01 X87.9516 Y16.9985
G01 X87.9456 Y17.0120
G01 X87.9036 Y17.1008
G01 X87.8969 Y17.1140
G01 X87.8896 Y17.1269
G01 X87.8392 Y17.2111
G01 X87.8270 Y17.2298
G01 X87.7642 Y17.3146
G01 X87.7551 Y17.3263
G01 X87.7454 Y17.3376
G01 X87.6795 Y17.4103
G01 X87.6692 Y17.4210
G01 X87.6585 Y17.4313
G01 X87.5858 Y17.4972
G01 X87.5745 Y17.5069
G01 X87.5628 Y17.5160
G01 X87.4840 Y17.5745
G01 X87.4719 Y17.5830
G01 X87.4593 Y17.5910
G01 X87.3751 Y17.6414
G01 X87.3622 Y17.6487
G01 X87.3490 Y17.6554
G01 X87.2602 Y17.6974
G01 X87.2467 Y17.7034
G01 X87.2328 Y17.7087
G01 X87.1404 Y17.7418
G01 X87.1263 Y17.7465
G01 X87.1120 Y17.7504
G01 X87.0338 Y17.7700
G01 X87.1120 Y17.7896
G01 X87.1263 Y17.7935
G01 X87.1404 Y17.7982
G01 X87.2328 Y17.8313
G01 X87.2467 Y17.8366
G01 X87.2602 Y17.8426
G01 X87.3490 Y17.8846
G01 X87.3622 Y17.8913
G01 X87.3751 Y17.8986
G01 X87.4593 Y17.9490
G01 X87.4719 Y17.9570
G01 X87.4840 Y17.9655
G01 X87.5628 Y18.0240
G01 X87.5745 Y18.0331
G01 X87.5858 Y18.0428
G01 X87.6585 Y18.1087
G01 X87.6692 Y18.1190
G01 X87.6795 Y18.1297
G01 X87.7454 Y18.2024
G01 X87.7551 Y18.2137
G01 X87.7642 Y18.2254
G01 X87.8227 Y18.3042
G01 X87.8312 Y18.3163
G01 X87.8392 Y18.3289
G01 X87.8896 Y18.4131
G01 X87.8969 Y18.4260
G01 X87.9036 Y18.4392
G01 X87.9456 Y18.5280
G01 X87.9516 Y18.5415
G01 X87.9569 Y18.5554
G01 X87.9900 Y18.6478
G01 X87.9947 Y18.6619
G01 X87.9986 Y18.6762
G01 X88.0225 Y18.7714
G01 X88.0257 Y18.7859
G01 X88.0283 Y18.8005
G01 X88.0427 Y18.8976
G01 X88.0445 Y18.9123
G01 X88.0456 Y18.9271
G01 X88.0504 Y19.0252
G01 X88.0507 Y19.0400
G01 X88.0504 Y19.0548
G01 X88.0456 Y19.1529
G01 X88.0445 Y19.1677
G01 X88.0427 Y19.1824
G01 X88.0283 Y19.2795
G01 X88.0257 Y19.2941
G01 X88.0225 Y19.3086
G01 X87.9986 Y19.4038
G01 X87.9947 Y19.4181
G01 X87.9900 Y19.4322
G01 X87.9569 Y19.5246
G01 X87.9516 Y19.5385
G01 X87.9456 Y19.5520
G01 X87.9036 Y19.6408
G01 X87.8969 Y19.6540
G01 X87.8896 Y19.6669
G01 X87.8392 Y19.7511
G01 X87.8312 Y19.7637
G01 X87.8227 Y19.7758
G01 X87.7642 Y19.8546
G01 X87.7551 Y19.8663
G01 X87.7454 Y19.8776
G01 X87.6795 Y19.9503
G01 X87.6692 Y19.9610
G01 X87.6585 Y19.9713
G01 X87.5858 Y20.0372
G01 X87.5745 Y20.0469
G01 X87.5628 Y20.0560
G01 X87.4840 Y20.1145
G01 X87.4719 Y20.1230
G01 X87.4593 Y20.1310
G01 X87.3751 Y20.1814
G01 X87.3622 Y20.1887
G01 X87.3490 Y20.1954
G01 X87.2602 Y20.2374
G01 X87.2467 Y20.2434
G01 X87.2328 Y20.2487
G01 X87.1404 Y20.2818
G01 X87.1263 Y20.2865
G01 X87.1120 Y20.2904
G01 X87.0168 Y20.3143
G01 X87.0023 Y20.3175
G01 X86.9877 Y20.3201
G01 X86.8906 Y20.3345
G01 X86.8759 Y20.3363
G01 X86.8611 Y20.3374
G01 X86.7630 Y20.3422
G01 X86.7482 Y20.3425
G01 X86.7334 Y20.3422
G01 X86.6353 Y20.3374
G01 X86.6205 Y20.3363
G01 X86.6058 Y20.3345
G01 X86.5087 Y20.3201
G01 X86.4941 Y20.3175
G01 X86.4796 Y20.3143
G01 X86.3844 Y20.2904
G01 X86.3701 Y20.2865
G01 X86.3560 Y20.2818
G01 X86.2636 Y20.2487
G01 X86.2497 Y20.2434
G01 X86.2362 Y20.2374
G01 X86.1474 Y20.1954
G01 X86.1342 Y20.1887
G01 X86.1213 Y20.1814
G01 X86.0371 Y20.1310
G01 X86.0245 Y20.1230
G01 X86.0124 Y20.1145
G01 X85.9336 Y20.0560
G01 X85.9162 Y20.0421
G01 X85.8379 Y19.9713
G01 X85.8272 Y19.9610
G01 X85.8169 Y19.9503
G01 X85.7510 Y19.8776
G01 X85.7413 Y19.8663
G01 X85.7322 Y19.8546
G01 X85.6737 Y19.7758
G01 X85.6652 Y19.7637
G01 X85.6572 Y19.7511
G01 X85.6068 Y19.6669
G01 X85.5995 Y19.6540
G01 X85.5928 Y19.6408
G01 X85.5508 Y19.5520
G01 X85.5448 Y19.5385
G01 X85.5395 Y19.5246
G01 X85.5064 Y19.4322
G01 X85.5017 Y19.4181
G01 X85.4978 Y19.4038
G01 X85.4739 Y19.3086
G01 X85.4707 Y19.2941
G01 X85.4681 Y19.2795
G01 X85.4537 Y19.1824
G01 X85.4519 Y19.1677
G01 X85.4508 Y19.1529
G01 X85.4460 Y19.0548
G01 X85.4457 Y19.0400
G01 X85.4460 Y19.0252
G01 X85.4508 Y18.9271
G01 X85.4519 Y18.9123
G01 X85.4537 Y18.8976
G01 X85.4681 Y18.8005
G01 X85.4707 Y18.7859
G01 X85.4739 Y18.7714
G01 X85.4978 Y18.6762
G01 X85.5017 Y18.6619
G01 X85.5064 Y18.6478
G01 X85.5395 Y18.5554
G01 X85.5448 Y18.5415
G01 X85.5508 Y18.5280
G01 X85.5928 Y18.4392
G01 X85.5995 Y18.4260
G01 X85.6068 Y18.4131
G01 X85.6572 Y18.3289
G01 X85.6652 Y18.3163
G01 X85.6737 Y18.3042
G01 X85.7322 Y18.2254
G01 X85.7413 Y18.2137
G01 X85.7510 Y18.2024
G01 X85.8169 Y18.1297
G01 X85.8272 Y18.1190
G01 X85.8379 Y18.1087
G01 X85.9106 Y18.0428
G01 X85.9219 Y18.0331
G01 X85.9336 Y18.0240
G01 X86.0124 Y17.9655
G01 X86.0245 Y17.9570
G01 X86.0371 Y17.9490
G01 X86.1213 Y17.8986
G01 X86.1342 Y17.8913
G01 X86.1474 Y17.8846
G01 X86.2362 Y17.8426
G01 X86.2497 Y17.8366
G01 X86.2636 Y17.8313
G01 X86.3560 Y17.7982
G01 X86.3701 Y17.7935
G01 X86.3844 Y17.7896
G01 X86.4626 Y17.7700
G01 X86.3844 Y17.7504
G01 X86.3701 Y17.7465
G01 X86.3560 Y17.7418
G01 X86.2636 Y17.7087
G01 X86.2497 Y17.7034
G01 X86.2362 Y17.6974
G01 X86.1474 Y17.6554
G01 X86.1342 Y17.6487
G01 X86.1213 Y17.6414
G01 X86.0308 Y17.5871
G01 X86.0124 Y17.5745
G01 X85.9336 Y17.5160
G01 X85.9219 Y17.5069
G01 X85.9106 Y17.4972
G01 X85.8379 Y17.4313
G01 X85.8272 Y17.4210
G01 X85.8169 Y17.4103
G01 X85.7510 Y17.3376
G01 X85.7367 Y17.3205
G01 X85.7234 Y17.3028
G01 X84.8725 Y17.3028
G01 X84.8577 Y17.3024
G01 X84.8086 Y17.3000
G01 X84.7938 Y17.2989
G01 X84.7791 Y17.2971
G01 X84.7305 Y17.2899
G01 X84.7159 Y17.2874
G01 X84.7014 Y17.2841
G01 X84.6538 Y17.2722
G01 X84.6395 Y17.2682
G01 X84.6254 Y17.2636
G01 X84.5791 Y17.2470
G01 X84.5653 Y17.2417
G01 X84.5517 Y17.2357
G01 X84.5073 Y17.2147
G01 X84.4876 Y17.2044
G01 X84.4327 Y17.1716
G01 X84.4143 Y17.1590
G01 X84.3749 Y17.1297
G01 X84.3632 Y17.1206
G01 X84.3321 Y17.0928
G01 X84.3048 Y17.0677
G01 X81.8830 Y14.6458
G01 X81.5400 Y14.6458
G01 X81.5267 Y14.6635
G01 X81.5124 Y14.6806
G01 X81.4465 Y14.7533
G01 X81.4362 Y14.7640
G01 X81.4255 Y14.7743
G01 X81.3528 Y14.8402
G01 X81.3415 Y14.8499
G01 X81.3298 Y14.8590
G01 X81.2510 Y14.9175
G01 X81.2326 Y14.9301
G01 X81.1421 Y14.9844
G01 X81.1292 Y14.9917
G01 X81.1160 Y14.9984
G01 X81.0272 Y15.0404
G01 X81.0137 Y15.0464
G01 X80.9998 Y15.0517
G01 X80.9074 Y15.0848
G01 X80.8933 Y15.0895
G01 X80.8790 Y15.0934
G01 X80.8008 Y15.1130
G01 X80.8790 Y15.1326
G01 X80.8933 Y15.1365
G01 X80.9074 Y15.1412
G01 X80.9998 Y15.1743
G01 X81.0137 Y15.1796
G01 X81.0272 Y15.1856
G01 X81.1160 Y15.2276
G01 X81.1292 Y15.2343
G01 X81.1421 Y15.2416
G01 X81.2263 Y15.2920
G01 X81.2389 Y15.3000
G01 X81.2510 Y15.3085
G01 X81.3298 Y15.3670
G01 X81.3415 Y15.3761
G01 X81.3528 Y15.3858
G01 X81.4255 Y15.4517
G01 X81.4362 Y15.4620
G01 X81.4465 Y15.4727
G01 X81.5124 Y15.5454
G01 X81.5221 Y15.5567
G01 X81.5312 Y15.5684
G01 X81.5897 Y15.6472
G01 X81.5982 Y15.6593
G01 X81.6062 Y15.6719
G01 X81.6566 Y15.7561
G01 X81.6639 Y15.7690
G01 X81.6706 Y15.7822
G01 X81.7126 Y15.8710
G01 X81.7186 Y15.8845
G01 X81.7239 Y15.8984
G01 X81.7570 Y15.9908
G01 X81.7617 Y16.0049
G01 X81.7656 Y16.0192
G01 X81.7895 Y16.1144
G01 X81.7927 Y16.1289
G01 X81.7953 Y16.1435
G01 X81.8097 Y16.2406
G01 X81.8115 Y16.2553
G01 X81.8126 Y16.2701
G01 X81.8174 Y16.3682
G01 X81.8177 Y16.3830
G01 X81.8174 Y16.3978
G01 X81.8126 Y16.4959
G01 X81.8115 Y16.5107
G01 X81.8097 Y16.5254
G01 X81.7953 Y16.6225
G01 X81.7927 Y16.6371
G01 X81.7895 Y16.6516
G01 X81.7656 Y16.7468
G01 X81.7617 Y16.7611
G01 X81.7570 Y16.7752
G01 X81.7239 Y16.8676
G01 X81.7186 Y16.8815
G01 X81.7126 Y16.8950
G01 X81.6706 Y16.9838
G01 X81.6639 Y16.9970
G01 X81.6566 Y17.0099
G01 X81.6062 Y17.0941
G01 X81.5982 Y17.1067
G01 X81.5897 Y17.1188
G01 X81.5312 Y17.1976
G01 X81.5221 Y17.2093
G01 X81.5124 Y17.2206
G01 X81.4465 Y17.2933
G01 X81.4362 Y17.3040
G01 X81.4255 Y17.3143
G01 X81.3528 Y17.3802
G01 X81.3415 Y17.3899
G01 X81.3298 Y17.3990
G01 X81.2510 Y17.4575
G01 X81.2389 Y17.4660
G01 X81.2263 Y17.4740
G01 X81.1421 Y17.5244
G01 X81.1292 Y17.5317
G01 X81.1160 Y17.5384
G01 X81.0272 Y17.5804
G01 X81.0137 Y17.5864
G01 X80.9998 Y17.5917
G01 X80.9074 Y17.6248
G01 X80.8933 Y17.6295
G01 X80.8790 Y17.6334
G01 X80.8008 Y17.6530
G01 X80.8790 Y17.6726
G01 X80.8933 Y17.6765
G01 X80.9074 Y17.6812
G01 X81.0068 Y17.7168
G01 X81.0272 Y17.7256
G01 X81.1160 Y17.7676
G01 X81.1357 Y17.7778
G01 X81.2263 Y17.8320
G01 X81.2389 Y17.8400
G01 X81.2510 Y17.8485
G01 X81.3298 Y17.9070
G01 X81.3415 Y17.9161
G01 X81.3528 Y17.9258
G01 X81.4255 Y17.9917
G01 X81.4414 Y18.0073
G01 X81.5124 Y18.0854
G01 X81.5221 Y18.0967
G01 X81.5312 Y18.1084
G01 X81.5897 Y18.1872
G01 X81.5982 Y18.1993
G01 X81.6062 Y18.2119
G01 X81.6566 Y18.2961
G01 X81.6639 Y18.3090
G01 X81.6706 Y18.3222
G01 X81.7126 Y18.4110
G01 X81.7186 Y18.4245
G01 X81.7239 Y18.4384
G01 X81.7570 Y18.5308
G01 X81.7617 Y18.5449
G01 X81.7656 Y18.5592
G01 X81.7895 Y18.6544
G01 X81.7927 Y18.6689
G01 X81.7953 Y18.6835
G01 X81.8097 Y18.7806
G01 X81.8115 Y18.7953
G01 X81.8126 Y18.8101
G01 X81.8174 Y18.9082
G01 X81.8177 Y18.9230
G01 X81.8174 Y18.9378
G01 X81.8126 Y19.0359
G01 X81.8115 Y19.0507
G01 X81.8097 Y19.0654
G01 X81.7953 Y19.1625
G01 X81.7927 Y19.1771
G01 X81.7895 Y19.1916
G01 X81.7656 Y19.2868
G01 X81.7617 Y19.3011
G01 X81.7570 Y19.3152
G01 X81.7239 Y19.4076
G01 X81.7186 Y19.4215
G01 X81.7126 Y19.4350
G01 X81.6706 Y19.5238
G01 X81.6639 Y19.5370
G01 X81.6566 Y19.5499
G01 X81.6062 Y19.6341
G01 X81.5982 Y19.6467
G01 X81.5897 Y19.6588
G01 X81.5312 Y19.7376
G01 X81.5221 Y19.7493
G01 X81.5124 Y19.7606
G01 X81.4465 Y19.8333
G01 X81.4362 Y19.8440
G01 X81.4255 Y19.8543
G01 X81.3528 Y19.9202
G01 X81.3415 Y19.9299
G01 X81.3298 Y19.9390
G01 X81.2510 Y19.9975
G01 X81.2389 Y20.0060
G01 X81.2263 Y20.0140
G01 X81.1421 Y20.0644
G01 X81.1292 Y20.0717
G01 X81.1160 Y20.0784
G01 X81.0272 Y20.1204
G01 X81.0137 Y20.1264
G01 X80.9998 Y20.1317
G01 X80.9074 Y20.1648
G01 X80.8933 Y20.1695
G01 X80.8790 Y20.1734
G01 X80.8008 Y20.1930
G01 X80.8790 Y20.2126
G01 X80.8933 Y20.2165
G01 X80.9074 Y20.2212
G01 X80.9998 Y20.2543
G01 X81.0137 Y20.2596
G01 X81.0272 Y20.2656
G01 X81.1160 Y20.3076
G01 X81.1292 Y20.3143
G01 X81.1421 Y20.3216
G01 X81.2263 Y20.3720
G01 X81.2389 Y20.3800
G01 X81.2510 Y20.3885
G01 X81.3298 Y20.4470
G01 X81.3415 Y20.4561
G01 X81.3528 Y20.4658
G01 X81.4255 Y20.5317
G01 X81.4362 Y20.5420
G01 X81.4465 Y20.5527
G01 X81.5124 Y20.6254
G01 X81.5221 Y20.6367
G01 X81.5312 Y20.6484
G01 X81.5897 Y20.7272
G01 X81.5982 Y20.7393
G01 X81.6062 Y20.7519
G01 X81.6566 Y20.8361
G01 X81.6639 Y20.8490
G01 X81.6706 Y20.8622
G01 X81.7126 Y20.9510
G01 X81.7186 Y20.9645
G01 X81.7239 Y20.9784
G01 X81.7570 Y21.0708
G01 X81.7617 Y21.0849
G01 X81.7656 Y21.0992
G01 X81.7895 Y21.1944
G01 X81.7927 Y21.2089
G01 X81.7953 Y21.2235
G01 X81.8097 Y21.3206
G01 X81.8115 Y21.3353
G01 X81.8126 Y21.3501
G01 X81.8174 Y21.4482
G01 X81.8177 Y21.4630
G01 X81.8174 Y21.4778
G01 X81.8126 Y21.5759
G01 X81.8115 Y21.5907
G01 X81.8097 Y21.6054
G01 X81.7953 Y21.7025
G01 X81.7927 Y21.7171
G01 X81.7895 Y21.7316
G01 X81.7656 Y21.8268
G01 X81.7617 Y21.8411
G01 X81.7570 Y21.8552
G01 X81.7239 Y21.9476
G01 X81.7186 Y21.9615
G01 X81.7126 Y21.9750
G01 X81.6706 Y22.0638
G01 X81.6639 Y22.0770
G01 X81.6566 Y22.0899
G01 X81.6062 Y22.1741
G01 X81.5982 Y22.1867
G01 X81.5897 Y22.1988
G01 X81.5312 Y22.2776
G01 X81.5221 Y22.2893
G01 X81.5124 Y22.3006
G01 X81.4465 Y22.3733
G01 X81.4362 Y22.3840
G01 X81.4255 Y22.3943
G01 X81.3528 Y22.4602
G01 X81.3415 Y22.4699
G01 X81.3298 Y22.4790
G01 X81.2510 Y22.5375
G01 X81.2389 Y22.5460
G01 X81.2263 Y22.5540
G01 X81.1421 Y22.6044
G01 X81.1292 Y22.6117
G01 X81.1160 Y22.6184
G01 X81.0272 Y22.6604
G01 X81.0137 Y22.6664
G01 X80.9998 Y22.6717
G01 X80.9074 Y22.7048
G01 X80.8933 Y22.7095
G01 X80.8790 Y22.7134
G01 X80.7838 Y22.7373
G01 X80.7693 Y22.7405
G01 X80.7547 Y22.7431
G01 X80.6576 Y22.7575
G01 X80.6429 Y22.7593
G01 X80.6281 Y22.7604
G01 X80.5300 Y22.7652
G01 X80.5152 Y22.7655
G01 X80.5004 Y22.7652
G01 X80.4023 Y22.7604
G01 X80.3875 Y22.7593
G01 X80.3728 Y22.7575
G01 X80.2757 Y22.7431
G01 X80.2611 Y22.7405
G01 X80.2466 Y22.7373
G01 X80.1514 Y22.7134
G01 X80.1371 Y22.7095
G01 X80.1230 Y22.7048
G01 X80.0306 Y22.6717
G01 X80.0167 Y22.6664
G01 X80.0032 Y22.6604
G01 X79.9144 Y22.6184
G01 X79.9012 Y22.6117
G01 X79.8883 Y22.6044
G01 X79.8041 Y22.5540
G01 X79.7915 Y22.5460
G01 X79.7794 Y22.5375
G01 X79.7006 Y22.4790
G01 X79.6889 Y22.4699
G01 X79.6776 Y22.4602
G01 X79.6049 Y22.3943
G01 X79.5890 Y22.3787
G01 X79.5180 Y22.3006
G01 X79.5083 Y22.2893
G01 X79.4992 Y22.2776
G01 X79.4407 Y22.1988
G01 X79.4322 Y22.1867
G01 X79.4242 Y22.1741
G01 X79.3738 Y22.0899
G01 X79.3665 Y22.0770
G01 X79.3598 Y22.0638
G01 X79.3178 Y21.9750
G01 X79.3118 Y21.9615
G01 X79.3065 Y21.9476
G01 X79.2734 Y21.8552
G01 X79.2687 Y21.8411
G01 X79.2648 Y21.8268
G01 X79.2409 Y21.7316
G01 X79.2377 Y21.7171
G01 X79.2351 Y21.7025
G01 X79.2207 Y21.6054
G01 X79.2189 Y21.5907
G01 X79.2178 Y21.5759
G01 X79.2130 Y21.4778
G01 X79.2127 Y21.4630
G01 X79.2130 Y21.4482
G01 X79.2178 Y21.3501
G01 X79.2189 Y21.3353
G01 X79.2207 Y21.3206
G01 X79.2351 Y21.2235
G01 X79.2377 Y21.2089
G01 X79.2409 Y21.1944
G01 X79.2648 Y21.0992
G01 X79.2687 Y21.0849
G01 X79.2734 Y21.0708
G01 X79.3065 Y20.9784
G01 X79.3118 Y20.9645
G01 X79.3178 Y20.9510
G01 X79.3598 Y20.8622
G01 X79.3665 Y20.8490
G01 X79.3738 Y20.8361
G01 X79.4242 Y20.7519
G01 X79.4322 Y20.7393
G01 X79.4407 Y20.7272
G01 X79.4992 Y20.6484
G01 X79.5083 Y20.6367
G01 X79.5180 Y20.6254
G01 X79.5839 Y20.5527
G01 X79.5942 Y20.5420
G01 X79.6049 Y20.5317
G01 X79.6776 Y20.4658
G01 X79.6889 Y20.4561
G01 X79.7006 Y20.4470
G01 X79.7794 Y20.3885
G01 X79.7915 Y20.3800
G01 X79.8041 Y20.3720
G01 X79.8883 Y20.3216
G01 X79.9012 Y20.3143
G01 X79.9144 Y20.3076
G01 X80.0032 Y20.2656
G01 X80.0167 Y20.2596
G01 X80.0306 Y20.2543
G01 X80.1230 Y20.2212
G01 X80.1371 Y20.2165
G01 X80.1514 Y20.2126
G01 X80.2296 Y20.1930
G01 X80.1514 Y20.1734
G01 X80.1371 Y20.1695
G01 X80.1230 Y20.1648
G01 X80.0306 Y20.1317
G01 X80.0167 Y20.1264
G01 X80.0032 Y20.1204
G01 X79.9144 Y20.0784
G01 X79.9012 Y20.0717
G01 X79.8883 Y20.0644
G01 X79.7978 Y20.0101
G01 X79.7794 Y19.9975
G01 X79.7006 Y19.9390
G01 X79.6889 Y19.9299
G01 X79.6776 Y19.9202
G01 X79.6049 Y19.8543
G01 X79.5942 Y19.8440
G01 X79.5839 Y19.8333
G01 X79.5180 Y19.7606
G01 X79.5037 Y19.7435
G01 X79.4904 Y19.7258
G01 X79.1474 Y19.7258
G01 X74.4287 Y24.4445
G01 X74.3813 Y24.4874
G01 X74.3639 Y24.5013
G01 X74.3245 Y24.5306
G01 X74.3123 Y24.5391
G01 X74.2998 Y24.5470
G01 X74.2512 Y24.5760
G01 X74.2315 Y24.5863
G01 X74.1871 Y24.6073
G01 X74.1735 Y24.6133
G01 X74.1597 Y24.6186
G01 X74.1134 Y24.6352
G01 X74.0993 Y24.6398
G01 X74.0850 Y24.6438
G01 X74.0374 Y24.6557
G01 X74.0229 Y24.6590
G01 X74.0083 Y24.6615
G01 X73.9597 Y24.6687
G01 X73.9450 Y24.6705
G01 X73.9302 Y24.6716
G01 X73.8811 Y24.6740
G01 X73.8663 Y24.6744
G01 X56.3908 Y24.6744
G01 X56.3760 Y24.6740
G01 X56.3269 Y24.6716
G01 X56.3121 Y24.6705
G01 X56.2974 Y24.6687
G01 X56.2488 Y24.6615
G01 X56.2342 Y24.6590
G01 X56.2197 Y24.6557
G01 X56.1721 Y24.6438
G01 X56.1578 Y24.6398
G01 X56.1437 Y24.6352
G01 X56.0905 Y24.6160
G01 X56.0700 Y24.6073
G01 X56.0256 Y24.5863
G01 X56.0124 Y24.5796
G01 X55.9994 Y24.5723
G01 X55.9510 Y24.5432
G01 X55.9326 Y24.5306
G01 X55.8873 Y24.4968
G01 X55.8703 Y24.4825
G01 X55.8339 Y24.4495
G01 X55.8231 Y24.4393
G01 X55.0282 Y23.6443
G01 X55.0063 Y23.6475
G01 X54.9915 Y23.6489
G01 X54.8786 Y23.6545
G01 X54.8564 Y23.6542
G01 X54.7509 Y23.6489
G01 X54.7288 Y23.6465
G01 X54.6317 Y23.6321
G01 X54.6171 Y23.6295
G01 X54.6026 Y23.6263
G01 X54.5074 Y23.6024
G01 X54.4931 Y23.5985
G01 X54.4790 Y23.5938
G01 X54.3866 Y23.5607
G01 X54.3727 Y23.5554
G01 X54.3592 Y23.5494
G01 X54.2704 Y23.5074
G01 X54.2572 Y23.5007
G01 X54.2443 Y23.4934
G01 X54.1601 Y23.4430
G01 X54.1475 Y23.4350
G01 X54.1354 Y23.4265
G01 X54.0566 Y23.3680
G01 X54.0449 Y23.3589
G01 X54.0336 Y23.3492
G01 X53.9609 Y23.2833
G01 X53.9502 Y23.2730
G01 X53.9399 Y23.2623
G01 X53.8740 Y23.1896
G01 X53.8643 Y23.1783
G01 X53.8552 Y23.1666
G01 X53.7967 Y23.0878
G01 X53.7882 Y23.0757
G01 X53.7802 Y23.0631
G01 X53.7298 Y22.9789
G01 X53.7225 Y22.9660
G01 X53.7158 Y22.9528
G01 X53.6738 Y22.8640
G01 X53.6678 Y22.8505
G01 X53.6625 Y22.8366
G01 X53.6294 Y22.7442
G01 X53.6247 Y22.7301
G01 X53.6208 Y22.7158
G01 X53.5969 Y22.6206
G01 X53.5937 Y22.6061
G01 X53.5911 Y22.5915
G01 X53.5767 Y22.4944
G01 X53.5749 Y22.4797
G01 X53.5738 Y22.4649
G01 X53.5690 Y22.3668
G01 X53.5687 Y22.3520
G01 X53.5690 Y22.3372
G01 X53.5738 Y22.2391
G01 X53.5749 Y22.2243
G01 X53.5767 Y22.2096
G01 X53.5911 Y22.1125
G01 X53.5937 Y22.0979
G01 X53.5969 Y22.0834
G01 X53.6208 Y21.9882
G01 X53.6247 Y21.9739
G01 X53.6294 Y21.9598
G01 X53.6625 Y21.8674
G01 X53.6678 Y21.8535
G01 X53.6738 Y21.8400
G01 X53.7158 Y21.7512
G01 X53.7225 Y21.7380
G01 X53.7298 Y21.7251
G01 X53.7802 Y21.6409
G01 X53.7882 Y21.6283
G01 X53.7967 Y21.6162
G01 X53.8552 Y21.5374
G01 X53.8643 Y21.5257
G01 X53.8740 Y21.5144
G01 X53.9450 Y21.4363
G01 X53.9609 Y21.4207
G01 X54.0336 Y21.3548
G01 X54.0449 Y21.3451
G01 X54.0566 Y21.3360
G01 X54.1354 Y21.2775
G01 X54.1475 Y21.2690
G01 X54.1601 Y21.2610
G01 X54.2443 Y21.2106
G01 X54.2572 Y21.2033
G01 X54.2704 Y21.1966
G01 X54.3592 Y21.1546
G01 X54.3727 Y21.1486
G01 X54.3866 Y21.1433
G01 X54.4790 Y21.1102
G01 X54.4931 Y21.1055
G01 X54.5074 Y21.1016
G01 X54.6026 Y21.0777
G01 X54.6171 Y21.0745
G01 X54.6317 Y21.0719
G01 X54.7288 Y21.0575
G01 X54.7435 Y21.0557
G01 X54.7583 Y21.0546
G01 X54.8564 Y21.0498
G01 X54.8786 Y21.0495
G01 X54.9915 Y21.0551
G01 X55.0063 Y21.0565
G01 X55.0282 Y21.0597
G01 X55.4654 Y20.6225
G01 X55.4654 Y18.1698
G01 X55.4477 Y18.1565
G01 X55.4362 Y18.1471
G01 X55.3525 Y18.0712
G01 X55.3369 Y18.0553
G01 X55.2710 Y17.9826
G01 X55.2613 Y17.9713
G01 X55.2522 Y17.9596
G01 X55.1937 Y17.8808
G01 X55.1852 Y17.8687
G01 X55.1772 Y17.8561
G01 X55.1268 Y17.7719
G01 X55.1195 Y17.7590
G01 X55.1128 Y17.7458
G01 X55.0708 Y17.6570
G01 X55.0648 Y17.6435
G01 X55.0595 Y17.6296
G01 X55.0264 Y17.5372
G01 X55.0217 Y17.5231
G01 X55.0178 Y17.5088
G01 X54.9939 Y17.4136
G01 X54.9907 Y17.3991
G01 X54.9881 Y17.3845
G01 X54.9737 Y17.2874
G01 X54.9719 Y17.2727
G01 X54.9708 Y17.2579
G01 X54.9660 Y17.1598
G01 X54.9657 Y17.1385
G01 X51.6705 Y20.4338
G01 X51.6597 Y20.4440
G01 X51.6233 Y20.4770
G01 X51.6121 Y20.4867
G01 X51.6004 Y20.4958
G01 X51.5610 Y20.5251
G01 X51.5488 Y20.5336
G01 X51.5363 Y20.5415
G01 X51.4942 Y20.5668
G01 X51.4746 Y20.5775
G01 X51.4168 Y20.6049
G01 X51.3962 Y20.6131
G01 X51.3499 Y20.6297
G01 X51.3358 Y20.6343
G01 X51.3215 Y20.6383
G01 X51.2739 Y20.6502
G01 X51.2521 Y20.6548
G01 X51.1889 Y20.6642
G01 X51.1667 Y20.6661
G01 X51.1102 Y20.6688
G01 X47.7836 Y20.6689
G01 X43.8955 Y24.5570
G01 X43.9042 Y24.5693
G01 X43.9122 Y24.5819
G01 X43.9626 Y24.6661
G01 X43.9699 Y24.6790
G01 X43.9766 Y24.6922
G01 X44.0217 Y24.7877
G01 X44.0299 Y24.8084
G01 X44.0630 Y24.9008
G01 X44.0677 Y24.9149
G01 X44.0716 Y24.9292
G01 X44.0912 Y25.0074
G01 X44.1108 Y24.9292
G01 X44.1147 Y24.9149
G01 X44.1194 Y24.9008
G01 X44.1525 Y24.8084
G01 X44.1578 Y24.7945
G01 X44.1638 Y24.7810
G01 X44.2058 Y24.6922
G01 X44.2125 Y24.6790
G01 X44.2198 Y24.6661
G01 X44.2702 Y24.5819
G01 X44.2782 Y24.5693
G01 X44.2867 Y24.5572
G01 X44.3452 Y24.4784
G01 X44.3543 Y24.4667
G01 X44.3640 Y24.4554
G01 X44.4299 Y24.3827
G01 X44.4402 Y24.3720
G01 X44.4509 Y24.3617
G01 X44.5236 Y24.2958
G01 X44.5349 Y24.2861
G01 X44.5466 Y24.2770
G01 X44.6254 Y24.2185
G01 X44.6375 Y24.2100
G01 X44.6501 Y24.2020
G01 X44.7343 Y24.1516
G01 X44.7472 Y24.1443
G01 X44.7604 Y24.1376
G01 X44.8492 Y24.0956
G01 X44.8627 Y24.0896
G01 X44.8766 Y24.0843
G01 X44.9690 Y24.0512
G01 X44.9831 Y24.0465
G01 X44.9974 Y24.0426
G01 X45.0926 Y24.0187
G01 X45.1071 Y24.0155
G01 X45.1217 Y24.0129
G01 X45.2188 Y23.9985
G01 X45.2335 Y23.9967
G01 X45.2483 Y23.9956
G01 X45.3464 Y23.9908
G01 X45.3612 Y23.9905
G01 X45.3760 Y23.9908
G01 X45.4741 Y23.9956
G01 X45.4889 Y23.9967
G01 X45.5036 Y23.9985
G01 X45.6080 Y24.0141
G01 X45.6298 Y24.0187
G01 X45.7250 Y24.0426
G01 X45.7393 Y24.0465
G01 X45.7534 Y24.0512
G01 X45.8458 Y24.0843
G01 X45.8597 Y24.0896
G01 X45.8732 Y24.0956
G01 X45.9620 Y24.1376
G01 X45.9752 Y24.1443
G01 X45.9881 Y24.1516
G01 X46.0723 Y24.2020
G01 X46.0849 Y24.2100
G01 X46.0970 Y24.2185
G01 X46.1758 Y24.2770
G01 X46.1875 Y24.2861
G01 X46.1988 Y24.2958
G01 X46.2769 Y24.3668
G01 X46.2925 Y24.3827
G01 X46.3584 Y24.4554
G01 X46.3681 Y24.4667
G01 X46.3772 Y24.4784
G01 X46.4357 Y24.5572
G01 X46.4442 Y24.5693
G01 X46.4522 Y24.5819
G01 X46.5064 Y24.6725
G01 X46.5166 Y24.6922
G01 X46.5586 Y24.7810
G01 X46.5674 Y24.8014
G01 X46.6030 Y24.9008
G01 X46.6077 Y24.9149
G01 X46.6116 Y24.9292
G01 X46.6312 Y25.0074
G01 X46.6508 Y24.9292
G01 X46.6547 Y24.9149
G01 X46.6594 Y24.9008
G01 X46.6925 Y24.8084
G01 X46.6978 Y24.7945
G01 X46.7038 Y24.7810
G01 X46.7458 Y24.6922
G01 X46.7525 Y24.6790
G01 X46.7598 Y24.6661
G01 X46.8102 Y24.5819
G01 X46.8182 Y24.5693
G01 X46.8267 Y24.5572
G01 X46.8897 Y24.4725
G01 X46.9040 Y24.4554
G01 X46.9699 Y24.3827
G01 X46.9802 Y24.3720
G01 X46.9909 Y24.3617
G01 X47.0636 Y24.2958
G01 X47.0749 Y24.2861
G01 X47.0866 Y24.2770
G01 X47.1654 Y24.2185
G01 X47.1775 Y24.2100
G01 X47.1901 Y24.2020
G01 X47.2743 Y24.1516
G01 X47.2938 Y24.1408
G01 X47.3892 Y24.0956
G01 X47.4027 Y24.0896
G01 X47.4166 Y24.0843
G01 X47.5090 Y24.0512
G01 X47.5231 Y24.0465
G01 X47.5374 Y24.0426
G01 X47.6326 Y24.0187
G01 X47.6471 Y24.0155
G01 X47.6617 Y24.0129
G01 X47.7588 Y23.9985
G01 X47.7735 Y23.9967
G01 X47.7883 Y23.9956
G01 X47.8864 Y23.9908
G01 X47.9012 Y23.9905
G01 X47.9160 Y23.9908
G01 X48.0141 Y23.9956
G01 X48.0289 Y23.9967
G01 X48.0436 Y23.9985
G01 X48.1407 Y24.0129
G01 X48.1553 Y24.0155
G01 X48.1698 Y24.0187
G01 X48.2650 Y24.0426
G01 X48.2793 Y24.0465
G01 X48.2934 Y24.0512
G01 X48.3858 Y24.0843
G01 X48.4065 Y24.0925
G01 X48.5020 Y24.1376
G01 X48.5152 Y24.1443
G01 X48.5281 Y24.1516
G01 X48.6123 Y24.2020
G01 X48.6249 Y24.2100
G01 X48.6370 Y24.2185
G01 X48.7158 Y24.2770
G01 X48.7275 Y24.2861
G01 X48.7388 Y24.2958
G01 X48.8115 Y24.3617
G01 X48.8222 Y24.3720
G01 X48.8325 Y24.3827
G01 X48.8984 Y24.4554
G01 X48.9081 Y24.4667
G01 X48.9172 Y24.4784
G01 X48.9757 Y24.5572
G01 X48.9842 Y24.5693
G01 X48.9922 Y24.5819
G01 X49.0426 Y24.6661
G01 X49.0499 Y24.6790
G01 X49.0566 Y24.6922
G01 X49.0986 Y24.7810
G01 X49.1046 Y24.7945
G01 X49.1099 Y24.8084
G01 X49.1430 Y24.9008
G01 X49.1477 Y24.9149
G01 X49.1516 Y24.9292
G01 X49.1755 Y25.0244
G01 X49.1787 Y25.0389
G01 X49.1813 Y25.0535
G01 X49.1957 Y25.1506
G01 X49.1975 Y25.1653
G01 X49.1986 Y25.1801
G01 X49.2034 Y25.2782
G01 X49.2037 Y25.2930
G01 X49.2034 Y25.3078
G01 X49.1986 Y25.4059
G01 X49.1975 Y25.4207
G01 X49.1957 Y25.4354
G01 X49.1813 Y25.5325
G01 X49.1787 Y25.5471
G01 X49.1755 Y25.5616
G01 X49.1516 Y25.6568
G01 X49.1477 Y25.6711
G01 X49.1430 Y25.6852
G01 X49.1099 Y25.7776
G01 X49.1046 Y25.7915
G01 X49.0986 Y25.8050
G01 X49.0566 Y25.8938
G01 X49.0499 Y25.9070
G01 X49.0426 Y25.9199
G01 X48.9922 Y26.0041
G01 X48.9842 Y26.0167
G01 X48.9757 Y26.0288
G01 X48.9172 Y26.1076
G01 X48.9081 Y26.1193
G01 X48.8984 Y26.1306
G01 X48.8325 Y26.2033
G01 X48.8222 Y26.2140
G01 X48.8115 Y26.2243
G01 X48.7388 Y26.2902
G01 X48.7275 Y26.2999
G01 X48.7158 Y26.3090
G01 X48.6370 Y26.3675
G01 X48.6249 Y26.3760
G01 X48.6123 Y26.3840
G01 X48.5281 Y26.4344
G01 X48.5152 Y26.4417
G01 X48.5020 Y26.4484
G01 X48.4132 Y26.4904
G01 X48.3997 Y26.4964
G01 X48.3858 Y26.5017
G01 X48.2934 Y26.5348
G01 X48.2793 Y26.5395
G01 X48.2650 Y26.5434
G01 X48.1698 Y26.5673
G01 X48.1553 Y26.5705
G01 X48.1407 Y26.5731
G01 X48.0436 Y26.5875
G01 X48.0289 Y26.5893
G01 X48.0141 Y26.5904
G01 X47.9160 Y26.5952
G01 X47.9012 Y26.5955
G01 X47.8864 Y26.5952
G01 X47.7883 Y26.5904
G01 X47.7735 Y26.5893
G01 X47.7588 Y26.5875
G01 X47.6617 Y26.5731
G01 X47.6471 Y26.5705
G01 X47.6326 Y26.5673
G01 X47.5374 Y26.5434
G01 X47.5231 Y26.5395
G01 X47.5090 Y26.5348
G01 X47.4166 Y26.5017
G01 X47.4027 Y26.4964
G01 X47.3892 Y26.4904
G01 X47.3004 Y26.4484
G01 X47.2872 Y26.4417
G01 X47.2743 Y26.4344
G01 X47.1901 Y26.3840
G01 X47.1775 Y26.3760
G01 X47.1654 Y26.3675
G01 X47.0866 Y26.3090
G01 X47.0749 Y26.2999
G01 X47.0636 Y26.2902
G01 X46.9909 Y26.2243
G01 X46.9802 Y26.2140
G01 X46.9699 Y26.2033
G01 X46.9040 Y26.1306
G01 X46.8943 Y26.1193
G01 X46.8852 Y26.1076
G01 X46.8267 Y26.0288
G01 X46.8182 Y26.0167
G01 X46.8102 Y26.0041
G01 X46.7598 Y25.9199
G01 X46.7525 Y25.9070
G01 X46.7458 Y25.8938
G01 X46.7038 Y25.8050
G01 X46.6978 Y25.7915
G01 X46.6925 Y25.7776
G01 X46.6594 Y25.6852
G01 X46.6547 Y25.6711
G01 X46.6508 Y25.6568
G01 X46.6312 Y25.5786
G01 X46.6116 Y25.6568
G01 X46.6077 Y25.6711
G01 X46.6030 Y25.6852
G01 X46.5699 Y25.7776
G01 X46.5617 Y25.7983
G01 X46.5166 Y25.8938
G01 X46.5099 Y25.9070
G01 X46.5026 Y25.9199
G01 X46.4522 Y26.0041
G01 X46.4400 Y26.0228
G01 X46.3772 Y26.1076
G01 X46.3681 Y26.1193
G01 X46.3584 Y26.1306
G01 X46.2925 Y26.2033
G01 X46.2822 Y26.2140
G01 X46.2715 Y26.2243
G01 X46.1988 Y26.2902
G01 X46.1875 Y26.2999
G01 X46.1758 Y26.3090
G01 X46.0970 Y26.3675
G01 X46.0786 Y26.3801
G01 X45.9881 Y26.4344
G01 X45.9752 Y26.4417
G01 X45.9620 Y26.4484
G01 X45.8732 Y26.4904
G01 X45.8597 Y26.4964
G01 X45.8458 Y26.5017
G01 X45.7534 Y26.5348
G01 X45.7393 Y26.5395
G01 X45.7250 Y26.5434
G01 X45.6298 Y26.5673
G01 X45.6153 Y26.5705
G01 X45.6007 Y26.5731
G01 X45.5036 Y26.5875
G01 X45.4889 Y26.5893
G01 X45.4741 Y26.5904
G01 X45.3760 Y26.5952
G01 X45.3612 Y26.5955
G01 X45.3464 Y26.5952
G01 X45.2483 Y26.5904
G01 X45.2335 Y26.5893
G01 X45.2188 Y26.5875
G01 X45.1217 Y26.5731
G01 X45.0998 Y26.5690
G01 X44.9974 Y26.5434
G01 X44.9831 Y26.5395
G01 X44.9690 Y26.5348
G01 X44.8766 Y26.5017
G01 X44.8627 Y26.4964
G01 X44.8492 Y26.4904
G01 X44.7604 Y26.4484
G01 X44.7472 Y26.4417
G01 X44.7343 Y26.4344
G01 X44.6501 Y26.3840
G01 X44.6375 Y26.3760
G01 X44.6254 Y26.3675
G01 X44.5466 Y26.3090
G01 X44.5349 Y26.2999
G01 X44.5236 Y26.2902
G01 X44.4509 Y26.2243
G01 X44.4402 Y26.2140
G01 X44.4299 Y26.2033
G01 X44.3640 Y26.1306
G01 X44.3543 Y26.1193
G01 X44.3452 Y26.1076
G01 X44.2867 Y26.0288
G01 X44.2782 Y26.0167
G01 X44.2702 Y26.0041
G01 X44.2198 Y25.9199
G01 X44.2125 Y25.9070
G01 X44.2058 Y25.8938
G01 X44.1638 Y25.8050
G01 X44.1578 Y25.7915
G01 X44.1525 Y25.7776
G01 X44.1194 Y25.6852
G01 X44.1147 Y25.6711
G01 X44.1108 Y25.6568
G01 X44.0912 Y25.5786
G01 X44.0716 Y25.6568
G01 X44.0677 Y25.6711
G01 X44.0630 Y25.6852
G01 X44.0299 Y25.7776
G01 X44.0246 Y25.7915
G01 X44.0186 Y25.8050
G01 X43.9766 Y25.8938
G01 X43.9699 Y25.9070
G01 X43.9626 Y25.9199
G01 X43.9122 Y26.0041
G01 X43.9042 Y26.0167
G01 X43.8957 Y26.0288
G01 X43.8372 Y26.1076
G01 X43.8281 Y26.1193
G01 X43.8184 Y26.1306
G01 X43.7525 Y26.2033
G01 X43.7422 Y26.2140
G01 X43.7315 Y26.2243
G01 X43.6588 Y26.2902
G01 X43.6475 Y26.2999
G01 X43.6358 Y26.3090
G01 X43.5510 Y26.3718
G01 X43.5323 Y26.3840
G01 X43.4481 Y26.4344
G01 X43.4352 Y26.4417
G01 X43.4220 Y26.4484
G01 X43.3332 Y26.4904
G01 X43.3197 Y26.4964
G01 X43.3058 Y26.5017
G01 X43.2134 Y26.5348
G01 X43.1993 Y26.5395
G01 X43.1850 Y26.5434
G01 X43.0898 Y26.5673
G01 X43.0753 Y26.5705
G01 X43.0607 Y26.5731
G01 X42.9636 Y26.5875
G01 X42.9489 Y26.5893
G01 X42.9341 Y26.5904
G01 X42.8360 Y26.5952
G01 X42.8212 Y26.5955
G01 X42.8064 Y26.5952
G01 X42.7083 Y26.5904
G01 X42.6861 Y26.5885
G01 X42.5817 Y26.5731
G01 X42.5671 Y26.5705
G01 X42.5526 Y26.5673
G01 X42.4574 Y26.5434
G01 X42.4431 Y26.5395
G01 X42.4290 Y26.5348
G01 X42.3366 Y26.5017
G01 X42.3227 Y26.4964
G01 X42.3092 Y26.4904
G01 X42.2204 Y26.4484
G01 X42.2072 Y26.4417
G01 X42.1943 Y26.4344
G01 X42.1101 Y26.3840
G01 X42.0975 Y26.3760
G01 X42.0854 Y26.3675
G01 X42.0066 Y26.3090
G01 X41.9949 Y26.2999
G01 X41.9836 Y26.2902
G01 X41.9109 Y26.2243
G01 X41.9002 Y26.2140
G01 X41.8899 Y26.2033
G01 X41.8240 Y26.1306
G01 X41.8143 Y26.1193
G01 X41.8052 Y26.1076
G01 X41.7467 Y26.0288
G01 X41.7382 Y26.0167
G01 X41.7302 Y26.0041
G01 X41.6798 Y25.9199
G01 X41.6725 Y25.9070
G01 X41.6658 Y25.8938
G01 X41.6238 Y25.8050
G01 X41.6178 Y25.7915
G01 X41.6125 Y25.7776
G01 X41.5794 Y25.6852
G01 X41.5747 Y25.6711
G01 X41.5708 Y25.6568
G01 X41.5512 Y25.5786
G01 X41.5316 Y25.6568
G01 X41.5277 Y25.6711
G01 X41.5230 Y25.6852
G01 X41.4899 Y25.7776
G01 X41.4846 Y25.7915
G01 X41.4786 Y25.8050
G01 X41.4366 Y25.8938
G01 X41.4299 Y25.9070
G01 X41.4226 Y25.9199
G01 X41.3722 Y26.0041
G01 X41.3642 Y26.0167
G01 X41.3557 Y26.0288
G01 X41.2972 Y26.1076
G01 X41.2881 Y26.1193
G01 X41.2784 Y26.1306
G01 X41.2125 Y26.2033
G01 X41.2022 Y26.2140
G01 X41.1915 Y26.2243
G01 X41.1188 Y26.2902
G01 X41.1075 Y26.2999
G01 X41.0958 Y26.3090
G01 X41.0170 Y26.3675
G01 X41.0049 Y26.3760
G01 X40.9923 Y26.3840
G01 X40.9081 Y26.4344
G01 X40.8952 Y26.4417
G01 X40.8820 Y26.4484
G01 X40.7932 Y26.4904
G01 X40.7797 Y26.4964
G01 X40.7658 Y26.5017
G01 X40.6734 Y26.5348
G01 X40.6593 Y26.5395
G01 X40.6450 Y26.5434
G01 X40.5498 Y26.5673
G01 X40.5353 Y26.5705
G01 X40.5207 Y26.5731
G01 X40.4236 Y26.5875
G01 X40.4089 Y26.5893
G01 X40.3941 Y26.5904
G01 X40.2960 Y26.5952
G01 X40.2812 Y26.5955
G01 X40.2664 Y26.5952
G01 X40.1683 Y26.5904
G01 X40.1535 Y26.5893
G01 X40.1388 Y26.5875
G01 X40.0417 Y26.5731
G01 X40.0271 Y26.5705
G01 X40.0126 Y26.5673
G01 X39.9174 Y26.5434
G01 X39.9031 Y26.5395
G01 X39.8890 Y26.5348
G01 X39.7966 Y26.5017
G01 X39.7827 Y26.4964
G01 X39.7692 Y26.4904
G01 X39.6804 Y26.4484
G01 X39.6672 Y26.4417
G01 X39.6543 Y26.4344
G01 X39.5701 Y26.3840
G01 X39.5575 Y26.3760
G01 X39.5454 Y26.3675
G01 X39.4666 Y26.3090
G01 X39.4549 Y26.2999
G01 X39.4436 Y26.2902
G01 X39.3709 Y26.2243
G01 X39.3602 Y26.2140
G01 X39.3499 Y26.2033
G01 X39.2840 Y26.1306
G01 X39.2743 Y26.1193
G01 X39.2652 Y26.1076
G01 X39.2067 Y26.0288
G01 X39.1982 Y26.0167
G01 X39.1902 Y26.0041
G01 X39.1398 Y25.9199
G01 X39.1325 Y25.9070
G01 X39.1258 Y25.8938
G01 X39.0838 Y25.8050
G01 X39.0778 Y25.7915
G01 X39.0725 Y25.7776
G01 X39.0394 Y25.6852
G01 X39.0347 Y25.6711
G01 X39.0308 Y25.6568
G01 X39.0112 Y25.5786
G01 X38.9916 Y25.6568
G01 X38.9877 Y25.6711
G01 X38.9830 Y25.6852
G01 X38.9499 Y25.7776
G01 X38.9446 Y25.7915
G01 X38.9386 Y25.8050
G01 X38.8966 Y25.8938
G01 X38.8899 Y25.9070
G01 X38.8826 Y25.9199
G01 X38.8322 Y26.0041
G01 X38.8242 Y26.0167
G01 X38.8157 Y26.0288
G01 X38.7572 Y26.1076
G01 X38.7481 Y26.1193
G01 X38.7384 Y26.1306
G01 X38.6725 Y26.2033
G01 X38.6622 Y26.2140
G01 X38.6515 Y26.2243
G01 X38.5788 Y26.2902
G01 X38.5675 Y26.2999
G01 X38.5558 Y26.3090
G01 X38.4770 Y26.3675
G01 X38.4649 Y26.3760
G01 X38.4523 Y26.3840
G01 X38.3681 Y26.4344
G01 X38.3552 Y26.4417
G01 X38.3420 Y26.4484
G01 X38.2532 Y26.4904
G01 X38.2397 Y26.4964
G01 X38.2258 Y26.5017
G01 X38.1334 Y26.5348
G01 X38.1193 Y26.5395
G01 X38.1050 Y26.5434
G01 X38.0098 Y26.5673
G01 X37.9953 Y26.5705
G01 X37.9807 Y26.5731
G01 X37.8836 Y26.5875
G01 X37.8689 Y26.5893
G01 X37.8541 Y26.5904
G01 X37.7560 Y26.5952
G01 X37.7412 Y26.5955
G01 X37.7264 Y26.5952
G01 X37.6209 Y26.5899
G01 X37.5988 Y26.5875
G01 X37.5017 Y26.5731
G01 X37.4871 Y26.5705
G01 X37.4726 Y26.5673
G01 X37.3774 Y26.5434
G01 X37.3631 Y26.5395
G01 X37.3490 Y26.5348
G01 X37.2566 Y26.5017
G01 X37.2427 Y26.4964
G01 X37.2292 Y26.4904
G01 X37.1404 Y26.4484
G01 X37.1272 Y26.4417
G01 X37.1143 Y26.4344
G01 X37.0301 Y26.3840
G01 X37.0175 Y26.3760
G01 X37.0054 Y26.3675
G01 X36.9266 Y26.3090
G01 X36.9092 Y26.2951
G01 X36.8309 Y26.2243
G01 X36.8202 Y26.2140
G01 X36.8099 Y26.2033
G01 X36.7440 Y26.1306
G01 X36.7343 Y26.1193
G01 X36.7252 Y26.1076
G01 X36.6667 Y26.0288
G01 X36.6582 Y26.0167
G01 X36.6502 Y26.0041
G01 X36.5998 Y25.9199
G01 X36.5925 Y25.9070
G01 X36.5858 Y25.8938
G01 X36.5438 Y25.8050
G01 X36.5378 Y25.7915
G01 X36.5325 Y25.7776
G01 X36.4994 Y25.6852
G01 X36.4947 Y25.6711
G01 X36.4908 Y25.6568
G01 X36.4712 Y25.5786
G01 X36.4516 Y25.6568
G01 X36.4477 Y25.6711
G01 X36.4430 Y25.6852
G01 X36.4099 Y25.7776
G01 X36.4046 Y25.7915
G01 X36.3986 Y25.8050
G01 X36.3566 Y25.8938
G01 X36.3499 Y25.9070
G01 X36.3426 Y25.9199
G01 X36.2922 Y26.0041
G01 X36.2842 Y26.0167
G01 X36.2757 Y26.0288
G01 X36.2172 Y26.1076
G01 X36.2081 Y26.1193
G01 X36.1984 Y26.1306
G01 X36.1325 Y26.2033
G01 X36.1222 Y26.2140
G01 X36.1115 Y26.2243
G01 X36.0388 Y26.2902
G01 X36.0275 Y26.2999
G01 X36.0158 Y26.3090
G01 X35.9370 Y26.3675
G01 X35.9249 Y26.3760
G01 X35.9123 Y26.3840
G01 X35.8281 Y26.4344
G01 X35.8152 Y26.4417
G01 X35.8020 Y26.4484
G01 X35.7132 Y26.4904
G01 X35.6997 Y26.4964
G01 X35.6858 Y26.5017
G01 X35.5934 Y26.5348
G01 X35.5793 Y26.5395
G01 X35.5650 Y26.5434
G01 X35.4698 Y26.5673
G01 X35.4553 Y26.5705
G01 X35.4407 Y26.5731
G01 X35.3436 Y26.5875
G01 X35.3289 Y26.5893
G01 X35.3141 Y26.5904
G01 X35.2160 Y26.5952
G01 X35.2012 Y26.5955
G01 X35.1864 Y26.5952
G01 X35.0809 Y26.5899
G01 X35.0588 Y26.5875
G01 X34.9617 Y26.5731
G01 X34.9471 Y26.5705
G01 X34.9326 Y26.5673
G01 X34.8374 Y26.5434
G01 X34.8231 Y26.5395
G01 X34.8090 Y26.5348
G01 X34.7166 Y26.5017
G01 X34.7027 Y26.4964
G01 X34.6892 Y26.4904
G01 X34.6004 Y26.4484
G01 X34.5872 Y26.4417
G01 X34.5743 Y26.4344
G01 X34.4901 Y26.3840
G01 X34.4775 Y26.3760
G01 X34.4654 Y26.3675
G01 X34.3866 Y26.3090
G01 X34.3692 Y26.2951
G01 X34.2909 Y26.2243
G01 X34.2802 Y26.2140
G01 X34.2699 Y26.2033
G01 X34.2040 Y26.1306
G01 X34.1943 Y26.1193
G01 X34.1852 Y26.1076
G01 X34.1267 Y26.0288
G01 X34.1182 Y26.0167
G01 X34.1102 Y26.0041
G01 X34.0598 Y25.9199
G01 X34.0525 Y25.9070
G01 X34.0458 Y25.8938
G01 X34.0038 Y25.8050
G01 X33.9978 Y25.7915
G01 X33.9925 Y25.7776
G01 X33.9594 Y25.6852
G01 X33.9547 Y25.6711
G01 X33.9508 Y25.6568
G01 X33.9312 Y25.5786
G01 X33.9116 Y25.6568
G01 X33.9077 Y25.6711
G01 X33.9030 Y25.6852
G01 X33.8699 Y25.7776
G01 X33.8646 Y25.7915
G01 X33.8586 Y25.8050
G01 X33.8166 Y25.8938
G01 X33.8099 Y25.9070
G01 X33.8026 Y25.9199
G01 X33.7522 Y26.0041
G01 X33.7442 Y26.0167
G01 X33.7357 Y26.0288
G01 X33.6772 Y26.1076
G01 X33.6681 Y26.1193
G01 X33.6584 Y26.1306
G01 X33.5925 Y26.2033
G01 X33.5822 Y26.2140
G01 X33.5715 Y26.2243
G01 X33.4988 Y26.2902
G01 X33.4875 Y26.2999
G01 X33.4758 Y26.3090
G01 X33.3970 Y26.3675
G01 X33.3849 Y26.3760
G01 X33.3723 Y26.3840
G01 X33.2881 Y26.4344
G01 X33.2752 Y26.4417
G01 X33.2620 Y26.4484
G01 X33.1732 Y26.4904
G01 X33.1597 Y26.4964
G01 X33.1458 Y26.5017
G01 X33.0534 Y26.5348
G01 X33.0393 Y26.5395
G01 X33.0250 Y26.5434
G01 X32.9298 Y26.5673
G01 X32.9153 Y26.5705
G01 X32.9007 Y26.5731
G01 X32.8036 Y26.5875
G01 X32.7889 Y26.5893
G01 X32.7741 Y26.5904
G01 X32.6760 Y26.5952
G01 X32.6612 Y26.5955
G01 X32.6464 Y26.5952
G01 X32.5483 Y26.5904
G01 X32.5335 Y26.5893
G01 X32.5188 Y26.5875
G01 X32.4217 Y26.5731
G01 X32.4071 Y26.5705
G01 X32.3926 Y26.5673
G01 X32.2974 Y26.5434
G01 X32.2831 Y26.5395
G01 X32.2690 Y26.5348
G01 X32.1766 Y26.5017
G01 X32.1627 Y26.4964
G01 X32.1492 Y26.4904
G01 X32.0604 Y26.4484
G01 X32.0472 Y26.4417
G01 X32.0343 Y26.4344
G01 X31.9501 Y26.3840
G01 X31.9375 Y26.3760
G01 X31.9254 Y26.3675
G01 X31.8466 Y26.3090
G01 X31.8292 Y26.2951
G01 X31.7509 Y26.2243
G01 X31.7402 Y26.2140
G01 X31.7299 Y26.2033
G01 X31.6640 Y26.1306
G01 X31.6543 Y26.1193
G01 X31.6452 Y26.1076
G01 X31.5867 Y26.0288
G01 X31.5782 Y26.0167
G01 X31.5702 Y26.0041
G01 X31.5198 Y25.9199
G01 X31.5125 Y25.9070
G01 X31.5058 Y25.8938
G01 X31.4638 Y25.8050
G01 X31.4578 Y25.7915
G01 X31.4525 Y25.7776
G01 X31.4194 Y25.6852
G01 X31.4147 Y25.6711
G01 X31.4108 Y25.6568
G01 X31.3912 Y25.5786
G01 X31.3716 Y25.6568
G01 X31.3677 Y25.6711
G01 X31.3630 Y25.6852
G01 X31.3299 Y25.7776
G01 X31.3246 Y25.7915
G01 X31.3186 Y25.8050
G01 X31.2766 Y25.8938
G01 X31.2699 Y25.9070
G01 X31.2626 Y25.9199
G01 X31.2083 Y26.0104
G01 X31.1957 Y26.0288
G01 X31.1372 Y26.1076
G01 X31.1281 Y26.1193
G01 X31.1184 Y26.1306
G01 X31.0525 Y26.2033
G01 X31.0422 Y26.2140
G01 X31.0315 Y26.2243
G01 X30.9588 Y26.2902
G01 X30.9417 Y26.3045
G01 X30.9240 Y26.3178
G01 X30.9239 Y27.0007
G01 X30.9212 Y27.0572
G01 X30.9201 Y27.0720
G01 X30.9183 Y27.0867
G01 X30.9111 Y27.1353
G01 X30.9086 Y27.1499
G01 X30.9053 Y27.1644
G01 X30.8934 Y27.2120
G01 X30.8894 Y27.2263
G01 X30.8848 Y27.2404
G01 X30.8682 Y27.2867
G01 X30.8600 Y27.3073
G01 X30.8326 Y27.3651
G01 X30.8219 Y27.3847
G01 X30.7966 Y27.4268
G01 X30.7887 Y27.4393
G01 X30.7802 Y27.4515
G01 X30.7464 Y27.4968
G01 X30.7321 Y27.5138
G01 X30.6991 Y27.5502
G01 X30.6889 Y27.5610
G01 X26.3370 Y31.9128
G01 X26.3370 Y47.0739
G01 X26.3366 Y47.0887
G01 X26.3342 Y47.1378
G01 X26.3331 Y47.1526
G01 X26.3313 Y47.1673
G01 X26.3241 Y47.2159
G01 X26.3216 Y47.2305
G01 X26.3183 Y47.2450
G01 X26.3064 Y47.2926
G01 X26.3024 Y47.3069
G01 X26.2978 Y47.3210
G01 X26.2812 Y47.3673
G01 X26.2759 Y47.3811
G01 X26.2699 Y47.3947
G01 X26.2489 Y47.4391
G01 X26.2422 Y47.4523
G01 X26.2349 Y47.4653
G01 X26.2096 Y47.5074
G01 X26.2017 Y47.5199
G01 X26.1932 Y47.5321
G01 X26.1639 Y47.5715
G01 X26.1548 Y47.5832
G01 X26.1451 Y47.5944
G01 X26.1121 Y47.6308
G01 X26.1019 Y47.6416
G01 X22.0716 Y51.6719
G01 X22.0608 Y51.6821
G01 X22.0244 Y51.7151
G01 X22.0132 Y51.7248
G01 X22.0015 Y51.7339
G01 X21.9621 Y51.7632
G01 X21.9437 Y51.7758
G01 X21.8888 Y51.8086
G01 X21.8691 Y51.8189
G01 X21.8247 Y51.8399
G01 X21.8111 Y51.8459
G01 X21.7973 Y51.8512
G01 X21.7661 Y51.8624
G01 X28.4604 Y51.8624
G01 X28.4752 Y51.8628
G01 X28.5243 Y51.8652
G01 X28.5391 Y51.8663
G01 X28.5538 Y51.8681
G01 X28.6024 Y51.8753
G01 X28.6170 Y51.8778
G01 X28.6315 Y51.8811
G01 X28.6791 Y51.8930
G01 X28.6934 Y51.8970
G01 X28.7075 Y51.9016
G01 X28.7538 Y51.9182
G01 X28.7744 Y51.9264
G01 X28.8256 Y51.9505
G01 X28.8388 Y51.9572
G01 X28.8518 Y51.9645
G01 X28.8939 Y51.9898
G01 X28.9064 Y51.9977
G01 X28.9186 Y52.0062
G01 X28.9580 Y52.0355
G01 X28.9697 Y52.0446
G01 X28.9809 Y52.0543
G01 X29.0228 Y52.0923
G01 X31.3497 Y54.4191
G01 X31.3710 Y54.4269
G01 X31.3848 Y54.4326
G01 X31.4430 Y54.4600
G01 X31.4627 Y54.4702
G01 X31.5180 Y54.5032
G01 X31.5305 Y54.5112
G01 X31.5427 Y54.5197
G01 X31.5943 Y54.5581
G01 X31.6113 Y54.5725
G01 X31.6535 Y54.6107
G01 X31.6643 Y54.6209
G01 X31.6745 Y54.6317
G01 X31.7127 Y54.6739
G01 X31.7224 Y54.6851
G01 X31.7316 Y54.6968
G01 X31.7655 Y54.7425
G01 X31.7740 Y54.7547
G01 X31.7820 Y54.7672
G01 X31.8112 Y54.8160
G01 X31.8185 Y54.8290
G01 X31.8252 Y54.8422
G01 X31.8496 Y54.8937
G01 X31.8556 Y54.9073
G01 X31.8609 Y54.9211
G01 X31.8801 Y54.9747
G01 X31.8847 Y54.9888
G01 X31.8887 Y55.0031
G01 X31.9025 Y55.0583
G01 X31.9058 Y55.0728
G01 X31.9083 Y55.0875
G01 X31.9177 Y55.1511
G01 X31.9196 Y55.1733
G01 X31.9224 Y55.2302
G01 X31.9227 Y55.2450
G01 X31.9224 Y55.2598
G01 X31.9196 Y55.3167
G01 X31.9177 Y55.3389
G01 X31.9072 Y55.4099
G01 X31.9025 Y55.4317
G01 X31.8887 Y55.4869
G01 X31.8847 Y55.5012
G01 X31.8801 Y55.5153
G01 X31.8609 Y55.5689
G01 X31.8556 Y55.5827
G01 X31.8496 Y55.5963
G01 X31.8252 Y55.6478
G01 X31.8185 Y55.6610
G01 X31.8112 Y55.6740
G01 X31.7820 Y55.7228
G01 X31.7740 Y55.7353
G01 X31.7655 Y55.7475
G01 X31.7316 Y55.7932
G01 X31.7224 Y55.8049
G01 X31.7127 Y55.8161
G01 X31.6745 Y55.8583
G01 X31.6643 Y55.8691
G01 X31.6535 Y55.8793
G01 X31.6113 Y55.9175
G01 X31.6001 Y55.9272
G01 X31.5884 Y55.9364
G01 X31.5427 Y55.9703
G01 X31.5305 Y55.9788
G01 X31.5180 Y55.9868
G01 X31.4692 Y56.0160
G01 X31.4496 Y56.0268
G01 X31.3915 Y56.0544
G01 X31.3779 Y56.0604
G01 X31.3641 Y56.0657
G01 X31.3105 Y56.0849
G01 X31.2964 Y56.0895
G01 X31.2821 Y56.0935
G01 X31.2269 Y56.1073
G01 X31.2124 Y56.1106
G01 X31.1977 Y56.1131
G01 X31.1414 Y56.1215
G01 X31.1267 Y56.1233
G01 X31.1119 Y56.1244
G01 X31.0550 Y56.1272
G01 X31.0402 Y56.1275
G01 X31.0254 Y56.1272
G01 X30.9685 Y56.1244
G01 X30.9537 Y56.1233
G01 X30.9390 Y56.1215
G01 X30.8827 Y56.1131
G01 X30.8680 Y56.1106
G01 X30.8535 Y56.1073
G01 X30.7983 Y56.0935
G01 X30.7840 Y56.0895
G01 X30.7699 Y56.0849
G01 X30.7163 Y56.0657
G01 X30.7025 Y56.0604
G01 X30.6889 Y56.0544
G01 X30.6374 Y56.0300
G01 X30.6242 Y56.0233
G01 X30.6112 Y56.0160
G01 X30.5624 Y55.9868
G01 X30.5499 Y55.9788
G01 X30.5377 Y55.9703
G01 X30.4861 Y55.9319
G01 X30.4691 Y55.9175
G01 X30.4269 Y55.8793
G01 X30.4161 Y55.8691
G01 X30.4059 Y55.8583
G01 X30.3677 Y55.8161
G01 X30.3580 Y55.8049
G01 X30.3488 Y55.7932
G01 X30.3106 Y55.7414
G01 X30.2984 Y55.7228
G01 X30.2692 Y55.6740
G01 X30.2584 Y55.6544
G01 X30.2278 Y55.5896
G01 X30.2221 Y55.5758
G01 X30.2143 Y55.5545
G01 X28.1279 Y53.4680
G01 X6.2947 Y53.4680
G01 X6.2832 Y53.4802
G01 X6.2724 Y53.4904
G01 X6.2106 Y53.5464
G01 X6.1994 Y53.5561
G01 X6.1877 Y53.5653
G01 X6.1207 Y53.6150
G01 X6.1085 Y53.6235
G01 X6.0960 Y53.6315
G01 X6.0244 Y53.6743
G01 X6.0115 Y53.6817
G01 X5.9982 Y53.6883
G01 X5.9228 Y53.7240
G01 X5.9093 Y53.7300
G01 X5.8954 Y53.7354
G01 X5.8169 Y53.7635
G01 X5.8028 Y53.7681
G01 X5.7885 Y53.7721
G01 X5.7075 Y53.7924
G01 X5.6931 Y53.7956
G01 X5.6784 Y53.7981
G01 X5.5959 Y53.8104
G01 X5.5812 Y53.8122
G01 X5.5664 Y53.8133
G01 X5.4830 Y53.8174
G01 X5.4682 Y53.8177
G01 X5.4534 Y53.8174
G01 X5.3700 Y53.8133
G01 X5.3552 Y53.8122
G01 X5.3405 Y53.8104
G01 X5.2580 Y53.7981
G01 X5.2433 Y53.7956
G01 X5.2289 Y53.7924
G01 X5.1479 Y53.7721
G01 X5.1336 Y53.7681
G01 X5.1195 Y53.7635
G01 X5.0340 Y53.7328
G01 X5.0136 Y53.7240
G01 X4.9382 Y53.6883
G01 X4.9249 Y53.6817
G01 X4.9120 Y53.6743
G01 X4.8341 Y53.6276
G01 X4.8157 Y53.6150
G01 X4.7428 Y53.5608
G01 X4.7258 Y53.5464
G01 X4.6865 Y53.5108
G01 X4.6865 Y54.0527
G01 X6.3182 Y54.0527
G01 X6.3405 Y54.0535
G01 X6.3552 Y54.0549
G01 X6.3699 Y54.0571
G01 X6.3845 Y54.0600
G01 X6.3989 Y54.0636
G01 X6.4131 Y54.0679
G01 X6.4271 Y54.0729
G01 X6.4408 Y54.0786
G01 X6.4542 Y54.0850
G01 X6.4673 Y54.0920
G01 X6.4801 Y54.0996
G01 X6.4984 Y54.1122
G01 X6.5101 Y54.1213
G01 X6.5214 Y54.1310
G01 X6.5321 Y54.1413
G01 X6.5424 Y54.1520
G01 X6.5521 Y54.1633
G01 X6.5612 Y54.1750
G01 X6.5698 Y54.1871
G01 X6.5777 Y54.1997
G01 X6.5850 Y54.2126
G01 X6.5917 Y54.2258
G01 X6.5977 Y54.2394
G01 X6.6031 Y54.2533
G01 X6.6077 Y54.2674
G01 X6.6117 Y54.2817
G01 X6.6149 Y54.2962
G01 X6.6175 Y54.3108
G01 X6.6199 Y54.3329
G01 X6.6207 Y54.3552
G01 X6.6207 Y54.4024
G01 X16.5699 Y54.4024
G01 X16.5847 Y54.4028
G01 X16.6338 Y54.4052
G01 X16.6486 Y54.4063
G01 X16.6633 Y54.4081
G01 X16.7119 Y54.4153
G01 X16.7265 Y54.4178
G01 X16.7410 Y54.4211
G01 X16.7958 Y54.4349
G01 X16.8170 Y54.4416
G01 X16.8633 Y54.4582
G01 X16.8771 Y54.4635
G01 X16.8907 Y54.4695
G01 X16.9351 Y54.4905
G01 X16.9483 Y54.4972
G01 X16.9613 Y54.5045
G01 X17.0034 Y54.5298
G01 X17.0159 Y54.5377
G01 X17.0281 Y54.5462
G01 X17.0675 Y54.5755
G01 X17.0849 Y54.5894
G01 X17.1323 Y54.6323
G01 X18.9707 Y56.4707
G01 X19.0489 Y56.4668
G01 X19.0637 Y56.4665
G01 X19.0785 Y56.4668
G01 X19.1697 Y56.4713
G01 X19.1845 Y56.4724
G01 X19.1992 Y56.4742
G01 X19.2895 Y56.4876
G01 X19.3042 Y56.4901
G01 X19.3186 Y56.4934
G01 X19.4072 Y56.5156
G01 X19.4215 Y56.5195
G01 X19.4356 Y56.5242
G01 X19.5215 Y56.5549
G01 X19.5354 Y56.5603
G01 X19.5490 Y56.5663
G01 X19.6315 Y56.6053
G01 X19.6447 Y56.6120
G01 X19.6576 Y56.6193
G01 X19.7359 Y56.6662
G01 X19.7485 Y56.6742
G01 X19.7606 Y56.6827
G01 X19.8339 Y56.7371
G01 X19.8456 Y56.7462
G01 X19.8569 Y56.7559
G01 X19.9299 Y56.8223
G01 X19.9455 Y56.8382
G01 X20.0068 Y56.9058
G01 X20.0165 Y56.9171
G01 X20.0256 Y56.9288
G01 X20.0800 Y57.0021
G01 X20.0885 Y57.0142
G01 X20.0965 Y57.0268
G01 X20.1434 Y57.1051
G01 X20.1507 Y57.1180
G01 X20.1574 Y57.1312
G01 X20.1964 Y57.2137
G01 X20.2024 Y57.2273
G01 X20.2078 Y57.2412
G01 X20.2385 Y57.3271
G01 X20.2432 Y57.3412
G01 X20.2471 Y57.3555
G01 X20.2693 Y57.4441
G01 X20.2726 Y57.4585
G01 X20.2751 Y57.4732
G01 X20.2885 Y57.5635
G01 X20.2903 Y57.5782
G01 X20.2914 Y57.5930
G01 X20.2959 Y57.6842
G01 X20.2962 Y57.6990
G01 X20.2959 Y57.7138
G01 X20.2914 Y57.8050
G01 X20.2903 Y57.8198
G01 X20.2885 Y57.8345
G01 X20.2751 Y57.9248
G01 X20.2726 Y57.9395
G01 X20.2693 Y57.9539
G01 X20.2471 Y58.0425
G01 X20.2432 Y58.0568
G01 X20.2385 Y58.0709
G01 X20.2078 Y58.1568
G01 X20.2024 Y58.1707
G01 X20.1964 Y58.1843
G01 X20.1574 Y58.2668
G01 X20.1507 Y58.2800
G01 X20.1434 Y58.2929
G01 X20.0965 Y58.3712
G01 X20.0885 Y58.3838
G01 X20.0800 Y58.3959
G01 X20.0256 Y58.4692
G01 X20.0165 Y58.4809
G01 X20.0068 Y58.4922
G01 X19.9455 Y58.5598
G01 X19.9352 Y58.5705
G01 X19.9245 Y58.5808
G01 X19.8569 Y58.6421
G01 X19.8456 Y58.6518
G01 X19.8339 Y58.6609
G01 X19.7606 Y58.7153
G01 X19.7485 Y58.7238
G01 X19.7359 Y58.7318
G01 X19.6576 Y58.7787
G01 X19.6447 Y58.7860
G01 X19.6315 Y58.7927
G01 X19.5490 Y58.8317
G01 X19.5354 Y58.8377
G01 X19.5215 Y58.8431
G01 X19.4356 Y58.8738
G01 X19.4215 Y58.8785
G01 X19.4072 Y58.8824
G01 X19.3186 Y58.9046
G01 X19.3042 Y58.9079
G01 X19.2895 Y58.9104
G01 X19.1992 Y58.9238
G01 X19.1845 Y58.9256
G01 X19.1697 Y58.9267
G01 X19.0785 Y58.9312
G01 X19.0637 Y58.9315
G01 X19.0489 Y58.9312
G01 X18.9503 Y58.9263
G01 X18.9282 Y58.9238
G01 X18.8379 Y58.9104
G01 X18.8232 Y58.9079
G01 X18.8088 Y58.9046
G01 X18.7202 Y58.8824
G01 X18.7059 Y58.8785
G01 X18.6918 Y58.8738
G01 X18.6059 Y58.8431
G01 X18.5920 Y58.8377
G01 X18.5784 Y58.8317
G01 X18.4959 Y58.7927
G01 X18.4827 Y58.7860
G01 X18.4698 Y58.7787
G01 X18.3915 Y58.7318
G01 X18.3789 Y58.7238
G01 X18.3668 Y58.7153
G01 X18.2935 Y58.6609
G01 X18.2818 Y58.6518
G01 X18.2705 Y58.6421
G01 X18.2029 Y58.5808
G01 X18.1922 Y58.5705
G01 X18.1819 Y58.5598
G01 X18.1157 Y58.4866
G01 X18.1018 Y58.4692
G01 X18.0474 Y58.3959
G01 X18.0389 Y58.3838
G01 X18.0309 Y58.3712
G01 X17.9840 Y58.2929
G01 X17.9767 Y58.2800
G01 X17.9700 Y58.2668
G01 X17.9310 Y58.1843
G01 X17.9222 Y58.1638
G01 X17.8889 Y58.0709
G01 X17.8842 Y58.0568
G01 X17.8803 Y58.0425
G01 X17.8581 Y57.9539
G01 X17.8548 Y57.9395
G01 X17.8523 Y57.9248
G01 X17.8389 Y57.8345
G01 X17.8371 Y57.8198
G01 X17.8360 Y57.8050
G01 X17.8315 Y57.7138
G01 X17.8312 Y57.6990
G01 X17.8315 Y57.6842
G01 X17.8354 Y57.6060
G01 X17.7408 Y57.5114
G01 X17.7485 Y57.5635
G01 X17.7510 Y57.5856
G01 X17.7562 Y57.6916
G01 X17.7559 Y57.7138
G01 X17.7510 Y57.8124
G01 X17.7485 Y57.8345
G01 X17.7351 Y57.9248
G01 X17.7326 Y57.9395
G01 X17.7293 Y57.9539
G01 X17.7071 Y58.0425
G01 X17.7009 Y58.0639
G01 X17.6678 Y58.1568
G01 X17.6624 Y58.1707
G01 X17.6564 Y58.1843
G01 X17.6174 Y58.2668
G01 X17.6107 Y58.2800
G01 X17.6034 Y58.2929
G01 X17.5565 Y58.3712
G01 X17.5485 Y58.3838
G01 X17.5400 Y58.3959
G01 X17.4856 Y58.4692
G01 X17.4765 Y58.4809
G01 X17.4668 Y58.4922
G01 X17.4004 Y58.5652
G01 X17.3845 Y58.5808
G01 X17.3169 Y58.6421
G01 X17.3056 Y58.6518
G01 X17.2939 Y58.6609
G01 X17.2206 Y58.7153
G01 X17.2085 Y58.7238
G01 X17.1959 Y58.7318
G01 X17.1176 Y58.7787
G01 X17.1047 Y58.7860
G01 X17.0915 Y58.7927
G01 X17.0090 Y58.8317
G01 X16.9954 Y58.8377
G01 X16.9815 Y58.8431
G01 X16.8956 Y58.8738
G01 X16.8815 Y58.8785
G01 X16.8672 Y58.8824
G01 X16.7786 Y58.9046
G01 X16.7642 Y58.9079
G01 X16.7495 Y58.9104
G01 X16.6592 Y58.9238
G01 X16.6445 Y58.9256
G01 X16.6297 Y58.9267
G01 X16.5385 Y58.9312
G01 X16.5237 Y58.9315
G01 X16.5089 Y58.9312
G01 X16.4103 Y58.9263
G01 X16.3882 Y58.9238
G01 X16.2979 Y58.9104
G01 X16.2832 Y58.9079
G01 X16.2688 Y58.9046
G01 X16.1802 Y58.8824
G01 X16.1659 Y58.8785
G01 X16.1518 Y58.8738
G01 X16.0659 Y58.8431
G01 X16.0520 Y58.8377
G01 X16.0384 Y58.8317
G01 X15.9559 Y58.7927
G01 X15.9427 Y58.7860
G01 X15.9298 Y58.7787
G01 X15.8515 Y58.7318
G01 X15.8389 Y58.7238
G01 X15.8268 Y58.7153
G01 X15.7535 Y58.6609
G01 X15.7418 Y58.6518
G01 X15.7305 Y58.6421
G01 X15.6629 Y58.5808
G01 X15.6522 Y58.5705
G01 X15.6419 Y58.5598
G01 X15.5806 Y58.4922
G01 X15.5709 Y58.4809
G01 X15.5618 Y58.4692
G01 X15.5074 Y58.3959
G01 X15.4989 Y58.3838
G01 X15.4909 Y58.3712
G01 X15.4440 Y58.2929
G01 X15.4367 Y58.2800
G01 X15.4300 Y58.2668
G01 X15.3910 Y58.1843
G01 X15.3850 Y58.1707
G01 X15.3796 Y58.1568
G01 X15.3489 Y58.0709
G01 X15.3442 Y58.0568
G01 X15.3403 Y58.0425
G01 X15.3181 Y57.9539
G01 X15.3148 Y57.9395
G01 X15.3123 Y57.9248
G01 X15.2989 Y57.8345
G01 X15.2971 Y57.8198
G01 X15.2960 Y57.8050
G01 X15.2915 Y57.7138
G01 X15.2912 Y57.6990
G01 X15.2915 Y57.6842
G01 X15.2960 Y57.5930
G01 X15.2971 Y57.5782
G01 X15.2989 Y57.5635
G01 X15.3123 Y57.4732
G01 X15.3148 Y57.4585
G01 X15.3181 Y57.4441
G01 X15.3403 Y57.3555
G01 X15.3442 Y57.3412
G01 X15.3489 Y57.3271
G01 X15.3796 Y57.2412
G01 X15.3850 Y57.2273
G01 X15.3910 Y57.2137
G01 X15.4300 Y57.1312
G01 X15.4367 Y57.1180
G01 X15.4440 Y57.1051
G01 X15.4909 Y57.0268
G01 X15.4989 Y57.0142
G01 X15.5074 Y57.0021
G01 X15.5618 Y56.9288
G01 X15.5709 Y56.9171
G01 X15.5806 Y56.9058
G01 X15.6419 Y56.8382
G01 X15.6575 Y56.8223
G01 X15.7305 Y56.7559
G01 X15.7418 Y56.7462
G01 X15.7535 Y56.7371
G01 X15.8268 Y56.6827
G01 X15.8389 Y56.6742
G01 X15.8515 Y56.6662
G01 X15.9298 Y56.6193
G01 X15.9427 Y56.6120
G01 X15.9559 Y56.6053
G01 X16.0384 Y56.5663
G01 X16.0520 Y56.5603
G01 X16.0659 Y56.5549
G01 X16.1588 Y56.5218
G01 X16.1802 Y56.5156
G01 X16.2688 Y56.4934
G01 X16.2832 Y56.4901
G01 X16.2979 Y56.4876
G01 X16.3882 Y56.4742
G01 X16.4103 Y56.4717
G01 X16.5089 Y56.4668
G01 X16.5311 Y56.4665
G01 X16.6371 Y56.4717
G01 X16.6592 Y56.4742
G01 X16.7113 Y56.4819
G01 X16.2374 Y56.0080
G01 X6.6207 Y56.0080
G01 X6.6207 Y56.0552
G01 X6.6199 Y56.0775
G01 X6.6185 Y56.0922
G01 X6.6163 Y56.1069
G01 X6.6117 Y56.1287
G01 X6.6077 Y56.1430
G01 X6.6031 Y56.1571
G01 X6.5977 Y56.1710
G01 X6.5917 Y56.1846
G01 X6.5850 Y56.1978
G01 X6.5777 Y56.2107
G01 X6.5698 Y56.2233
G01 X6.5612 Y56.2354
G01 X6.5521 Y56.2471
G01 X6.5424 Y56.2584
G01 X6.5321 Y56.2691
G01 X6.5214 Y56.2794
G01 X6.5101 Y56.2891
G01 X6.4984 Y56.2982
G01 X6.4863 Y56.3068
G01 X6.4737 Y56.3147
G01 X6.4608 Y56.3220
G01 X6.4476 Y56.3287
G01 X6.4340 Y56.3347
G01 X6.4201 Y56.3401
G01 X6.3989 Y56.3468
G01 X6.3845 Y56.3504
G01 X6.3699 Y56.3533
G01 X6.3552 Y56.3555
G01 X6.3405 Y56.3569
G01 X6.3182 Y56.3577
G01 X4.6865 Y56.3577
G01 X4.6865 Y60.1020
G01 X4.7258 Y60.0664
G01 X4.7370 Y60.0567
G01 X4.7487 Y60.0475
G01 X4.8218 Y59.9935
G01 X4.8404 Y59.9813
G01 X4.9120 Y59.9385
G01 X4.9315 Y59.9277
G01 X5.0136 Y59.8888
G01 X5.0271 Y59.8828
G01 X5.0410 Y59.8774
G01 X5.1195 Y59.8493
G01 X5.1336 Y59.8447
G01 X5.1479 Y59.8407
G01 X5.2289 Y59.8204
G01 X5.2506 Y59.8158
G01 X5.3405 Y59.8024
G01 X5.3552 Y59.8006
G01 X5.3700 Y59.7995
G01 X5.4534 Y59.7954
G01 X5.4682 Y59.7951
G01 X5.4830 Y59.7954
G01 X5.5664 Y59.7995
G01 X5.5812 Y59.8006
G01 X5.5959 Y59.8024
G01 X5.6784 Y59.8147
G01 X5.6931 Y59.8172
G01 X5.7075 Y59.8204
G01 X5.7885 Y59.8407
G01 X5.8028 Y59.8447
G01 X5.8169 Y59.8493
G01 X5.8954 Y59.8774
G01 X5.9161 Y59.8857
G01 X5.9982 Y59.9245
G01 X6.0115 Y59.9311
G01 X6.0244 Y59.9385
G01 X6.0960 Y59.9813
G01 X6.1085 Y59.9893
G01 X6.1207 Y59.9978
G01 X6.1877 Y60.0475
G01 X6.1994 Y60.0567
G01 X6.2106 Y60.0664
G01 X6.2724 Y60.1224
G01 X6.2832 Y60.1326
G01 X6.2934 Y60.1434
G01 X6.3494 Y60.2052
G01 X6.3591 Y60.2164
G01 X6.3683 Y60.2281
G01 X6.4180 Y60.2951
G01 X6.4265 Y60.3073
G01 X6.4345 Y60.3198
G01 X6.4773 Y60.3914
G01 X6.4847 Y60.4043
G01 X6.4913 Y60.4176
G01 X6.5270 Y60.4930
G01 X6.5330 Y60.5065
G01 X6.5384 Y60.5204
G01 X6.5665 Y60.5989
G01 X6.5711 Y60.6130
G01 X6.5751 Y60.6273
G01 X6.5954 Y60.7083
G01 X6.5986 Y60.7227
G01 X6.6011 Y60.7374
G01 X6.6134 Y60.8199
G01 X6.6152 Y60.8346
G01 X6.6163 Y60.8494
G01 X6.6204 Y60.9328
G01 X6.6207 Y60.9476
G01 X6.6204 Y60.9624
G01 X6.6163 Y61.0458
G01 X6.6152 Y61.0606
G01 X6.6134 Y61.0753
G01 X6.6011 Y61.1578
G01 X6.5986 Y61.1725
G01 X6.5954 Y61.1869
G01 X6.5751 Y61.2679
G01 X6.5711 Y61.2822
G01 X6.5665 Y61.2963
G01 X6.5384 Y61.3748
G01 X6.5330 Y61.3887
G01 X6.5270 Y61.4022
G01 X6.4913 Y61.4776
G01 X6.4847 Y61.4909
G01 X6.4773 Y61.5038
G01 X6.4345 Y61.5754
G01 X6.4265 Y61.5879
G01 X6.4180 Y61.6001
G01 X6.3683 Y61.6671
G01 X6.3591 Y61.6788
G01 X6.3494 Y61.6900
G01 X6.2934 Y61.7518
G01 X6.2832 Y61.7626
G01 X6.2724 Y61.7728
G01 X6.2106 Y61.8288
G01 X6.1994 Y61.8385
G01 X6.1877 Y61.8477
G01 X6.1146 Y61.9017
G01 X6.0960 Y61.9139
G01 X6.0244 Y61.9567
G01 X6.0115 Y61.9641
G01 X5.9982 Y61.9707
G01 X5.9228 Y62.0064
G01 X5.9024 Y62.0152
G01 X5.8169 Y62.0459
G01 X5.8028 Y62.0505
G01 X5.7885 Y62.0545
G01 X5.7075 Y62.0748
G01 X5.6931 Y62.0780
G01 X5.6784 Y62.0805
G01 X5.5959 Y62.0928
G01 X5.5812 Y62.0946
G01 X5.5664 Y62.0957
G01 X5.4830 Y62.0998
G01 X5.4682 Y62.1001
G01 X5.4534 Y62.0998
G01 X5.3626 Y62.0952
G01 X5.3405 Y62.0928
G01 X5.2580 Y62.0805
G01 X5.2433 Y62.0780
G01 X5.2289 Y62.0748
G01 X5.1479 Y62.0545
G01 X5.1336 Y62.0505
G01 X5.1195 Y62.0459
G01 X5.0410 Y62.0178
G01 X5.0203 Y62.0095
G01 X4.9382 Y61.9707
G01 X4.9249 Y61.9641
G01 X4.9120 Y61.9567
G01 X4.8341 Y61.9100
G01 X4.8157 Y61.8974
G01 X4.7428 Y61.8432
G01 X4.7258 Y61.8288
G01 X4.6865 Y61.7932
G01 X4.6865 Y62.3351
G01 X6.3182 Y62.3351
G01 X6.3405 Y62.3359
G01 X6.3552 Y62.3373
G01 X6.3699 Y62.3395
G01 X6.3845 Y62.3424
G01 X6.3989 Y62.3460
G01 X6.4131 Y62.3503
G01 X6.4271 Y62.3553
G01 X6.4408 Y62.3610
G01 X6.4542 Y62.3674
G01 X6.4673 Y62.3744
G01 X6.4801 Y62.3820
G01 X6.4984 Y62.3946
G01 X6.5101 Y62.4037
G01 X6.5214 Y62.4134
G01 X6.5321 Y62.4237
G01 X6.5424 Y62.4344
G01 X6.5521 Y62.4457
G01 X6.5612 Y62.4574
G01 X6.5698 Y62.4695
G01 X6.5777 Y62.4821
G01 X6.5850 Y62.4950
G01 X6.5917 Y62.5082
G01 X6.5977 Y62.5218
G01 X6.6031 Y62.5357
G01 X6.6077 Y62.5498
G01 X6.6117 Y62.5641
G01 X6.6149 Y62.5786
G01 X6.6175 Y62.5932
G01 X6.6199 Y62.6153
G01 X6.6207 Y62.6376
G01 X6.6207 Y62.6848
G01 X13.5782 Y62.6849
G01 X13.6347 Y62.6876
G01 X13.6495 Y62.6887
G01 X13.6642 Y62.6905
G01 X13.7128 Y62.6977
G01 X13.7274 Y62.7002
G01 X13.7419 Y62.7035
G01 X13.7895 Y62.7154
G01 X13.8038 Y62.7194
G01 X13.8179 Y62.7240
G01 X13.8642 Y62.7406
G01 X13.8780 Y62.7459
G01 X13.8916 Y62.7519
G01 X13.9360 Y62.7729
G01 X13.9492 Y62.7796
G01 X13.9622 Y62.7869
G01 X14.0106 Y62.8160
G01 X14.0290 Y62.8286
G01 X14.0684 Y62.8579
G01 X14.0801 Y62.8670
G01 X14.0913 Y62.8767
G01 X14.1277 Y62.9097
G01 X14.1385 Y62.9199
G01 X18.9707 Y67.7522
G01 X19.0489 Y67.7483
G01 X19.0637 Y67.7480
G01 X19.0785 Y67.7483
G01 X19.1697 Y67.7528
G01 X19.1845 Y67.7539
G01 X19.1992 Y67.7557
G01 X19.2969 Y67.7703
G01 X19.3186 Y67.7749
G01 X19.4072 Y67.7971
G01 X19.4215 Y67.8010
G01 X19.4356 Y67.8057
G01 X19.5215 Y67.8364
G01 X19.5422 Y67.8447
G01 X19.6315 Y67.8868
G01 X19.6447 Y67.8935
G01 X19.6576 Y67.9008
G01 X19.7359 Y67.9477
G01 X19.7485 Y67.9557
G01 X19.7606 Y67.9642
G01 X19.8339 Y68.0186
G01 X19.8456 Y68.0277
G01 X19.8569 Y68.0374
G01 X19.9245 Y68.0987
G01 X19.9352 Y68.1090
G01 X19.9455 Y68.1197
G01 X20.0068 Y68.1873
G01 X20.0165 Y68.1986
G01 X20.0256 Y68.2103
G01 X20.0800 Y68.2836
G01 X20.0885 Y68.2957
G01 X20.0965 Y68.3083
G01 X20.1434 Y68.3866
G01 X20.1507 Y68.3995
G01 X20.1574 Y68.4127
G01 X20.1964 Y68.4952
G01 X20.2024 Y68.5088
G01 X20.2078 Y68.5227
G01 X20.2385 Y68.6086
G01 X20.2432 Y68.6227
G01 X20.2471 Y68.6370
G01 X20.2693 Y68.7256
G01 X20.2726 Y68.7400
G01 X20.2751 Y68.7547
G01 X20.2885 Y68.8450
G01 X20.2903 Y68.8597
G01 X20.2914 Y68.8745
G01 X20.2959 Y68.9657
G01 X20.2962 Y68.9805
G01 X20.2959 Y68.9953
G01 X20.2914 Y69.0865
G01 X20.2903 Y69.1013
G01 X20.2885 Y69.1160
G01 X20.2751 Y69.2063
G01 X20.2726 Y69.2210
G01 X20.2693 Y69.2354
G01 X20.2471 Y69.3240
G01 X20.2432 Y69.3383
G01 X20.2385 Y69.3524
G01 X20.2078 Y69.4383
G01 X20.2024 Y69.4522
G01 X20.1964 Y69.4658
G01 X20.1574 Y69.5483
G01 X20.1471 Y69.5680
G01 X20.0965 Y69.6527
G01 X20.0885 Y69.6653
G01 X20.0800 Y69.6774
G01 X20.0256 Y69.7507
G01 X20.0165 Y69.7624
G01 X20.0068 Y69.7737
G01 X19.9455 Y69.8413
G01 X19.9352 Y69.8520
G01 X19.9245 Y69.8623
G01 X19.8569 Y69.9236
G01 X19.8456 Y69.9333
G01 X19.8339 Y69.9424
G01 X19.7606 Y69.9968
G01 X19.7485 Y70.0053
G01 X19.7359 Y70.0133
G01 X19.6576 Y70.0602
G01 X19.6381 Y70.0709
G01 X19.5490 Y70.1132
G01 X19.5354 Y70.1192
G01 X19.5215 Y70.1246
G01 X19.4356 Y70.1553
G01 X19.4215 Y70.1600
G01 X19.4072 Y70.1639
G01 X19.3186 Y70.1861
G01 X19.2969 Y70.1907
G01 X19.1992 Y70.2053
G01 X19.1845 Y70.2071
G01 X19.1697 Y70.2082
G01 X19.0711 Y70.2130
G01 X19.0489 Y70.2127
G01 X18.9503 Y70.2078
G01 X18.9282 Y70.2053
G01 X18.8761 Y70.1976
G01 X21.2667 Y72.5882
G01 X29.4824 Y72.5882
G01 X29.4957 Y72.5705
G01 X29.5100 Y72.5534
G01 X29.5759 Y72.4807
G01 X29.5862 Y72.4700
G01 X29.5969 Y72.4597
G01 X29.6696 Y72.3938
G01 X29.6809 Y72.3841
G01 X29.6926 Y72.3750
G01 X29.7714 Y72.3165
G01 X29.7898 Y72.3039
G01 X29.8803 Y72.2496
G01 X29.8932 Y72.2423
G01 X29.9064 Y72.2356
G01 X29.9952 Y72.1936
G01 X30.0087 Y72.1876
G01 X30.0226 Y72.1823
G01 X30.1150 Y72.1492
G01 X30.1291 Y72.1445
G01 X30.1434 Y72.1406
G01 X30.2216 Y72.1210
G01 X30.1434 Y72.1014
G01 X30.1291 Y72.0975
G01 X30.1150 Y72.0928
G01 X30.0226 Y72.0597
G01 X30.0019 Y72.0515
G01 X29.9064 Y72.0064
G01 X29.8932 Y71.9997
G01 X29.8803 Y71.9924
G01 X29.7961 Y71.9420
G01 X29.7774 Y71.9298
G01 X29.6926 Y71.8670
G01 X29.6809 Y71.8579
G01 X29.6696 Y71.8482
G01 X29.5969 Y71.7823
G01 X29.5862 Y71.7720
G01 X29.5759 Y71.7613
G01 X29.5100 Y71.6886
G01 X29.5003 Y71.6773
G01 X29.4912 Y71.6656
G01 X29.4327 Y71.5868
G01 X29.4201 Y71.5684
G01 X29.3658 Y71.4779
G01 X29.3585 Y71.4650
G01 X29.3518 Y71.4518
G01 X29.3098 Y71.3630
G01 X29.3038 Y71.3495
G01 X29.2985 Y71.3356
G01 X29.2654 Y71.2432
G01 X29.2607 Y71.2291
G01 X29.2568 Y71.2148
G01 X29.2329 Y71.1196
G01 X29.2297 Y71.1051
G01 X29.2271 Y71.0905
G01 X29.2127 Y70.9934
G01 X29.2109 Y70.9787
G01 X29.2098 Y70.9639
G01 X29.2050 Y70.8658
G01 X29.2047 Y70.8510
G01 X29.2050 Y70.8362
G01 X29.2098 Y70.7381
G01 X29.2109 Y70.7233
G01 X29.2127 Y70.7086
G01 X29.2271 Y70.6115
G01 X29.2297 Y70.5969
G01 X29.2329 Y70.5824
G01 X29.2568 Y70.4872
G01 X29.2607 Y70.4729
G01 X29.2654 Y70.4588
G01 X29.2985 Y70.3664
G01 X29.3038 Y70.3525
G01 X29.3098 Y70.3390
G01 X29.3518 Y70.2502
G01 X29.3585 Y70.2370
G01 X29.3658 Y70.2241
G01 X29.4162 Y70.1399
G01 X29.4242 Y70.1273
G01 X29.4327 Y70.1152
G01 X29.4912 Y70.0364
G01 X29.5003 Y70.0247
G01 X29.5100 Y70.0134
G01 X29.5759 Y69.9407
G01 X29.5862 Y69.9300
G01 X29.5969 Y69.9197
G01 X29.6696 Y69.8538
G01 X29.6809 Y69.8441
G01 X29.6926 Y69.8350
G01 X29.7714 Y69.7765
G01 X29.7835 Y69.7680
G01 X29.7961 Y69.7600
G01 X29.8803 Y69.7096
G01 X29.8932 Y69.7023
G01 X29.9064 Y69.6956
G01 X29.9952 Y69.6536
G01 X30.0087 Y69.6476
G01 X30.0226 Y69.6423
G01 X30.1150 Y69.6092
G01 X30.1291 Y69.6045
G01 X30.1434 Y69.6006
G01 X30.2216 Y69.5810
G01 X30.1434 Y69.5614
G01 X30.1291 Y69.5575
G01 X30.1150 Y69.5528
G01 X30.0226 Y69.5197
G01 X30.0087 Y69.5144
G01 X29.9952 Y69.5084
G01 X29.9064 Y69.4664
G01 X29.8932 Y69.4597
G01 X29.8803 Y69.4524
G01 X29.7961 Y69.4020
G01 X29.7835 Y69.3940
G01 X29.7714 Y69.3855
G01 X29.6926 Y69.3270
G01 X29.6809 Y69.3179
G01 X29.6696 Y69.3082
G01 X29.5969 Y69.2423
G01 X29.5862 Y69.2320
G01 X29.5759 Y69.2213
G01 X29.5100 Y69.1486
G01 X29.5003 Y69.1373
G01 X29.4912 Y69.1256
G01 X29.4284 Y69.0408
G01 X29.4162 Y69.0221
G01 X29.3658 Y68.9379
G01 X29.3585 Y68.9250
G01 X29.3518 Y68.9118
G01 X29.3098 Y68.8230
G01 X29.3038 Y68.8095
G01 X29.2985 Y68.7956
G01 X29.2654 Y68.7032
G01 X29.2607 Y68.6891
G01 X29.2568 Y68.6748
G01 X29.2329 Y68.5796
G01 X29.2297 Y68.5651
G01 X29.2271 Y68.5505
G01 X29.2127 Y68.4534
G01 X29.2109 Y68.4387
G01 X29.2098 Y68.4239
G01 X29.2050 Y68.3258
G01 X29.2047 Y68.3110
G01 X29.2050 Y68.2962
G01 X29.2098 Y68.1981
G01 X29.2117 Y68.1759
G01 X29.2271 Y68.0715
G01 X29.2297 Y68.0569
G01 X29.2329 Y68.0424
G01 X29.2568 Y67.9472
G01 X29.2607 Y67.9329
G01 X29.2654 Y67.9188
G01 X29.2985 Y67.8264
G01 X29.3038 Y67.8125
G01 X29.3098 Y67.7990
G01 X29.3518 Y67.7102
G01 X29.3585 Y67.6970
G01 X29.3658 Y67.6841
G01 X29.4162 Y67.5999
G01 X29.4242 Y67.5873
G01 X29.4327 Y67.5752
G01 X29.4912 Y67.4964
G01 X29.5003 Y67.4847
G01 X29.5100 Y67.4734
G01 X29.5759 Y67.4007
G01 X29.5862 Y67.3900
G01 X29.5969 Y67.3797
G01 X29.6696 Y67.3138
G01 X29.6809 Y67.3041
G01 X29.6926 Y67.2950
G01 X29.7714 Y67.2365
G01 X29.7835 Y67.2280
G01 X29.7961 Y67.2200
G01 X29.8803 Y67.1696
G01 X29.8932 Y67.1623
G01 X29.9064 Y67.1556
G01 X29.9952 Y67.1136
G01 X30.0087 Y67.1076
G01 X30.0226 Y67.1023
G01 X30.1150 Y67.0692
G01 X30.1291 Y67.0645
G01 X30.1434 Y67.0606
G01 X30.2216 Y67.0410
G01 X30.1434 Y67.0214
G01 X30.1291 Y67.0175
G01 X30.1150 Y67.0128
G01 X30.0226 Y66.9797
G01 X30.0087 Y66.9744
G01 X29.9952 Y66.9684
G01 X29.9064 Y66.9264
G01 X29.8932 Y66.9197
G01 X29.8803 Y66.9124
G01 X29.7961 Y66.8620
G01 X29.7835 Y66.8540
G01 X29.7714 Y66.8455
G01 X29.6926 Y66.7870
G01 X29.6809 Y66.7779
G01 X29.6696 Y66.7682
G01 X29.5969 Y66.7023
G01 X29.5862 Y66.6920
G01 X29.5759 Y66.6813
G01 X29.5100 Y66.6086
G01 X29.5003 Y66.5973
G01 X29.4912 Y66.5856
G01 X29.4327 Y66.5068
G01 X29.4242 Y66.4947
G01 X29.4162 Y66.4821
G01 X29.3658 Y66.3979
G01 X29.3585 Y66.3850
G01 X29.3518 Y66.3718
G01 X29.3098 Y66.2830
G01 X29.3038 Y66.2695
G01 X29.2985 Y66.2556
G01 X29.2654 Y66.1632
G01 X29.2607 Y66.1491
G01 X29.2568 Y66.1348
G01 X29.2329 Y66.0396
G01 X29.2297 Y66.0251
G01 X29.2271 Y66.0105
G01 X29.2127 Y65.9134
G01 X29.2109 Y65.8987
G01 X29.2098 Y65.8839
G01 X29.2050 Y65.7858
G01 X29.2047 Y65.7710
G01 X29.2050 Y65.7562
G01 X29.2098 Y65.6581
G01 X29.2109 Y65.6433
G01 X29.2127 Y65.6286
G01 X29.2271 Y65.5315
G01 X29.2297 Y65.5169
G01 X29.2329 Y65.5024
G01 X29.2568 Y65.4072
G01 X29.2607 Y65.3929
G01 X29.2654 Y65.3788
G01 X29.2985 Y65.2864
G01 X29.3038 Y65.2725
G01 X29.3098 Y65.2590
G01 X29.3518 Y65.1702
G01 X29.3585 Y65.1570
G01 X29.3658 Y65.1441
G01 X29.4162 Y65.0599
G01 X29.4242 Y65.0473
G01 X29.4327 Y65.0352
G01 X29.4912 Y64.9564
G01 X29.5003 Y64.9447
G01 X29.5100 Y64.9334
G01 X29.5759 Y64.8607
G01 X29.5862 Y64.8500
G01 X29.5969 Y64.8397
G01 X29.6696 Y64.7738
G01 X29.6809 Y64.7641
G01 X29.6926 Y64.7550
G01 X29.7714 Y64.6965
G01 X29.7835 Y64.6880
G01 X29.7961 Y64.6800
G01 X29.8803 Y64.6296
G01 X29.8932 Y64.6223
G01 X29.9064 Y64.6156
G01 X29.9952 Y64.5736
G01 X30.0087 Y64.5676
G01 X30.0226 Y64.5623
G01 X30.1150 Y64.5292
G01 X30.1291 Y64.5245
G01 X30.1434 Y64.5206
G01 X30.2216 Y64.5010
G01 X30.1434 Y64.4814
G01 X30.1291 Y64.4775
G01 X30.1150 Y64.4728
G01 X30.0226 Y64.4397
G01 X30.0019 Y64.4315
G01 X29.9064 Y64.3864
G01 X29.8932 Y64.3797
G01 X29.8803 Y64.3724
G01 X29.7961 Y64.3220
G01 X29.7774 Y64.3098
G01 X29.6926 Y64.2470
G01 X29.6809 Y64.2379
G01 X29.6696 Y64.2282
G01 X29.5969 Y64.1623
G01 X29.5862 Y64.1520
G01 X29.5759 Y64.1413
G01 X29.5100 Y64.0686
G01 X29.5003 Y64.0573
G01 X29.4912 Y64.0456
G01 X29.4327 Y63.9668
G01 X29.4201 Y63.9484
G01 X29.3658 Y63.8579
G01 X29.3585 Y63.8450
G01 X29.3518 Y63.8318
G01 X29.3098 Y63.7430
G01 X29.3038 Y63.7295
G01 X29.2985 Y63.7156
G01 X29.2654 Y63.6232
G01 X29.2607 Y63.6091
G01 X29.2568 Y63.5948
G01 X29.2329 Y63.4996
G01 X29.2297 Y63.4851
G01 X29.2271 Y63.4705
G01 X29.2127 Y63.3734
G01 X29.2109 Y63.3587
G01 X29.2098 Y63.3439
G01 X29.2050 Y63.2458
G01 X29.2047 Y63.2310
G01 X29.2050 Y63.2162
G01 X29.2098 Y63.1181
G01 X29.2109 Y63.1033
G01 X29.2127 Y63.0886
G01 X29.2271 Y62.9915
G01 X29.2312 Y62.9696
G01 X29.2568 Y62.8672
G01 X29.2607 Y62.8529
G01 X29.2654 Y62.8388
G01 X29.2985 Y62.7464
G01 X29.3038 Y62.7325
G01 X29.3098 Y62.7190
G01 X29.3518 Y62.6302
G01 X29.3585 Y62.6170
G01 X29.3658 Y62.6041
G01 X29.4162 Y62.5199
G01 X29.4242 Y62.5073
G01 X29.4327 Y62.4952
G01 X29.4912 Y62.4164
G01 X29.5003 Y62.4047
G01 X29.5100 Y62.3934
G01 X29.5759 Y62.3207
G01 X29.5862 Y62.3100
G01 X29.5969 Y62.2997
G01 X29.6696 Y62.2338
G01 X29.6809 Y62.2241
G01 X29.6926 Y62.2150
G01 X29.7714 Y62.1565
G01 X29.7835 Y62.1480
G01 X29.7961 Y62.1400
G01 X29.8803 Y62.0896
G01 X29.8932 Y62.0823
G01 X29.9064 Y62.0756
G01 X29.9952 Y62.0336
G01 X30.0087 Y62.0276
G01 X30.0226 Y62.0223
G01 X30.1150 Y61.9892
G01 X30.1291 Y61.9845
G01 X30.1434 Y61.9806
G01 X30.2386 Y61.9567
G01 X30.2531 Y61.9535
G01 X30.2677 Y61.9509
G01 X30.3648 Y61.9365
G01 X30.3795 Y61.9347
G01 X30.3943 Y61.9336
G01 X30.4924 Y61.9288
G01 X30.5072 Y61.9285
G01 X30.5220 Y61.9288
G01 X30.6201 Y61.9336
G01 X30.6349 Y61.9347
G01 X30.6496 Y61.9365
G01 X30.7467 Y61.9509
G01 X30.7613 Y61.9535
G01 X30.7758 Y61.9567
G01 X30.8710 Y61.9806
G01 X30.8853 Y61.9845
G01 X30.8994 Y61.9892
G01 X30.9918 Y62.0223
G01 X31.0057 Y62.0276
G01 X31.0192 Y62.0336
G01 X31.1080 Y62.0756
G01 X31.1212 Y62.0823
G01 X31.1341 Y62.0896
G01 X31.2183 Y62.1400
G01 X31.2309 Y62.1480
G01 X31.2430 Y62.1565
G01 X31.3218 Y62.2150
G01 X31.3335 Y62.2241
G01 X31.3448 Y62.2338
G01 X31.4175 Y62.2997
G01 X31.4282 Y62.3100
G01 X31.4385 Y62.3207
G01 X31.5044 Y62.3934
G01 X31.5141 Y62.4047
G01 X31.5232 Y62.4164
G01 X31.5817 Y62.4952
G01 X31.5902 Y62.5073
G01 X31.5982 Y62.5199
G01 X31.6486 Y62.6041
G01 X31.6559 Y62.6170
G01 X31.6626 Y62.6302
G01 X31.7046 Y62.7190
G01 X31.7106 Y62.7325
G01 X31.7159 Y62.7464
G01 X31.7490 Y62.8388
G01 X31.7537 Y62.8529
G01 X31.7576 Y62.8672
G01 X31.7815 Y62.9624
G01 X31.7847 Y62.9769
G01 X31.7873 Y62.9915
G01 X31.8017 Y63.0886
G01 X31.8035 Y63.1033
G01 X31.8046 Y63.1181
G01 X31.8094 Y63.2162
G01 X31.8097 Y63.2310
G01 X31.8094 Y63.2458
G01 X31.8046 Y63.3439
G01 X31.8035 Y63.3587
G01 X31.8017 Y63.3734
G01 X31.7873 Y63.4705
G01 X31.7847 Y63.4851
G01 X31.7815 Y63.4996
G01 X31.7576 Y63.5948
G01 X31.7537 Y63.6091
G01 X31.7490 Y63.6232
G01 X31.7159 Y63.7156
G01 X31.7106 Y63.7295
G01 X31.7046 Y63.7430
G01 X31.6626 Y63.8318
G01 X31.6559 Y63.8450
G01 X31.6486 Y63.8579
G01 X31.5982 Y63.9421
G01 X31.5902 Y63.9547
G01 X31.5817 Y63.9668
G01 X31.5232 Y64.0456
G01 X31.5141 Y64.0573
G01 X31.5044 Y64.0686
G01 X31.4385 Y64.1413
G01 X31.4282 Y64.1520
G01 X31.4175 Y64.1623
G01 X31.3448 Y64.2282
G01 X31.3335 Y64.2379
G01 X31.3218 Y64.2470
G01 X31.2430 Y64.3055
G01 X31.2309 Y64.3140
G01 X31.2183 Y64.3220
G01 X31.1341 Y64.3724
G01 X31.1212 Y64.3797
G01 X31.1080 Y64.3864
G01 X31.0192 Y64.4284
G01 X31.0057 Y64.4344
G01 X30.9918 Y64.4397
G01 X30.8994 Y64.4728
G01 X30.8853 Y64.4775
G01 X30.8710 Y64.4814
G01 X30.7928 Y64.5010
G01 X30.8710 Y64.5206
G01 X30.8853 Y64.5245
G01 X30.8994 Y64.5292
G01 X30.9918 Y64.5623
G01 X31.0057 Y64.5676
G01 X31.0192 Y64.5736
G01 X31.1080 Y64.6156
G01 X31.1212 Y64.6223
G01 X31.1341 Y64.6296
G01 X31.2183 Y64.6800
G01 X31.2309 Y64.6880
G01 X31.2430 Y64.6965
G01 X31.3218 Y64.7550
G01 X31.3335 Y64.7641
G01 X31.3448 Y64.7738
G01 X31.4175 Y64.8397
G01 X31.4282 Y64.8500
G01 X31.4385 Y64.8607
G01 X31.5044 Y64.9334
G01 X31.5141 Y64.9447
G01 X31.5232 Y64.9564
G01 X31.5817 Y65.0352
G01 X31.5902 Y65.0473
G01 X31.5982 Y65.0599
G01 X31.6486 Y65.1441
G01 X31.6559 Y65.1570
G01 X31.6626 Y65.1702
G01 X31.7046 Y65.2590
G01 X31.7106 Y65.2725
G01 X31.7159 Y65.2864
G01 X31.7490 Y65.3788
G01 X31.7537 Y65.3929
G01 X31.7576 Y65.4072
G01 X31.7815 Y65.5024
G01 X31.7847 Y65.5169
G01 X31.7873 Y65.5315
G01 X31.8017 Y65.6286
G01 X31.8035 Y65.6433
G01 X31.8046 Y65.6581
G01 X31.8094 Y65.7562
G01 X31.8097 Y65.7710
G01 X31.8094 Y65.7858
G01 X31.8046 Y65.8839
G01 X31.8035 Y65.8987
G01 X31.8017 Y65.9134
G01 X31.7873 Y66.0105
G01 X31.7847 Y66.0251
G01 X31.7815 Y66.0396
G01 X31.7576 Y66.1348
G01 X31.7537 Y66.1491
G01 X31.7490 Y66.1632
G01 X31.7159 Y66.2556
G01 X31.7106 Y66.2695
G01 X31.7046 Y66.2830
G01 X31.6626 Y66.3718
G01 X31.6559 Y66.3850
G01 X31.6486 Y66.3979
G01 X31.5982 Y66.4821
G01 X31.5902 Y66.4947
G01 X31.5817 Y66.5068
G01 X31.5232 Y66.5856
G01 X31.5141 Y66.5973
G01 X31.5044 Y66.6086
G01 X31.4385 Y66.6813
G01 X31.4282 Y66.6920
G01 X31.4175 Y66.7023
G01 X31.3448 Y66.7682
G01 X31.3335 Y66.7779
G01 X31.3218 Y66.7870
G01 X31.2430 Y66.8455
G01 X31.2309 Y66.8540
G01 X31.2183 Y66.8620
G01 X31.1341 Y66.9124
G01 X31.1212 Y66.9197
G01 X31.1080 Y66.9264
G01 X31.0192 Y66.9684
G01 X31.0057 Y66.9744
G01 X30.9918 Y66.9797
G01 X30.8994 Y67.0128
G01 X30.8853 Y67.0175
G01 X30.8710 Y67.0214
G01 X30.7928 Y67.0410
G01 X30.8710 Y67.0606
G01 X30.8853 Y67.0645
G01 X30.8994 Y67.0692
G01 X30.9918 Y67.1023
G01 X31.0057 Y67.1076
G01 X31.0192 Y67.1136
G01 X31.1080 Y67.1556
G01 X31.1212 Y67.1623
G01 X31.1341 Y67.1696
G01 X31.2246 Y67.2239
G01 X31.2430 Y67.2365
G01 X31.3218 Y67.2950
G01 X31.3335 Y67.3041
G01 X31.3448 Y67.3138
G01 X31.4175 Y67.3797
G01 X31.4282 Y67.3900
G01 X31.4385 Y67.4007
G01 X31.5044 Y67.4734
G01 X31.5187 Y67.4905
G01 X31.5320 Y67.5082
G01 X31.6937 Y67.5082
G01 X32.3514 Y66.8505
G01 X32.3514 Y50.2983
G01 X32.3518 Y50.2835
G01 X32.3542 Y50.2344
G01 X32.3553 Y50.2196
G01 X32.3571 Y50.2049
G01 X32.3655 Y50.1490
G01 X32.3701 Y50.1272
G01 X32.3820 Y50.0796
G01 X32.3860 Y50.0653
G01 X32.3906 Y50.0512
G01 X32.4072 Y50.0049
G01 X32.4125 Y49.9911
G01 X32.4185 Y49.9775
G01 X32.4395 Y49.9331
G01 X32.4462 Y49.9199
G01 X32.4535 Y49.9069
G01 X32.4788 Y49.8648
G01 X32.4867 Y49.8523
G01 X32.4952 Y49.8401
G01 X32.5245 Y49.8007
G01 X32.5336 Y49.7890
G01 X32.5433 Y49.7778
G01 X32.5813 Y49.7359
G01 X34.9564 Y47.3607
G01 X34.9672 Y47.3505
G01 X35.0036 Y47.3175
G01 X35.0148 Y47.3078
G01 X35.0265 Y47.2987
G01 X35.0659 Y47.2694
G01 X35.0781 Y47.2609
G01 X35.0906 Y47.2530
G01 X35.1327 Y47.2277
G01 X35.1457 Y47.2204
G01 X35.1589 Y47.2137
G01 X35.2033 Y47.1927
G01 X35.2169 Y47.1867
G01 X35.2307 Y47.1814
G01 X35.2770 Y47.1648
G01 X35.2982 Y47.1581
G01 X35.3530 Y47.1443
G01 X35.3675 Y47.1410
G01 X35.3821 Y47.1385
G01 X35.4307 Y47.1313
G01 X35.4454 Y47.1295
G01 X35.4602 Y47.1284
G01 X35.5093 Y47.1260
G01 X35.5241 Y47.1256
G01 X35.5389 Y47.1260
G01 X35.5880 Y47.1284
G01 X35.6028 Y47.1295
G01 X35.6175 Y47.1313
G01 X35.6661 Y47.1385
G01 X35.6807 Y47.1410
G01 X35.6952 Y47.1443
G01 X35.7428 Y47.1562
G01 X35.7571 Y47.1602
G01 X35.7712 Y47.1648
G01 X35.8175 Y47.1814
G01 X35.8313 Y47.1867
G01 X35.8449 Y47.1927
G01 X35.8893 Y47.2137
G01 X35.9025 Y47.2204
G01 X35.9155 Y47.2277
G01 X35.9576 Y47.2530
G01 X35.9701 Y47.2609
G01 X35.9823 Y47.2694
G01 X36.0217 Y47.2987
G01 X36.0334 Y47.3078
G01 X36.0446 Y47.3175
G01 X36.0810 Y47.3505
G01 X36.0918 Y47.3607
G01 X36.1020 Y47.3715
G01 X36.1350 Y47.4079
G01 X36.1447 Y47.4191
G01 X36.1538 Y47.4308
G01 X36.1831 Y47.4702
G01 X36.1916 Y47.4824
G01 X36.1995 Y47.4949
G01 X36.2248 Y47.5370
G01 X36.2321 Y47.5500
G01 X36.2388 Y47.5632
G01 X36.2598 Y47.6076
G01 X36.2658 Y47.6212
G01 X36.2711 Y47.6350
G01 X36.2877 Y47.6813
G01 X36.2923 Y47.6954
G01 X36.2963 Y47.7097
G01 X36.3082 Y47.7573
G01 X36.3115 Y47.7718
G01 X36.3140 Y47.7864
G01 X36.3212 Y47.8350
G01 X36.3230 Y47.8497
G01 X36.3241 Y47.8645
G01 X36.3265 Y47.9136
G01 X36.3269 Y47.9284
G01 X36.3265 Y47.9432
G01 X36.3241 Y47.9923
G01 X36.3230 Y48.0071
G01 X36.3212 Y48.0218
G01 X36.3140 Y48.0704
G01 X36.3115 Y48.0850
G01 X36.3082 Y48.0995
G01 X36.2963 Y48.1471
G01 X36.2923 Y48.1614
G01 X36.2877 Y48.1755
G01 X36.2711 Y48.2218
G01 X36.2658 Y48.2356
G01 X36.2598 Y48.2492
G01 X36.2388 Y48.2936
G01 X36.2321 Y48.3068
G01 X36.2248 Y48.3198
G01 X36.1995 Y48.3619
G01 X36.1916 Y48.3744
G01 X36.1831 Y48.3866
G01 X36.1538 Y48.4260
G01 X36.1447 Y48.4377
G01 X36.1350 Y48.4489
G01 X36.0970 Y48.4908
G01 X33.9570 Y50.6308
G01 X33.9570 Y63.8617
G01 X36.8969 Y60.9218
G01 X36.9076 Y60.9116
G01 X36.9440 Y60.8786
G01 X36.9610 Y60.8643
G01 X37.0124 Y60.8262
G01 X37.0311 Y60.8141
G01 X37.0732 Y60.7888
G01 X37.0861 Y60.7815
G01 X37.0994 Y60.7748
G01 X37.1505 Y60.7507
G01 X37.1712 Y60.7425
G01 X37.2174 Y60.7259
G01 X37.2386 Y60.7192
G01 X37.2934 Y60.7054
G01 X37.3152 Y60.7008
G01 X37.3711 Y60.6924
G01 X37.3858 Y60.6906
G01 X37.4007 Y60.6895
G01 X37.4497 Y60.6871
G01 X37.4735 Y60.6867
G01 X37.4661 Y60.6741
G01 X37.4591 Y60.6610
G01 X37.4348 Y60.6100
G01 X37.4288 Y60.5964
G01 X37.4235 Y60.5826
G01 X37.4069 Y60.5363
G01 X37.4002 Y60.5151
G01 X37.3864 Y60.4603
G01 X37.3831 Y60.4458
G01 X37.3806 Y60.4312
G01 X37.3734 Y60.3826
G01 X37.3716 Y60.3679
G01 X37.3705 Y60.3531
G01 X37.3681 Y60.3040
G01 X37.3677 Y60.2892
G01 X37.3677 Y46.1875
G01 X31.9880 Y40.8078
G01 X31.8249 Y40.8078
G01 X31.8063 Y40.8235
G01 X31.7944 Y40.8324
G01 X31.7821 Y40.8406
G01 X31.7628 Y40.8518
G01 X31.7496 Y40.8585
G01 X31.7360 Y40.8645
G01 X31.7151 Y40.8723
G01 X31.7009 Y40.8766
G01 X31.6865 Y40.8802
G01 X31.6646 Y40.8843
G01 X31.6499 Y40.8861
G01 X31.6350 Y40.8872
G01 X31.6202 Y40.8875
G01 X30.4602 Y40.8875
G01 X30.4454 Y40.8872
G01 X30.4305 Y40.8861
G01 X30.4158 Y40.8843
G01 X30.4012 Y40.8817
G01 X30.3867 Y40.8785
G01 X30.3724 Y40.8745
G01 X30.3583 Y40.8699
G01 X30.3444 Y40.8645
G01 X30.3308 Y40.8585
G01 X30.3176 Y40.8518
G01 X30.3047 Y40.8445
G01 X30.2921 Y40.8366
G01 X30.2800 Y40.8280
G01 X30.2683 Y40.8189
G01 X30.2570 Y40.8092
G01 X30.2463 Y40.7989
G01 X30.2360 Y40.7882
G01 X30.2263 Y40.7769
G01 X30.2172 Y40.7652
G01 X30.2086 Y40.7531
G01 X30.1970 Y40.7341
G01 X30.1900 Y40.7210
G01 X30.1836 Y40.7076
G01 X30.1753 Y40.6869
G01 X30.1707 Y40.6728
G01 X30.1667 Y40.6585
G01 X30.1621 Y40.6367
G01 X30.1599 Y40.6220
G01 X30.1585 Y40.6073
G01 X30.1577 Y40.5850
G01 X30.1577 Y39.4176
G01 X30.1585 Y39.4027
G01 X30.1609 Y39.3806
G01 X30.1650 Y39.3587
G01 X30.1686 Y39.3443
G01 X30.1729 Y39.3301
G01 X30.1779 Y39.3161
G01 X30.1836 Y39.3024
G01 X30.1934 Y39.2824
G01 X30.2007 Y39.2695
G01 X30.2128 Y39.2508
G01 X30.2217 Y39.2389
G01 X30.2360 Y39.2218
G01 X30.2463 Y39.2111
G01 X30.2570 Y39.2008
G01 X30.2741 Y39.1865
G01 X30.2860 Y39.1776
G01 X30.3047 Y39.1655
G01 X30.3242 Y39.1548
G01 X30.3444 Y39.1455
G01 X30.3653 Y39.1377
G01 X30.3867 Y39.1315
G01 X30.4085 Y39.1269
G01 X30.4232 Y39.1247
G01 X30.4454 Y39.1228
G01 X30.4602 Y39.1225
G01 X31.6202 Y39.1225
G01 X31.6425 Y39.1233
G01 X31.6646 Y39.1257
G01 X31.6792 Y39.1283
G01 X31.6937 Y39.1315
G01 X31.7080 Y39.1355
G01 X31.7221 Y39.1401
G01 X31.7428 Y39.1484
G01 X31.7562 Y39.1548
G01 X31.7693 Y39.1618
G01 X31.7883 Y39.1734
G01 X31.8063 Y39.1865
G01 X31.8249 Y39.2022
G01 X32.3279 Y39.2023
G01 X32.3844 Y39.2050
G01 X32.3992 Y39.2061
G01 X32.4139 Y39.2079
G01 X32.4625 Y39.2151
G01 X32.4771 Y39.2176
G01 X32.4916 Y39.2209
G01 X32.5392 Y39.2328
G01 X32.5535 Y39.2368
G01 X32.5676 Y39.2414
G01 X32.6139 Y39.2580
G01 X32.6277 Y39.2633
G01 X32.6413 Y39.2693
G01 X32.6857 Y39.2903
G01 X32.6989 Y39.2970
G01 X32.7119 Y39.3043
G01 X32.7540 Y39.3296
G01 X32.7665 Y39.3375
G01 X32.7787 Y39.3460
G01 X32.8181 Y39.3753
G01 X32.8298 Y39.3844
G01 X32.8410 Y39.3941
G01 X32.8774 Y39.4271
G01 X32.8882 Y39.4373
G01 X38.7382 Y45.2873
G01 X38.7484 Y45.2981
G01 X38.7814 Y45.3345
G01 X38.7911 Y45.3457
G01 X38.8002 Y45.3574
G01 X38.8295 Y45.3968
G01 X38.8380 Y45.4090
G01 X38.8459 Y45.4215
G01 X38.8712 Y45.4636
G01 X38.8785 Y45.4766
G01 X38.8852 Y45.4898
G01 X38.9062 Y45.5342
G01 X38.9149 Y45.5547
G01 X38.9341 Y45.6079
G01 X38.9387 Y45.6220
G01 X38.9427 Y45.6363
G01 X38.9546 Y45.6839
G01 X38.9579 Y45.6984
G01 X38.9604 Y45.7130
G01 X38.9676 Y45.7616
G01 X38.9694 Y45.7763
G01 X38.9705 Y45.7911
G01 X38.9729 Y45.8402
G01 X38.9733 Y45.8550
G01 X38.9733 Y60.2892
G01 X38.9729 Y60.3040
G01 X38.9705 Y60.3531
G01 X38.9694 Y60.3679
G01 X38.9676 Y60.3826
G01 X38.9604 Y60.4312
G01 X38.9579 Y60.4458
G01 X38.9546 Y60.4603
G01 X38.9408 Y60.5151
G01 X38.9341 Y60.5363
G01 X38.9175 Y60.5826
G01 X38.9122 Y60.5964
G01 X38.9062 Y60.6100
G01 X38.8819 Y60.6610
G01 X38.8749 Y60.6741
G01 X38.8675 Y60.6867
G01 X44.1173 Y60.6867
G01 X44.1475 Y60.6024
G01 X44.1528 Y60.5885
G01 X44.1588 Y60.5750
G01 X44.2008 Y60.4862
G01 X44.2075 Y60.4730
G01 X44.2148 Y60.4601
G01 X44.2691 Y60.3696
G01 X44.2817 Y60.3512
G01 X44.3402 Y60.2724
G01 X44.3493 Y60.2607
G01 X44.3590 Y60.2494
G01 X44.4249 Y60.1767
G01 X44.4352 Y60.1660
G01 X44.4459 Y60.1557
G01 X44.5186 Y60.0898
G01 X44.5299 Y60.0801
G01 X44.5416 Y60.0710
G01 X44.6204 Y60.0125
G01 X44.6325 Y60.0040
G01 X44.6451 Y59.9960
G01 X44.7293 Y59.9456
G01 X44.7422 Y59.9383
G01 X44.7554 Y59.9316
G01 X44.8442 Y59.8896
G01 X44.8577 Y59.8836
G01 X44.8716 Y59.8783
G01 X44.9640 Y59.8452
G01 X44.9781 Y59.8405
G01 X44.9924 Y59.8366
G01 X45.0706 Y59.8170
G01 X44.9924 Y59.7974
G01 X44.9781 Y59.7935
G01 X44.9640 Y59.7888
G01 X44.8716 Y59.7557
G01 X44.8577 Y59.7504
G01 X44.8442 Y59.7444
G01 X44.7554 Y59.7024
G01 X44.7422 Y59.6957
G01 X44.7293 Y59.6884
G01 X44.6451 Y59.6380
G01 X44.6325 Y59.6300
G01 X44.6204 Y59.6215
G01 X44.5416 Y59.5630
G01 X44.5299 Y59.5539
G01 X44.5186 Y59.5442
G01 X44.4459 Y59.4783
G01 X44.4352 Y59.4680
G01 X44.4249 Y59.4573
G01 X44.3541 Y59.3790
G01 X44.3402 Y59.3616
G01 X44.2817 Y59.2828
G01 X44.2732 Y59.2707
G01 X44.2652 Y59.2581
G01 X44.2148 Y59.1739
G01 X44.2075 Y59.1610
