(G-CODE GENERATED BY FLATCAM v8.994 - www.flatcam.org - Version Date: 2020/11/7)

(Name: WB-F_Cu.gbr_iso_combined_1_cnc)
(Type: G-code from Geometry)
(Units: MM)

(Created on Sunday, 13 November 2022 at 15:02)

(This preprocessor is the default preprocessor used by FlatCAM.)
(It is made to work with MACH3 compatible motion controllers.)

(TOOL DIAMETER: 0.3176 mm)
(Feedrate_XY: 30.0 mm/min)
(Feedrate_Z: 60.0 mm/min)
(Feedrate rapids 1500.0 mm/min)

(Z_Cut: -0.0499 mm)
(Z_Move: 2.0 mm)
(Z Start: None mm)
(Z End: 15.0 mm)
(X,Y End: None mm)
(Steps per circle: 64)
(Preprocessor Geometry: default)

(X range:    1.0999 ...   89.2043  mm)
(Y range:    1.4293 ...   83.6083  mm)

(Spindle Speed: 0.0 RPM)
G21
G90
G94

G01 F30.00

M5
G00 Z15.0000
G00 X0.0000 Y0.0000

M03
G01 F30.00
G00 X9.7915 Y2.6331
G01 F60.00
G01 Z-0.0499
G01 F30.00
G01 X9.8944 Y2.6384
G01 X9.9938 Y2.6532
G01 X10.0914 Y2.6776
G01 X10.1908 Y2.7129
G01 X10.2850 Y2.7576
G01 X10.3723 Y2.8100
G01 X10.4532 Y2.8698
G01 X10.5306 Y2.9397
G01 X10.6014 Y3.0178
G01 X10.6613 Y3.0986
G01 X10.6820 Y3.1327
G01 X11.2614 Y3.1327
G01 X12.8036 Y1.5905
G01 X12.8427 Y1.5550
G01 X12.8870 Y1.5221
G01 X12.9312 Y1.4955
G01 X12.9844 Y1.4704
G01 X13.0330 Y1.4530
G01 X13.0854 Y1.4399
G01 X13.1388 Y1.4320
G01 X13.1915 Y1.4294
G01 X69.9601 Y1.4293
G01 X70.0128 Y1.4319
G01 X70.0674 Y1.4399
G01 X70.1175 Y1.4524
G01 X70.1729 Y1.4722
G01 X70.2195 Y1.4943
G01 X70.2658 Y1.5221
G01 X70.3092 Y1.5543
G01 X70.3483 Y1.5897
G01 X75.0388 Y6.2801
G01 X75.0684 Y6.3127
G01 X75.3000 Y6.3127
G01 X75.3000 Y6.0130
G01 X75.3004 Y6.0069
G01 X75.3022 Y5.9985
G01 X75.3048 Y5.9916
G01 X75.3091 Y5.9842
G01 X75.3138 Y5.9785
G01 X75.3192 Y5.9736
G01 X75.3264 Y5.9689
G01 X75.3343 Y5.9655
G01 X75.3415 Y5.9637
G01 X75.3500 Y5.9630
G01 X77.0500 Y5.9630
G01 X77.0585 Y5.9637
G01 X77.0680 Y5.9664
G01 X77.0767 Y5.9708
G01 X77.0836 Y5.9760
G01 X77.0902 Y5.9832
G01 X77.0929 Y5.9873
G01 X77.0957 Y5.9927
G01 X77.0988 Y6.0020
G01 X77.0996 Y6.0069
G01 X77.1000 Y6.0130
G01 X77.0999 Y7.7167
G01 X77.0982 Y7.7263
G01 X77.0952 Y7.7344
G01 X77.0909 Y7.7418
G01 X77.0845 Y7.7492
G01 X77.0778 Y7.7546
G01 X77.0691 Y7.7592
G01 X77.0598 Y7.7620
G01 X77.0512 Y7.7630
G01 X75.3500 Y7.7630
G01 X75.3427 Y7.7625
G01 X75.3355 Y7.7608
G01 X75.3275 Y7.7577
G01 X75.3202 Y7.7532
G01 X75.3138 Y7.7475
G01 X75.3084 Y7.7408
G01 X75.3048 Y7.7344
G01 X75.3018 Y7.7263
G01 X75.3004 Y7.7191
G01 X75.3000 Y7.7130
G01 X75.3000 Y7.4133
G01 X74.6497 Y7.4133
G01 X74.5958 Y7.4106
G01 X74.5400 Y7.4021
G01 X74.4900 Y7.3896
G01 X74.4414 Y7.3722
G01 X74.3903 Y7.3483
G01 X74.3430 Y7.3198
G01 X74.3006 Y7.2883
G01 X74.2589 Y7.2503
G01 X74.2244 Y7.2121
G01 X74.1936 Y7.1707
G01 X74.1650 Y7.1235
G01 X74.1413 Y7.0736
G01 X74.1228 Y7.0216
G01 X74.1098 Y6.9691
G01 X74.1022 Y6.9182
G01 X74.1011 Y6.8988
G01 X69.7322 Y2.5299
G01 X13.4206 Y2.5299
G01 X11.8784 Y4.0721
G01 X11.8384 Y4.1083
G01 X11.7929 Y4.1418
G01 X11.7487 Y4.1683
G01 X11.7021 Y4.1904
G01 X11.6514 Y4.2088
G01 X11.5966 Y4.2227
G01 X11.5420 Y4.2307
G01 X11.4893 Y4.2333
G01 X10.6820 Y4.2333
G01 X10.6613 Y4.2674
G01 X10.6014 Y4.3482
G01 X10.5306 Y4.4263
G01 X10.4551 Y4.4947
G01 X10.3744 Y4.5546
G01 X10.2850 Y4.6084
G01 X10.1908 Y4.6531
G01 X10.0914 Y4.6884
G01 X9.9938 Y4.7128
G01 X9.8944 Y4.7276
G01 X9.7890 Y4.7330
G01 X9.6861 Y4.7279
G01 X9.5842 Y4.7128
G01 X9.4842 Y4.6878
G01 X9.3872 Y4.6531
G01 X9.2940 Y4.6090
G01 X9.2057 Y4.5560
G01 X9.1229 Y4.4947
G01 X9.0465 Y4.4255
G01 X8.9773 Y4.3491
G01 X8.9160 Y4.2663
G01 X8.8630 Y4.1780
G01 X8.8189 Y4.0848
G01 X8.7842 Y3.9878
G01 X8.7592 Y3.8878
G01 X8.7441 Y3.7859
G01 X8.7390 Y3.6830
G01 X8.7441 Y3.5801
G01 X8.7592 Y3.4782
G01 X8.7842 Y3.3782
G01 X8.8189 Y3.2812
G01 X8.8630 Y3.1880
G01 X8.9160 Y3.0997
G01 X8.9773 Y3.0169
G01 X9.0465 Y2.9405
G01 X9.1229 Y2.8713
G01 X9.2057 Y2.8100
G01 X9.2940 Y2.7570
G01 X9.3872 Y2.7129
G01 X9.4842 Y2.6782
G01 X9.5842 Y2.6532
G01 X9.6861 Y2.6381
G01 X9.7915 Y2.6331
G00 Z2.0000
G00 X10.6820 Y6.7733
G01 F60.00
G01 Z-0.0499
G01 F30.00
G01 X10.6613 Y6.8074
G01 X10.6014 Y6.8882
G01 X10.5323 Y6.9646
G01 X10.4551 Y7.0347
G01 X10.3734 Y7.0953
G01 X10.2840 Y7.1490
G01 X10.1908 Y7.1931
G01 X10.0938 Y7.2278
G01 X9.9950 Y7.2526
G01 X9.8919 Y7.2679
G01 X9.7890 Y7.2730
G01 X9.6861 Y7.2679
G01 X9.5842 Y7.2528
G01 X9.4842 Y7.2278
G01 X9.3872 Y7.1931
G01 X9.2940 Y7.1490
G01 X9.2067 Y7.0967
G01 X9.1229 Y7.0347
G01 X9.0465 Y6.9655
G01 X8.9773 Y6.8891
G01 X8.9160 Y6.8063
G01 X8.8630 Y6.7180
G01 X8.8189 Y6.6248
G01 X8.7842 Y6.5278
G01 X8.7592 Y6.4278
G01 X8.7441 Y6.3259
G01 X8.7390 Y6.2230
G01 X8.7441 Y6.1201
G01 X8.7592 Y6.0182
G01 X8.7842 Y5.9182
G01 X8.8189 Y5.8212
G01 X8.8630 Y5.7280
G01 X8.9153 Y5.6407
G01 X8.9773 Y5.5569
G01 X9.0483 Y5.4788
G01 X9.1229 Y5.4113
G01 X9.2036 Y5.3514
G01 X9.2940 Y5.2970
G01 X9.3872 Y5.2529
G01 X9.4866 Y5.2176
G01 X9.5842 Y5.1932
G01 X9.6836 Y5.1784
G01 X9.7890 Y5.1730
G01 X9.8944 Y5.1784
G01 X9.9938 Y5.1932
G01 X10.0914 Y5.2176
G01 X10.1908 Y5.2529
G01 X10.2850 Y5.2976
G01 X10.3744 Y5.3514
G01 X10.4551 Y5.4113
G01 X10.5306 Y5.4797
G01 X10.6014 Y5.5578
G01 X10.6613 Y5.6386
G01 X10.6820 Y5.6727
G01 X18.0208 Y5.6727
G01 X20.3996 Y3.2939
G01 X20.4396 Y3.2577
G01 X20.4820 Y3.2262
G01 X20.5293 Y3.1977
G01 X20.5804 Y3.1738
G01 X20.6290 Y3.1564
G01 X20.6790 Y3.1439
G01 X20.7360 Y3.1353
G01 X20.7887 Y3.1327
G01 X21.5960 Y3.1327
G01 X21.6167 Y3.0986
G01 X21.6766 Y3.0178
G01 X21.7457 Y2.9414
G01 X21.8229 Y2.8713
G01 X21.9067 Y2.8093
G01 X21.9962 Y2.7559
G01 X22.0872 Y2.7129
G01 X22.1819 Y2.6790
G01 X22.2842 Y2.6532
G01 X22.3885 Y2.6379
G01 X22.4890 Y2.6330
G01 X22.5895 Y2.6379
G01 X22.6938 Y2.6532
G01 X22.7961 Y2.6790
G01 X22.8908 Y2.7129
G01 X22.9829 Y2.7564
G01 X23.0744 Y2.8114
G01 X23.1551 Y2.8713
G01 X23.2306 Y2.9397
G01 X23.3014 Y3.0178
G01 X23.3613 Y3.0986
G01 X23.3820 Y3.1327
G01 X24.7399 Y3.1328
G01 X24.7926 Y3.1354
G01 X24.8436 Y3.1429
G01 X24.9008 Y3.1572
G01 X24.9493 Y3.1746
G01 X24.9981 Y3.1977
G01 X25.0444 Y3.2255
G01 X25.0887 Y3.2584
G01 X25.1278 Y3.2939
G01 X25.6016 Y3.7677
G01 X26.2129 Y3.7677
G01 X26.2291 Y3.7461
G01 X26.2867 Y3.6825
G01 X26.3521 Y3.6231
G01 X26.4240 Y3.5697
G01 X26.5008 Y3.5237
G01 X26.5819 Y3.4856
G01 X26.6627 Y3.4568
G01 X26.7460 Y3.4358
G01 X26.8358 Y3.4223
G01 X26.9240 Y3.4180
G01 X27.0122 Y3.4223
G01 X27.1020 Y3.4358
G01 X27.1853 Y3.4568
G01 X27.2661 Y3.4856
G01 X27.3472 Y3.5237
G01 X27.4240 Y3.5697
G01 X27.4959 Y3.6231
G01 X27.5613 Y3.6825
G01 X27.6189 Y3.7461
G01 X27.6351 Y3.7677
G01 X32.3724 Y3.7677
G01 X32.3886 Y3.7461
G01 X32.4462 Y3.6825
G01 X32.5116 Y3.6231
G01 X32.5835 Y3.5697
G01 X32.6603 Y3.5237
G01 X32.7414 Y3.4856
G01 X32.8222 Y3.4568
G01 X32.9055 Y3.4358
G01 X32.9953 Y3.4223
G01 X33.0835 Y3.4180
G01 X33.1717 Y3.4223
G01 X33.2615 Y3.4358
G01 X33.3448 Y3.4568
G01 X33.4256 Y3.4856
G01 X33.5067 Y3.5237
G01 X33.5835 Y3.5697
G01 X33.6554 Y3.6231
G01 X33.7208 Y3.6825
G01 X33.7784 Y3.7461
G01 X33.7946 Y3.7677
G01 X38.5319 Y3.7677
G01 X38.5481 Y3.7461
G01 X38.6057 Y3.6825
G01 X38.6711 Y3.6231
G01 X38.7430 Y3.5697
G01 X38.8198 Y3.5237
G01 X38.9009 Y3.4856
G01 X38.9817 Y3.4568
G01 X39.0650 Y3.4358
G01 X39.1548 Y3.4223
G01 X39.2430 Y3.4180
G01 X39.3312 Y3.4223
G01 X39.4210 Y3.4358
G01 X39.5043 Y3.4568
G01 X39.5851 Y3.4856
G01 X39.6662 Y3.5237
G01 X39.7430 Y3.5697
G01 X39.8149 Y3.6231
G01 X39.8803 Y3.6825
G01 X39.9379 Y3.7461
G01 X39.9541 Y3.7677
G01 X44.3739 Y3.7677
G01 X44.3901 Y3.7461
G01 X44.4477 Y3.6825
G01 X44.5131 Y3.6231
G01 X44.5850 Y3.5697
G01 X44.6618 Y3.5237
G01 X44.7429 Y3.4856
G01 X44.8237 Y3.4568
G01 X44.9070 Y3.4358
G01 X44.9968 Y3.4223
G01 X45.0850 Y3.4180
G01 X45.1732 Y3.4223
G01 X45.2630 Y3.4358
G01 X45.3463 Y3.4568
G01 X45.4271 Y3.4856
G01 X45.5082 Y3.5237
G01 X45.5850 Y3.5697
G01 X45.6569 Y3.6231
G01 X45.7223 Y3.6825
G01 X45.7799 Y3.7461
G01 X45.7961 Y3.7677
G01 X50.8509 Y3.7677
G01 X50.8671 Y3.7461
G01 X50.9247 Y3.6825
G01 X50.9901 Y3.6231
G01 X51.0620 Y3.5697
G01 X51.1388 Y3.5237
G01 X51.2199 Y3.4856
G01 X51.3007 Y3.4568
G01 X51.3840 Y3.4358
G01 X51.4738 Y3.4223
G01 X51.5620 Y3.4180
G01 X51.6502 Y3.4223
G01 X51.7400 Y3.4358
G01 X51.8233 Y3.4568
G01 X51.9041 Y3.4856
G01 X51.9852 Y3.5237
G01 X52.0620 Y3.5697
G01 X52.1339 Y3.6231
G01 X52.1993 Y3.6825
G01 X52.2569 Y3.7461
G01 X52.2731 Y3.7677
G01 X57.0739 Y3.7677
G01 X57.0901 Y3.7461
G01 X57.1477 Y3.6825
G01 X57.2131 Y3.6231
G01 X57.2850 Y3.5697
G01 X57.3618 Y3.5237
G01 X57.4429 Y3.4856
G01 X57.5237 Y3.4568
G01 X57.6070 Y3.4358
G01 X57.6968 Y3.4223
G01 X57.7862 Y3.4180
G01 X57.8732 Y3.4223
G01 X57.9606 Y3.4353
G01 X58.0463 Y3.4568
G01 X58.1294 Y3.4865
G01 X58.2093 Y3.5243
G01 X58.2850 Y3.5697
G01 X58.3560 Y3.6223
G01 X58.4196 Y3.6799
G01 X58.4822 Y3.7490
G01 X58.5333 Y3.8180
G01 X58.5798 Y3.8959
G01 X58.6165 Y3.9736
G01 X58.6462 Y4.0567
G01 X58.6677 Y4.1424
G01 X58.6808 Y4.2322
G01 X58.6850 Y4.3180
G01 X58.6807 Y4.4062
G01 X58.6677 Y4.4936
G01 X58.6455 Y4.5816
G01 X58.6165 Y4.6624
G01 X58.5775 Y4.7444
G01 X58.5333 Y4.8180
G01 X58.4822 Y4.8870
G01 X58.4231 Y4.9526
G01 X58.3560 Y5.0137
G01 X58.2850 Y5.0663
G01 X58.2093 Y5.1117
G01 X58.1294 Y5.1495
G01 X58.0463 Y5.1792
G01 X57.9606 Y5.2007
G01 X57.8732 Y5.2137
G01 X57.7850 Y5.2180
G01 X57.6968 Y5.2137
G01 X57.6070 Y5.2002
G01 X57.5237 Y5.1792
G01 X57.4429 Y5.1504
G01 X57.3618 Y5.1123
G01 X57.2850 Y5.0663
G01 X57.2131 Y5.0129
G01 X57.1477 Y4.9535
G01 X57.0901 Y4.8899
G01 X57.0739 Y4.8683
G01 X52.2731 Y4.8683
G01 X52.2569 Y4.8899
G01 X52.1993 Y4.9535
G01 X52.1339 Y5.0129
G01 X52.0620 Y5.0663
G01 X51.9852 Y5.1123
G01 X51.9041 Y5.1504
G01 X51.8233 Y5.1792
G01 X51.7400 Y5.2002
G01 X51.6502 Y5.2137
G01 X51.5620 Y5.2180
G01 X51.4738 Y5.2137
G01 X51.3840 Y5.2002
G01 X51.3007 Y5.1792
G01 X51.2199 Y5.1504
G01 X51.1388 Y5.1123
G01 X51.0620 Y5.0663
G01 X50.9901 Y5.0129
G01 X50.9247 Y4.9535
G01 X50.8671 Y4.8899
G01 X50.8509 Y4.8683
G01 X45.7961 Y4.8683
G01 X45.7799 Y4.8899
G01 X45.7223 Y4.9535
G01 X45.6569 Y5.0129
G01 X45.5850 Y5.0663
G01 X45.5082 Y5.1123
G01 X45.4271 Y5.1504
G01 X45.3463 Y5.1792
G01 X45.2630 Y5.2002
G01 X45.1732 Y5.2137
G01 X45.0850 Y5.2180
G01 X44.9968 Y5.2137
G01 X44.9070 Y5.2002
G01 X44.8237 Y5.1792
G01 X44.7429 Y5.1504
G01 X44.6618 Y5.1123
G01 X44.5850 Y5.0663
G01 X44.5131 Y5.0129
G01 X44.4477 Y4.9535
G01 X44.3901 Y4.8899
G01 X44.3739 Y4.8683
G01 X39.9541 Y4.8683
G01 X39.9379 Y4.8899
G01 X39.8803 Y4.9535
G01 X39.8149 Y5.0129
G01 X39.7430 Y5.0663
G01 X39.6662 Y5.1123
G01 X39.5851 Y5.1504
G01 X39.5043 Y5.1792
G01 X39.4210 Y5.2002
G01 X39.3312 Y5.2137
G01 X39.2430 Y5.2180
G01 X39.1548 Y5.2137
G01 X39.0650 Y5.2002
G01 X38.9817 Y5.1792
G01 X38.9009 Y5.1504
G01 X38.8198 Y5.1123
G01 X38.7430 Y5.0663
G01 X38.6711 Y5.0129
G01 X38.6057 Y4.9535
G01 X38.5481 Y4.8899
G01 X38.5319 Y4.8683
G01 X33.7946 Y4.8683
G01 X33.7784 Y4.8899
G01 X33.7208 Y4.9535
G01 X33.6554 Y5.0129
G01 X33.5835 Y5.0663
G01 X33.5067 Y5.1123
G01 X33.4256 Y5.1504
G01 X33.3448 Y5.1792
G01 X33.2615 Y5.2002
G01 X33.1717 Y5.2137
G01 X33.0835 Y5.2180
G01 X32.9953 Y5.2137
G01 X32.9055 Y5.2002
G01 X32.8222 Y5.1792
G01 X32.7414 Y5.1504
G01 X32.6603 Y5.1123
G01 X32.5835 Y5.0663
G01 X32.5116 Y5.0129
G01 X32.4462 Y4.9535
G01 X32.3886 Y4.8899
G01 X32.3724 Y4.8683
G01 X27.6351 Y4.8683
G01 X27.6189 Y4.8899
G01 X27.5613 Y4.9535
G01 X27.4959 Y5.0129
G01 X27.4240 Y5.0663
G01 X27.3472 Y5.1123
G01 X27.2661 Y5.1504
G01 X27.1853 Y5.1792
G01 X27.1020 Y5.2002
G01 X27.0122 Y5.2137
G01 X26.9228 Y5.2180
G01 X26.8358 Y5.2137
G01 X26.7460 Y5.2002
G01 X26.6627 Y5.1792
G01 X26.5819 Y5.1504
G01 X26.5008 Y5.1123
G01 X26.4240 Y5.0663
G01 X26.3521 Y5.0129
G01 X26.2867 Y4.9535
G01 X26.2291 Y4.8899
G01 X26.2129 Y4.8683
G01 X25.3712 Y4.8682
G01 X25.3198 Y4.8656
G01 X25.2664 Y4.8577
G01 X25.2140 Y4.8446
G01 X25.1631 Y4.8264
G01 X25.1143 Y4.8033
G01 X25.0680 Y4.7755
G01 X25.0246 Y4.7433
G01 X24.9864 Y4.7088
G01 X24.5108 Y4.2333
G01 X23.3820 Y4.2333
G01 X23.3613 Y4.2674
G01 X23.3014 Y4.3482
G01 X23.2306 Y4.4263
G01 X23.1532 Y4.4962
G01 X23.0723 Y4.5560
G01 X22.9850 Y4.6084
G01 X22.8908 Y4.6531
G01 X22.7914 Y4.6884
G01 X22.6938 Y4.7128
G01 X22.5944 Y4.7276
G01 X22.4890 Y4.7330
G01 X22.3836 Y4.7276
G01 X22.2842 Y4.7128
G01 X22.1866 Y4.6884
G01 X22.0872 Y4.6531
G01 X21.9930 Y4.6084
G01 X21.9057 Y4.5560
G01 X21.8248 Y4.4962
G01 X21.7474 Y4.4263
G01 X21.6766 Y4.3482
G01 X21.6167 Y4.2674
G01 X21.5960 Y4.2333
G01 X21.0166 Y4.2333
G01 X18.6369 Y6.6129
G01 X18.5978 Y6.6483
G01 X18.5564 Y6.6791
G01 X18.5081 Y6.7083
G01 X18.4570 Y6.7322
G01 X18.4084 Y6.7496
G01 X18.3584 Y6.7621
G01 X18.3026 Y6.7706
G01 X18.2487 Y6.7733
G01 X10.6820 Y6.7733
G00 Z2.0000
G00 X9.7915 Y10.2531
G01 F60.00
G01 Z-0.0499
G01 F30.00
G01 X9.8919 Y10.2581
G01 X9.9938 Y10.2732
G01 X10.0938 Y10.2982
G01 X10.1908 Y10.3329
G01 X10.2840 Y10.3770
G01 X10.3723 Y10.4300
G01 X10.4551 Y10.4913
G01 X10.5315 Y10.5605
G01 X10.6007 Y10.6369
G01 X10.6620 Y10.7197
G01 X10.7150 Y10.8080
G01 X10.7591 Y10.9012
G01 X10.7938 Y10.9982
G01 X10.8188 Y11.0982
G01 X10.8339 Y11.2001
G01 X10.8390 Y11.3030
G01 X10.8339 Y11.4059
G01 X10.8188 Y11.5078
G01 X10.7938 Y11.6078
G01 X10.7591 Y11.7048
G01 X10.7150 Y11.7980
G01 X10.6620 Y11.8863
G01 X10.6007 Y11.9691
G01 X10.5315 Y12.0455
G01 X10.4551 Y12.1147
G01 X10.3723 Y12.1760
G01 X10.2840 Y12.2290
G01 X10.1908 Y12.2731
G01 X10.0938 Y12.3078
G01 X9.9938 Y12.3328
G01 X9.8919 Y12.3479
G01 X9.7890 Y12.3530
G01 X9.6861 Y12.3479
G01 X9.5842 Y12.3328
G01 X9.4842 Y12.3078
G01 X9.3872 Y12.2731
G01 X9.2940 Y12.2290
G01 X9.2057 Y12.1760
G01 X9.1229 Y12.1147
G01 X9.0465 Y12.0455
G01 X8.9773 Y11.9691
G01 X8.9160 Y11.8863
G01 X8.8630 Y11.7980
G01 X8.8189 Y11.7048
G01 X8.7842 Y11.6078
G01 X8.7592 Y11.5078
G01 X8.7441 Y11.4059
G01 X8.7390 Y11.3030
G01 X8.7441 Y11.2001
G01 X8.7592 Y11.0982
G01 X8.7842 Y10.9982
G01 X8.8189 Y10.9012
G01 X8.8630 Y10.8080
G01 X8.9160 Y10.7197
G01 X8.9773 Y10.6369
G01 X9.0465 Y10.5605
G01 X9.1229 Y10.4913
G01 X9.2057 Y10.4300
G01 X9.2940 Y10.3770
G01 X9.3872 Y10.3329
G01 X9.4842 Y10.2982
G01 X9.5842 Y10.2732
G01 X9.6861 Y10.2581
G01 X9.7915 Y10.2531
G00 Z2.0000
G00 X9.7915 Y15.3331
G01 F60.00
G01 Z-0.0499
G01 F30.00
G01 X9.8919 Y15.3381
G01 X9.9938 Y15.3532
G01 X10.0938 Y15.3782
G01 X10.1908 Y15.4129
G01 X10.2840 Y15.4570
G01 X10.3723 Y15.5100
G01 X10.4551 Y15.5713
G01 X10.5315 Y15.6405
G01 X10.6007 Y15.7169
G01 X10.6620 Y15.7997
G01 X10.7150 Y15.8880
G01 X10.7591 Y15.9812
G01 X10.7938 Y16.0782
G01 X10.8188 Y16.1782
G01 X10.8339 Y16.2801
G01 X10.8390 Y16.3830
G01 X10.8339 Y16.4859
G01 X10.8188 Y16.5878
G01 X10.7938 Y16.6878
G01 X10.7591 Y16.7848
G01 X10.7150 Y16.8780
G01 X10.6620 Y16.9663
G01 X10.6007 Y17.0491
G01 X10.5315 Y17.1255
G01 X10.4551 Y17.1947
G01 X10.3723 Y17.2560
G01 X10.2840 Y17.3090
G01 X10.1908 Y17.3531
G01 X10.0938 Y17.3878
G01 X9.9938 Y17.4128
G01 X9.8919 Y17.4279
G01 X9.7890 Y17.4330
G01 X9.6861 Y17.4279
G01 X9.5842 Y17.4128
G01 X9.4842 Y17.3878
G01 X9.3872 Y17.3531
G01 X9.2940 Y17.3090
G01 X9.2057 Y17.2560
G01 X9.1229 Y17.1947
G01 X9.0465 Y17.1255
G01 X8.9773 Y17.0491
G01 X8.9160 Y16.9663
G01 X8.8630 Y16.8780
G01 X8.8189 Y16.7848
G01 X8.7842 Y16.6878
G01 X8.7592 Y16.5878
G01 X8.7441 Y16.4859
G01 X8.7390 Y16.3830
G01 X8.7441 Y16.2801
G01 X8.7592 Y16.1782
G01 X8.7842 Y16.0782
G01 X8.8189 Y15.9812
G01 X8.8630 Y15.8880
G01 X8.9160 Y15.7997
G01 X8.9773 Y15.7169
G01 X9.0465 Y15.6405
G01 X9.1229 Y15.5713
G01 X9.2057 Y15.5100
G01 X9.2940 Y15.4570
G01 X9.3872 Y15.4129
G01 X9.4842 Y15.3782
G01 X9.5842 Y15.3532
G01 X9.6861 Y15.3381
G01 X9.7915 Y15.3331
G00 Z2.0000
G00 X9.7915 Y17.8731
G01 F60.00
G01 Z-0.0499
G01 F30.00
G01 X9.8944 Y17.8784
G01 X9.9938 Y17.8932
G01 X10.0914 Y17.9176
G01 X10.1908 Y17.9529
G01 X10.2850 Y17.9976
G01 X10.3723 Y18.0500
G01 X10.4532 Y18.1098
G01 X10.5306 Y18.1797
G01 X10.6014 Y18.2578
G01 X10.6613 Y18.3386
G01 X10.6820 Y18.3727
G01 X11.4893 Y18.3727
G01 X11.5432 Y18.3754
G01 X11.5966 Y18.3833
G01 X11.6467 Y18.3958
G01 X11.6999 Y18.4146
G01 X11.7508 Y18.4389
G01 X11.7950 Y18.4655
G01 X11.8374 Y18.4969
G01 X11.8784 Y18.5339
G01 X16.6658 Y23.3213
G01 X29.9495 Y23.3213
G01 X29.8580 Y23.2780
G01 X29.7697 Y23.2250
G01 X29.6869 Y23.1637
G01 X29.6123 Y23.0962
G01 X29.5398 Y23.0162
G01 X29.4800 Y22.9353
G01 X29.4270 Y22.8470
G01 X29.3829 Y22.7538
G01 X29.3482 Y22.6568
G01 X29.3232 Y22.5568
G01 X29.3082 Y22.4561
G01 X29.3030 Y22.3520
G01 X29.3080 Y22.2503
G01 X29.3230 Y22.1484
G01 X29.3325 Y22.1097
G01 X29.2361 Y22.0133
G01 X23.3820 Y22.0133
G01 X23.3613 Y22.0474
G01 X23.2999 Y22.1301
G01 X23.2315 Y22.2055
G01 X23.1542 Y22.2754
G01 X23.0723 Y22.3360
G01 X22.9840 Y22.3890
G01 X22.8908 Y22.4331
G01 X22.7950 Y22.4674
G01 X22.6938 Y22.4928
G01 X22.5944 Y22.5076
G01 X22.4865 Y22.5129
G01 X22.3861 Y22.5079
G01 X22.2842 Y22.4928
G01 X22.1842 Y22.4678
G01 X22.0883 Y22.4335
G01 X21.9940 Y22.3890
G01 X21.9077 Y22.3374
G01 X21.8210 Y22.2731
G01 X21.7465 Y22.2055
G01 X21.6773 Y22.1291
G01 X21.6160 Y22.0463
G01 X21.5630 Y21.9580
G01 X21.5189 Y21.8648
G01 X21.4850 Y21.7701
G01 X21.4588 Y21.6654
G01 X21.4441 Y21.5659
G01 X21.4390 Y21.4630
G01 X21.4441 Y21.3601
G01 X21.4592 Y21.2582
G01 X21.4842 Y21.1582
G01 X21.5180 Y21.0635
G01 X21.5642 Y20.9659
G01 X21.6160 Y20.8797
G01 X21.6773 Y20.7969
G01 X21.7465 Y20.7205
G01 X21.8229 Y20.6513
G01 X21.9057 Y20.5900
G01 X21.9919 Y20.5382
G01 X22.0895 Y20.4920
G01 X22.1842 Y20.4582
G01 X22.2842 Y20.4332
G01 X22.3861 Y20.4181
G01 X22.4890 Y20.4130
G01 X22.5944 Y20.4184
G01 X22.6938 Y20.4332
G01 X22.7914 Y20.4576
G01 X22.8908 Y20.4929
G01 X22.9850 Y20.5376
G01 X23.0723 Y20.5900
G01 X23.1532 Y20.6498
G01 X23.2306 Y20.7197
G01 X23.3014 Y20.7978
G01 X23.3613 Y20.8786
G01 X23.3820 Y20.9127
G01 X29.4640 Y20.9127
G01 X29.5204 Y20.9157
G01 X29.5713 Y20.9233
G01 X29.6214 Y20.9358
G01 X29.6746 Y20.9546
G01 X29.7234 Y20.9777
G01 X29.7697 Y21.0055
G01 X29.8131 Y21.0377
G01 X29.8531 Y21.0739
G01 X30.1107 Y21.3315
G01 X30.1494 Y21.3220
G01 X30.2513 Y21.3070
G01 X30.3530 Y21.3020
G01 X30.4571 Y21.3072
G01 X30.5578 Y21.3222
G01 X30.6578 Y21.3472
G01 X30.7548 Y21.3819
G01 X30.8490 Y21.4266
G01 X30.9363 Y21.4790
G01 X31.0172 Y21.5388
G01 X31.0955 Y21.6095
G01 X31.1647 Y21.6859
G01 X31.2246 Y21.7666
G01 X31.2801 Y21.8592
G01 X31.3231 Y21.9502
G01 X31.3584 Y22.0496
G01 X31.3832 Y22.1496
G01 X31.3979 Y22.2491
G01 X31.4029 Y22.3495
G01 X31.3979 Y22.4549
G01 X31.3828 Y22.5568
G01 X31.3578 Y22.6568
G01 X31.3240 Y22.7515
G01 X31.2790 Y22.8470
G01 X31.2260 Y22.9353
G01 X31.1647 Y23.0181
G01 X31.0955 Y23.0945
G01 X31.0191 Y23.1637
G01 X30.9363 Y23.2250
G01 X30.8480 Y23.2780
G01 X30.7565 Y23.3213
G01 X33.6855 Y23.3213
G01 X34.4125 Y22.5943
G01 X34.4030 Y22.5556
G01 X34.3882 Y22.4561
G01 X34.3830 Y22.3520
G01 X34.3882 Y22.2479
G01 X34.4030 Y22.1484
G01 X34.4125 Y22.1097
G01 X33.6452 Y21.3423
G01 X33.6091 Y21.3021
G01 X33.5785 Y21.2607
G01 X33.5519 Y21.2165
G01 X33.5276 Y21.1656
G01 X33.5091 Y21.1136
G01 X33.4963 Y21.0623
G01 X33.4887 Y21.0114
G01 X33.4857 Y20.9550
G01 X33.4857 Y18.0380
G01 X33.4516 Y18.0173
G01 X33.3708 Y17.9574
G01 X33.2935 Y17.8875
G01 X33.2236 Y17.8102
G01 X33.1637 Y17.7294
G01 X33.1430 Y17.6953
G01 X28.0710 Y17.6953
G01 X28.0503 Y17.7294
G01 X27.9904 Y17.8102
G01 X27.9196 Y17.8883
G01 X27.8422 Y17.9582
G01 X27.7613 Y18.0180
G01 X27.6740 Y18.0704
G01 X27.5798 Y18.1151
G01 X27.4804 Y18.1504
G01 X27.3828 Y18.1748
G01 X27.2834 Y18.1896
G01 X27.1780 Y18.1950
G01 X27.0726 Y18.1896
G01 X26.9732 Y18.1748
G01 X26.8756 Y18.1504
G01 X26.7762 Y18.1151
G01 X26.6809 Y18.0698
G01 X26.5947 Y18.0180
G01 X26.5138 Y17.9582
G01 X26.4355 Y17.8875
G01 X26.3648 Y17.8092
G01 X26.3050 Y17.7283
G01 X26.2520 Y17.6400
G01 X26.2079 Y17.5468
G01 X26.1740 Y17.4521
G01 X26.1478 Y17.3474
G01 X26.1331 Y17.2479
G01 X26.1280 Y17.1450
G01 X26.1331 Y17.0421
G01 X26.1482 Y16.9402
G01 X26.1732 Y16.8402
G01 X26.2079 Y16.7432
G01 X26.2520 Y16.6500
G01 X26.3057 Y16.5606
G01 X26.3663 Y16.4789
G01 X26.4364 Y16.4017
G01 X26.5128 Y16.3326
G01 X26.5936 Y16.2727
G01 X26.6277 Y16.2520
G01 X26.6277 Y15.6726
G01 X25.0502 Y14.0950
G01 X25.0148 Y14.0559
G01 X24.9826 Y14.0125
G01 X24.9548 Y13.9662
G01 X24.9317 Y13.9174
G01 X24.9135 Y13.8665
G01 X24.9004 Y13.8141
G01 X24.8925 Y13.7607
G01 X24.8899 Y13.7080
G01 X24.8899 Y11.3693
G01 X24.8925 Y11.3166
G01 X24.9004 Y11.2632
G01 X24.9135 Y11.2108
G01 X24.9309 Y11.1622
G01 X24.9560 Y11.1090
G01 X24.9826 Y11.0648
G01 X25.0148 Y11.0214
G01 X25.0510 Y10.9814
G01 X26.0807 Y9.9517
G01 X26.1207 Y9.9155
G01 X26.1641 Y9.8833
G01 X26.2104 Y9.8555
G01 X26.2592 Y9.8324
G01 X26.3101 Y9.8142
G01 X26.3625 Y9.8011
G01 X26.4159 Y9.7932
G01 X26.4686 Y9.7906
G01 X39.0528 Y9.7905
G01 X39.1067 Y9.7932
G01 X39.1601 Y9.8011
G01 X39.2149 Y9.8150
G01 X39.2634 Y9.8324
G01 X39.3100 Y9.8544
G01 X39.3585 Y9.8833
G01 X39.4037 Y9.9171
G01 X39.4419 Y9.9517
G01 X40.5247 Y11.0345
G01 X40.5634 Y11.0250
G01 X40.6653 Y11.0100
G01 X40.7670 Y11.0050
G01 X40.8687 Y11.0100
G01 X40.9742 Y11.0257
G01 X41.0718 Y11.0502
G01 X41.1688 Y11.0849
G01 X41.2620 Y11.1290
G01 X41.3483 Y11.1806
G01 X41.4341 Y11.2441
G01 X41.5095 Y11.3125
G01 X41.5779 Y11.3879
G01 X41.6393 Y11.4706
G01 X41.6600 Y11.5047
G01 X42.4673 Y11.5047
G01 X42.5200 Y11.5073
G01 X42.5770 Y11.5159
G01 X42.6270 Y11.5284
G01 X42.6756 Y11.5458
G01 X42.7267 Y11.5697
G01 X42.7750 Y11.5989
G01 X42.8164 Y11.6297
G01 X42.8564 Y11.6659
G01 X46.0849 Y14.8944
G01 X47.3710 Y14.8944
G01 X47.4237 Y14.8970
G01 X47.4807 Y14.9056
G01 X47.5307 Y14.9181
G01 X47.5816 Y14.9363
G01 X47.6325 Y14.9606
G01 X47.6767 Y14.9872
G01 X47.7181 Y15.0178
G01 X47.7601 Y15.0556
G01 X47.7947 Y15.0938
G01 X47.8298 Y15.1411
G01 X47.8563 Y15.1853
G01 X47.8794 Y15.2341
G01 X47.8976 Y15.2850
G01 X47.9109 Y15.3386
G01 X47.9186 Y15.3908
G01 X47.9213 Y15.4447
G01 X47.9213 Y16.2520
G01 X47.9554 Y16.2727
G01 X48.0362 Y16.3326
G01 X48.1135 Y16.4025
G01 X48.1834 Y16.4798
G01 X48.2433 Y16.5606
G01 X48.2640 Y16.5947
G01 X53.0820 Y16.5947
G01 X53.1027 Y16.5606
G01 X53.1626 Y16.4798
G01 X53.2334 Y16.4017
G01 X53.3089 Y16.3333
G01 X53.3896 Y16.2734
G01 X53.4790 Y16.2196
G01 X53.5732 Y16.1749
G01 X53.6726 Y16.1396
G01 X53.7702 Y16.1152
G01 X53.8696 Y16.1004
G01 X53.9738 Y16.0950
G01 X54.0804 Y16.1004
G01 X54.1798 Y16.1152
G01 X54.2774 Y16.1396
G01 X54.3768 Y16.1749
G01 X54.4710 Y16.2196
G01 X54.5583 Y16.2720
G01 X54.6392 Y16.3318
G01 X54.7166 Y16.4017
G01 X54.7874 Y16.4798
G01 X54.8473 Y16.5606
G01 X54.8680 Y16.5947
G01 X59.9318 Y16.5947
G01 X59.9780 Y16.5440
G01 X60.0379 Y16.4895
G01 X60.1048 Y16.4397
G01 X60.1783 Y16.3954
G01 X60.2515 Y16.3607
G01 X60.3323 Y16.3316
G01 X60.4132 Y16.3113
G01 X60.4957 Y16.2991
G01 X60.5815 Y16.2951
G01 X60.6623 Y16.2991
G01 X60.7448 Y16.3113
G01 X60.8257 Y16.3316
G01 X60.9043 Y16.3597
G01 X60.9797 Y16.3954
G01 X61.0512 Y16.4383
G01 X61.1182 Y16.4879
G01 X61.1800 Y16.5440
G01 X61.2361 Y16.6058
G01 X61.2857 Y16.6728
G01 X61.3286 Y16.7443
G01 X61.3643 Y16.8197
G01 X61.3924 Y16.8983
G01 X61.4127 Y16.9792
G01 X61.4249 Y17.0617
G01 X61.4290 Y17.1438
G01 X61.4249 Y17.2283
G01 X61.4127 Y17.3108
G01 X61.3924 Y17.3917
G01 X61.3652 Y17.4680
G01 X61.3274 Y17.5478
G01 X61.2857 Y17.6172
G01 X61.2345 Y17.6861
G01 X61.1800 Y17.7460
G01 X61.1182 Y17.8021
G01 X61.0512 Y17.8517
G01 X60.9797 Y17.8946
G01 X60.9043 Y17.9303
G01 X60.8257 Y17.9584
G01 X60.7448 Y17.9787
G01 X60.6611 Y17.9910
G01 X60.5765 Y17.9949
G01 X60.4957 Y17.9909
G01 X60.4156 Y17.9791
G01 X60.3323 Y17.9584
G01 X60.2537 Y17.9303
G01 X60.1783 Y17.8946
G01 X60.1048 Y17.8503
G01 X60.0379 Y17.8005
G01 X59.9780 Y17.7460
G01 X59.9318 Y17.6953
G01 X54.8680 Y17.6953
G01 X54.8473 Y17.7294
G01 X54.7874 Y17.8102
G01 X54.7166 Y17.8883
G01 X54.6411 Y17.9567
G01 X54.5604 Y18.0166
G01 X54.4710 Y18.0704
G01 X54.3745 Y18.1160
G01 X54.2798 Y18.1498
G01 X54.1822 Y18.1743
G01 X54.0779 Y18.1899
G01 X53.9738 Y18.1950
G01 X53.8696 Y18.1896
G01 X53.7702 Y18.1748
G01 X53.6726 Y18.1504
G01 X53.5732 Y18.1151
G01 X53.4790 Y18.0704
G01 X53.3917 Y18.0180
G01 X53.3108 Y17.9582
G01 X53.2334 Y17.8883
G01 X53.1626 Y17.8102
G01 X53.1027 Y17.7294
G01 X53.0820 Y17.6953
G01 X48.2640 Y17.6953
G01 X48.2433 Y17.7294
G01 X48.1819 Y17.8121
G01 X48.1135 Y17.8875
G01 X48.0381 Y17.9559
G01 X47.9523 Y18.0194
G01 X47.8660 Y18.0710
G01 X47.7739 Y18.1146
G01 X47.6734 Y18.1504
G01 X47.5758 Y18.1748
G01 X47.4739 Y18.1899
G01 X47.3685 Y18.1949
G01 X47.2681 Y18.1899
G01 X47.1674 Y18.1750
G01 X47.0639 Y18.1490
G01 X46.9692 Y18.1151
G01 X46.8760 Y18.0710
G01 X46.7877 Y18.0180
G01 X46.7068 Y17.9582
G01 X46.6285 Y17.8875
G01 X46.5593 Y17.8111
G01 X46.4994 Y17.7304
G01 X46.4450 Y17.6400
G01 X46.4009 Y17.5468
G01 X46.3670 Y17.4521
G01 X46.3408 Y17.3474
G01 X46.3259 Y17.2455
G01 X46.3210 Y17.1450
G01 X46.3259 Y17.0445
G01 X46.3412 Y16.9402
G01 X46.3670 Y16.8379
G01 X46.4009 Y16.7432
G01 X46.4450 Y16.6500
G01 X46.4980 Y16.5617
G01 X46.5586 Y16.4798
G01 X46.6285 Y16.4025
G01 X46.7039 Y16.3341
G01 X46.7866 Y16.2727
G01 X46.8207 Y16.2520
G01 X46.8207 Y15.9950
G01 X45.8570 Y15.9950
G01 X45.8043 Y15.9924
G01 X45.7473 Y15.9838
G01 X45.6973 Y15.9713
G01 X45.6487 Y15.9539
G01 X45.5976 Y15.9300
G01 X45.5493 Y15.9008
G01 X45.5079 Y15.8700
G01 X45.4679 Y15.8338
G01 X42.2394 Y12.6053
G01 X41.6600 Y12.6053
G01 X41.6393 Y12.6394
G01 X41.5794 Y12.7202
G01 X41.5103 Y12.7966
G01 X41.4331 Y12.8667
G01 X41.3514 Y12.9273
G01 X41.2620 Y12.9810
G01 X41.1688 Y13.0251
G01 X41.0718 Y13.0598
G01 X40.9694 Y13.0852
G01 X40.8699 Y13.0999
G01 X40.7670 Y13.1050
G01 X40.6641 Y13.0999
G01 X40.5622 Y13.0848
G01 X40.4622 Y13.0598
G01 X40.3652 Y13.0251
G01 X40.2720 Y12.9810
G01 X40.1847 Y12.9287
G01 X40.0990 Y12.8651
G01 X40.0245 Y12.7975
G01 X39.9553 Y12.7211
G01 X39.8940 Y12.6383
G01 X39.8422 Y12.5521
G01 X39.7965 Y12.4557
G01 X39.7622 Y12.3598
G01 X39.7377 Y12.2622
G01 X39.7220 Y12.1567
G01 X39.7170 Y12.0550
G01 X39.7220 Y11.9533
G01 X39.7370 Y11.8514
G01 X39.7465 Y11.8127
G01 X38.8249 Y10.8911
G01 X26.6977 Y10.8911
G01 X25.9904 Y11.5984
G01 X25.9904 Y13.4789
G01 X27.5671 Y15.0556
G01 X27.6033 Y15.0956
G01 X27.6355 Y15.1390
G01 X27.6644 Y15.1875
G01 X27.6864 Y15.2341
G01 X27.7038 Y15.2826
G01 X27.7177 Y15.3374
G01 X27.7257 Y15.3920
G01 X27.7283 Y15.4447
G01 X27.7283 Y16.2520
G01 X27.7624 Y16.2727
G01 X27.8432 Y16.3326
G01 X27.9205 Y16.4025
G01 X27.9904 Y16.4798
G01 X28.0503 Y16.5606
G01 X28.0710 Y16.5947
G01 X33.1430 Y16.5947
G01 X33.1637 Y16.5606
G01 X33.2236 Y16.4798
G01 X33.2944 Y16.4017
G01 X33.3699 Y16.3333
G01 X33.4506 Y16.2734
G01 X33.5400 Y16.2196
G01 X33.6342 Y16.1749
G01 X33.7336 Y16.1396
G01 X33.8312 Y16.1152
G01 X33.9306 Y16.1004
G01 X34.0360 Y16.0950
G01 X34.1414 Y16.1004
G01 X34.2408 Y16.1152
G01 X34.3384 Y16.1396
G01 X34.4378 Y16.1749
G01 X34.5331 Y16.2202
G01 X34.6193 Y16.2720
G01 X34.7002 Y16.3318
G01 X34.7785 Y16.4025
G01 X34.8477 Y16.4789
G01 X34.9076 Y16.5596
G01 X34.9620 Y16.6500
G01 X35.0061 Y16.7432
G01 X35.0408 Y16.8402
G01 X35.0658 Y16.9402
G01 X35.0809 Y17.0421
G01 X35.0860 Y17.1450
G01 X35.0809 Y17.2479
G01 X35.0658 Y17.3498
G01 X35.0411 Y17.4486
G01 X35.0061 Y17.5468
G01 X34.9620 Y17.6400
G01 X34.9090 Y17.7283
G01 X34.8484 Y17.8102
G01 X34.7785 Y17.8875
G01 X34.7031 Y17.9559
G01 X34.6204 Y18.0173
G01 X34.5863 Y18.0380
G01 X34.5863 Y20.7271
G01 X35.1907 Y21.3315
G01 X35.2294 Y21.3220
G01 X35.3289 Y21.3072
G01 X35.4342 Y21.3020
G01 X35.5384 Y21.3074
G01 X35.6378 Y21.3222
G01 X35.7366 Y21.3469
G01 X35.8348 Y21.3819
G01 X35.9301 Y21.4272
G01 X36.0163 Y21.4790
G01 X36.0972 Y21.5388
G01 X36.1737 Y21.6078
G01 X36.2447 Y21.6859
G01 X36.3060 Y21.7687
G01 X36.3590 Y21.8570
G01 X36.4040 Y21.9525
G01 X36.4378 Y22.0472
G01 X36.4623 Y22.1448
G01 X36.4776 Y22.2466
G01 X36.4830 Y22.3520
G01 X36.4778 Y22.4561
G01 X36.4628 Y22.5568
G01 X36.4378 Y22.6568
G01 X36.4031 Y22.7538
G01 X36.3590 Y22.8470
G01 X36.3060 Y22.9353
G01 X36.2447 Y23.0181
G01 X36.1755 Y23.0945
G01 X36.0982 Y23.1644
G01 X36.0163 Y23.2250
G01 X35.9258 Y23.2791
G01 X35.8348 Y23.3221
G01 X35.7401 Y23.3560
G01 X35.6390 Y23.3816
G01 X35.5359 Y23.3969
G01 X35.4318 Y23.4020
G01 X35.3289 Y23.3968
G01 X35.2294 Y23.3820
G01 X35.1907 Y23.3725
G01 X34.3025 Y24.2607
G01 X34.2625 Y24.2969
G01 X34.2191 Y24.3291
G01 X34.1749 Y24.3557
G01 X34.1217 Y24.3808
G01 X34.0731 Y24.3982
G01 X34.0207 Y24.4113
G01 X33.9673 Y24.4192
G01 X33.9146 Y24.4218
G01 X16.4379 Y24.4219
G01 X16.3815 Y24.4189
G01 X16.3306 Y24.4113
G01 X16.2793 Y24.3985
G01 X16.2273 Y24.3800
G01 X16.1764 Y24.3557
G01 X16.1322 Y24.3291
G01 X16.0908 Y24.2985
G01 X16.0488 Y24.2607
G01 X11.2614 Y19.4733
G01 X10.6820 Y19.4733
G01 X10.6613 Y19.5074
G01 X10.6014 Y19.5882
G01 X10.5323 Y19.6646
G01 X10.4551 Y19.7347
G01 X10.3713 Y19.7967
G01 X10.2818 Y19.8501
G01 X10.1908 Y19.8931
G01 X10.0961 Y19.9270
G01 X9.9938 Y19.9528
G01 X9.8919 Y19.9679
G01 X9.7890 Y19.9730
G01 X9.6836 Y19.9676
G01 X9.5842 Y19.9528
G01 X9.4866 Y19.9284
G01 X9.3895 Y19.8940
G01 X9.2940 Y19.8490
G01 X9.2057 Y19.7960
G01 X9.1229 Y19.7347
G01 X9.0465 Y19.6655
G01 X8.9758 Y19.5872
G01 X8.9160 Y19.5063
G01 X8.8630 Y19.4180
G01 X8.8189 Y19.3248
G01 X8.7850 Y19.2301
G01 X8.7592 Y19.1278
G01 X8.7441 Y19.0259
G01 X8.7391 Y18.9255
G01 X8.7441 Y18.8201
G01 X8.7597 Y18.7158
G01 X8.7842 Y18.6182
G01 X8.8189 Y18.5212
G01 X8.8630 Y18.4280
G01 X8.9146 Y18.3417
G01 X8.9773 Y18.2569
G01 X9.0465 Y18.1805
G01 X9.1210 Y18.1129
G01 X9.2057 Y18.0500
G01 X9.2962 Y17.9959
G01 X9.3872 Y17.9529
G01 X9.4842 Y17.9182
G01 X9.5842 Y17.8932
G01 X9.6836 Y17.8784
G01 X9.7915 Y17.8731
G00 Z2.0000
G00 X9.7915 Y20.4131
G01 F60.00
G01 Z-0.0499
G01 F30.00
G01 X9.8919 Y20.4181
G01 X9.9938 Y20.4332
G01 X10.0938 Y20.4582
G01 X10.1908 Y20.4929
G01 X10.2840 Y20.5370
G01 X10.3723 Y20.5900
G01 X10.4551 Y20.6513
G01 X10.5315 Y20.7205
G01 X10.6007 Y20.7969
G01 X10.6620 Y20.8797
G01 X10.7150 Y20.9680
G01 X10.7591 Y21.0612
G01 X10.7938 Y21.1582
G01 X10.8188 Y21.2582
G01 X10.8339 Y21.3601
G01 X10.8390 Y21.4630
G01 X10.8339 Y21.5659
G01 X10.8188 Y21.6678
G01 X10.7938 Y21.7678
G01 X10.7591 Y21.8648
G01 X10.7150 Y21.9580
G01 X10.6620 Y22.0463
G01 X10.6007 Y22.1291
G01 X10.5315 Y22.2055
G01 X10.4551 Y22.2747
G01 X10.3723 Y22.3360
G01 X10.2840 Y22.3890
G01 X10.1908 Y22.4331
G01 X10.0938 Y22.4678
G01 X9.9938 Y22.4928
G01 X9.8919 Y22.5079
G01 X9.7890 Y22.5130
G01 X9.6861 Y22.5079
G01 X9.5842 Y22.4928
G01 X9.4842 Y22.4678
G01 X9.3872 Y22.4331
G01 X9.2940 Y22.3890
G01 X9.2057 Y22.3360
G01 X9.1229 Y22.2747
G01 X9.0465 Y22.2055
G01 X8.9773 Y22.1291
G01 X8.9160 Y22.0463
G01 X8.8630 Y21.9580
G01 X8.8189 Y21.8648
G01 X8.7842 Y21.7678
G01 X8.7592 Y21.6678
G01 X8.7441 Y21.5659
G01 X8.7390 Y21.4630
G01 X8.7441 Y21.3601
G01 X8.7592 Y21.2582
G01 X8.7842 Y21.1582
G01 X8.8189 Y21.0612
G01 X8.8630 Y20.9680
G01 X8.9160 Y20.8797
G01 X8.9773 Y20.7969
G01 X9.0465 Y20.7205
G01 X9.1229 Y20.6513
G01 X9.2057 Y20.5900
G01 X9.2940 Y20.5370
G01 X9.3872 Y20.4929
G01 X9.4842 Y20.4582
G01 X9.5842 Y20.4332
G01 X9.6861 Y20.4181
G01 X9.7915 Y20.4131
G00 Z2.0000
G00 X3.5585 Y17.9901
G01 F60.00
G01 Z-0.0499
G01 F30.00
G01 X3.6589 Y17.9951
G01 X3.7608 Y18.0102
G01 X3.8608 Y18.0352
G01 X3.9578 Y18.0699
G01 X4.0510 Y18.1140
G01 X4.1393 Y18.1670
G01 X4.2221 Y18.2283
G01 X4.2985 Y18.2975
G01 X4.3677 Y18.3739
G01 X4.4290 Y18.4567
G01 X4.4820 Y18.5450
G01 X4.5261 Y18.6382
G01 X4.5608 Y18.7352
G01 X4.5858 Y18.8352
G01 X4.6009 Y18.9371
G01 X4.6060 Y19.0400
G01 X4.6009 Y19.1429
G01 X4.5858 Y19.2448
G01 X4.5608 Y19.3448
G01 X4.5261 Y19.4418
G01 X4.4820 Y19.5350
G01 X4.4290 Y19.6233
G01 X4.3677 Y19.7061
G01 X4.2985 Y19.7825
G01 X4.2221 Y19.8517
G01 X4.1393 Y19.9130
G01 X4.0510 Y19.9660
G01 X3.9578 Y20.0101
G01 X3.8608 Y20.0448
G01 X3.7608 Y20.0698
G01 X3.6589 Y20.0849
G01 X3.5560 Y20.0900
G01 X3.4531 Y20.0849
G01 X3.3512 Y20.0698
G01 X3.2512 Y20.0448
G01 X3.1542 Y20.0101
G01 X3.0610 Y19.9660
G01 X2.9727 Y19.9130
G01 X2.8899 Y19.8517
G01 X2.8135 Y19.7825
G01 X2.7443 Y19.7061
G01 X2.6830 Y19.6233
G01 X2.6300 Y19.5350
G01 X2.5859 Y19.4418
G01 X2.5512 Y19.3448
G01 X2.5262 Y19.2448
G01 X2.5111 Y19.1429
G01 X2.5060 Y19.0400
G01 X2.5111 Y18.9371
G01 X2.5262 Y18.8352
G01 X2.5512 Y18.7352
G01 X2.5859 Y18.6382
G01 X2.6300 Y18.5450
G01 X2.6830 Y18.4567
G01 X2.7443 Y18.3739
G01 X2.8135 Y18.2975
G01 X2.8899 Y18.2283
G01 X2.9727 Y18.1670
G01 X3.0610 Y18.1140
G01 X3.1542 Y18.0699
G01 X3.2512 Y18.0352
G01 X3.3512 Y18.0102
G01 X3.4531 Y17.9951
G01 X3.5585 Y17.9901
G00 Z2.0000
G00 X3.5585 Y15.4501
G01 F60.00
G01 Z-0.0499
G01 F30.00
G01 X3.6614 Y15.4554
G01 X3.7608 Y15.4702
G01 X3.8584 Y15.4946
G01 X3.9578 Y15.5299
G01 X4.0520 Y15.5746
G01 X4.1414 Y15.6284
G01 X4.2221 Y15.6883
G01 X4.2976 Y15.7567
G01 X4.3684 Y15.8348
G01 X4.4283 Y15.9156
G01 X4.4490 Y15.9497
G01 X5.2038 Y15.9497
G01 X7.6996 Y13.4539
G01 X7.7396 Y13.4177
G01 X7.7810 Y13.3869
G01 X7.8293 Y13.3577
G01 X7.8804 Y13.3338
G01 X7.9290 Y13.3164
G01 X7.9790 Y13.3039
G01 X8.0360 Y13.2953
G01 X8.0887 Y13.2927
G01 X8.8960 Y13.2927
G01 X8.9167 Y13.2586
G01 X8.9781 Y13.1759
G01 X9.0465 Y13.1005
G01 X9.1238 Y13.0306
G01 X9.2057 Y12.9700
G01 X9.2940 Y12.9170
G01 X9.3872 Y12.8729
G01 X9.4854 Y12.8379
G01 X9.5842 Y12.8132
G01 X9.6861 Y12.7981
G01 X9.7890 Y12.7930
G01 X9.8919 Y12.7981
G01 X9.9938 Y12.8132
G01 X10.0938 Y12.8382
G01 X10.1908 Y12.8729
G01 X10.2840 Y12.9170
G01 X10.3723 Y12.9700
G01 X10.4551 Y13.0313
G01 X10.5315 Y13.1005
G01 X10.6007 Y13.1769
G01 X10.6620 Y13.2597
G01 X10.7150 Y13.3480
G01 X10.7591 Y13.4412
G01 X10.7941 Y13.5394
G01 X10.8188 Y13.6382
G01 X10.8339 Y13.7401
G01 X10.8390 Y13.8430
G01 X10.8341 Y13.9435
G01 X10.8183 Y14.0502
G01 X10.7938 Y14.1478
G01 X10.7591 Y14.2448
G01 X10.7150 Y14.3380
G01 X10.6634 Y14.4243
G01 X10.5991 Y14.5110
G01 X10.5315 Y14.5855
G01 X10.4551 Y14.6547
G01 X10.3723 Y14.7160
G01 X10.2850 Y14.7684
G01 X10.1908 Y14.8131
G01 X10.0961 Y14.8470
G01 X9.9914 Y14.8732
G01 X9.8919 Y14.8879
G01 X9.7890 Y14.8930
G01 X9.6861 Y14.8879
G01 X9.5842 Y14.8728
G01 X9.4842 Y14.8478
G01 X9.3872 Y14.8131
G01 X9.2940 Y14.7690
G01 X9.2046 Y14.7153
G01 X9.1229 Y14.6547
G01 X9.0457 Y14.5846
G01 X8.9766 Y14.5082
G01 X8.9167 Y14.4274
G01 X8.8960 Y14.3933
G01 X8.3166 Y14.3933
G01 X5.8208 Y16.8891
G01 X5.7808 Y16.9253
G01 X5.7374 Y16.9575
G01 X5.6889 Y16.9864
G01 X5.6423 Y17.0084
G01 X5.5938 Y17.0258
G01 X5.5390 Y17.0397
G01 X5.4844 Y17.0477
G01 X5.4317 Y17.0503
G01 X4.4490 Y17.0503
G01 X4.4283 Y17.0844
G01 X4.3684 Y17.1652
G01 X4.2976 Y17.2433
G01 X4.2221 Y17.3117
G01 X4.1414 Y17.3716
G01 X4.0520 Y17.4254
G01 X3.9578 Y17.4701
G01 X3.8584 Y17.5054
G01 X3.7608 Y17.5298
G01 X3.6614 Y17.5446
G01 X3.5560 Y17.5500
G01 X3.4531 Y17.5449
G01 X3.3512 Y17.5298
G01 X3.2512 Y17.5048
G01 X3.1542 Y17.4701
G01 X3.0610 Y17.4260
G01 X2.9727 Y17.3730
G01 X2.8899 Y17.3117
G01 X2.8135 Y17.2425
G01 X2.7443 Y17.1661
G01 X2.6830 Y17.0833
G01 X2.6300 Y16.9950
G01 X2.5859 Y16.9018
G01 X2.5512 Y16.8048
G01 X2.5262 Y16.7048
G01 X2.5111 Y16.6029
G01 X2.5060 Y16.5000
G01 X2.5111 Y16.3971
G01 X2.5262 Y16.2952
G01 X2.5512 Y16.1952
G01 X2.5859 Y16.0982
G01 X2.6300 Y16.0050
G01 X2.6830 Y15.9167
G01 X2.7443 Y15.8339
G01 X2.8135 Y15.7575
G01 X2.8899 Y15.6883
G01 X2.9727 Y15.6270
G01 X3.0610 Y15.5740
G01 X3.1542 Y15.5299
G01 X3.2512 Y15.4952
G01 X3.3512 Y15.4702
G01 X3.4531 Y15.4551
G01 X3.5585 Y15.4501
G00 Z2.0000
G00 X3.5585 Y12.9101
G01 F60.00
G01 Z-0.0499
G01 F30.00
G01 X3.6589 Y12.9151
G01 X3.7608 Y12.9302
G01 X3.8608 Y12.9552
G01 X3.9578 Y12.9899
G01 X4.0510 Y13.0340
G01 X4.1393 Y13.0870
G01 X4.2221 Y13.1483
G01 X4.2985 Y13.2175
G01 X4.3677 Y13.2939
G01 X4.4290 Y13.3767
G01 X4.4820 Y13.4650
G01 X4.5261 Y13.5582
G01 X4.5608 Y13.6552
G01 X4.5858 Y13.7552
G01 X4.6009 Y13.8571
G01 X4.6060 Y13.9600
G01 X4.6009 Y14.0629
G01 X4.5858 Y14.1648
G01 X4.5608 Y14.2648
G01 X4.5261 Y14.3618
G01 X4.4820 Y14.4550
G01 X4.4290 Y14.5433
G01 X4.3677 Y14.6261
G01 X4.2985 Y14.7025
G01 X4.2221 Y14.7717
G01 X4.1393 Y14.8330
G01 X4.0510 Y14.8860
G01 X3.9578 Y14.9301
G01 X3.8608 Y14.9648
G01 X3.7608 Y14.9898
G01 X3.6589 Y15.0049
G01 X3.5560 Y15.0100
G01 X3.4531 Y15.0049
G01 X3.3512 Y14.9898
G01 X3.2512 Y14.9648
G01 X3.1542 Y14.9301
G01 X3.0610 Y14.8860
G01 X2.9727 Y14.8330
G01 X2.8899 Y14.7717
G01 X2.8135 Y14.7025
G01 X2.7443 Y14.6261
G01 X2.6830 Y14.5433
G01 X2.6300 Y14.4550
G01 X2.5859 Y14.3618
G01 X2.5512 Y14.2648
G01 X2.5262 Y14.1648
G01 X2.5111 Y14.0629
G01 X2.5060 Y13.9600
G01 X2.5111 Y13.8571
G01 X2.5262 Y13.7552
G01 X2.5512 Y13.6552
G01 X2.5859 Y13.5582
G01 X2.6300 Y13.4650
G01 X2.6830 Y13.3767
G01 X2.7443 Y13.2939
G01 X2.8135 Y13.2175
G01 X2.8899 Y13.1483
G01 X2.9727 Y13.0870
G01 X3.0610 Y13.0340
G01 X3.1542 Y12.9899
G01 X3.2512 Y12.9552
G01 X3.3512 Y12.9302
G01 X3.4531 Y12.9151
G01 X3.5585 Y12.9101
G00 Z2.0000
G00 X3.5585 Y10.3701
G01 F60.00
G01 Z-0.0499
G01 F30.00
G01 X3.6614 Y10.3754
G01 X3.7608 Y10.3902
G01 X3.8584 Y10.4146
G01 X3.9578 Y10.4499
G01 X4.0520 Y10.4946
G01 X4.1414 Y10.5484
G01 X4.2221 Y10.6083
G01 X4.2976 Y10.6767
G01 X4.3684 Y10.7548
G01 X4.4283 Y10.8356
G01 X4.4490 Y10.8697
G01 X5.0284 Y10.8697
G01 X7.5242 Y8.3739
G01 X7.5642 Y8.3377
G01 X7.6066 Y8.3062
G01 X7.6539 Y8.2777
G01 X7.7050 Y8.2538
G01 X7.7536 Y8.2364
G01 X7.8036 Y8.2239
G01 X7.8606 Y8.2153
G01 X7.9133 Y8.2127
G01 X8.8960 Y8.2127
G01 X8.9167 Y8.1786
G01 X8.9781 Y8.0959
G01 X9.0465 Y8.0205
G01 X9.1238 Y7.9506
G01 X9.2057 Y7.8900
G01 X9.2940 Y7.8370
G01 X9.3872 Y7.7929
G01 X9.4854 Y7.7579
G01 X9.5842 Y7.7332
G01 X9.6861 Y7.7181
G01 X9.7890 Y7.7130
G01 X9.8919 Y7.7181
G01 X9.9938 Y7.7332
G01 X10.0938 Y7.7582
G01 X10.1908 Y7.7929
G01 X10.2840 Y7.8370
G01 X10.3723 Y7.8900
G01 X10.4551 Y7.9513
G01 X10.5315 Y8.0205
G01 X10.6007 Y8.0969
G01 X10.6620 Y8.1797
G01 X10.7150 Y8.2680
G01 X10.7591 Y8.3612
G01 X10.7941 Y8.4594
G01 X10.8188 Y8.5582
G01 X10.8339 Y8.6601
G01 X10.8390 Y8.7630
G01 X10.8341 Y8.8635
G01 X10.8183 Y8.9702
G01 X10.7938 Y9.0678
G01 X10.7591 Y9.1648
G01 X10.7150 Y9.2580
G01 X10.6634 Y9.3443
G01 X10.5991 Y9.4310
G01 X10.5315 Y9.5055
G01 X10.4551 Y9.5747
G01 X10.3723 Y9.6360
G01 X10.2850 Y9.6884
G01 X10.1908 Y9.7331
G01 X10.0961 Y9.7670
G01 X9.9914 Y9.7932
G01 X9.8919 Y9.8079
G01 X9.7890 Y9.8130
G01 X9.6861 Y9.8079
G01 X9.5854 Y9.7930
G01 X9.4842 Y9.7678
G01 X9.3872 Y9.7331
G01 X9.2940 Y9.6890
G01 X9.2046 Y9.6353
G01 X9.1229 Y9.5747
G01 X9.0457 Y9.5046
G01 X8.9766 Y9.4282
G01 X8.9167 Y9.3474
G01 X8.8960 Y9.3133
G01 X8.1412 Y9.3133
G01 X5.6454 Y11.8091
G01 X5.6054 Y11.8453
G01 X5.5630 Y11.8768
G01 X5.5157 Y11.9053
G01 X5.4646 Y11.9292
G01 X5.4160 Y11.9466
G01 X5.3660 Y11.9591
G01 X5.3090 Y11.9677
G01 X5.2563 Y11.9703
G01 X4.4490 Y11.9703
G01 X4.4283 Y12.0044
G01 X4.3684 Y12.0852
G01 X4.2976 Y12.1633
G01 X4.2221 Y12.2317
G01 X4.1414 Y12.2916
G01 X4.0520 Y12.3454
G01 X3.9578 Y12.3901
G01 X3.8584 Y12.4254
G01 X3.7608 Y12.4498
G01 X3.6614 Y12.4646
G01 X3.5560 Y12.4700
G01 X3.4531 Y12.4649
G01 X3.3512 Y12.4498
G01 X3.2512 Y12.4248
G01 X3.1542 Y12.3901
G01 X3.0610 Y12.3460
G01 X2.9727 Y12.2930
G01 X2.8899 Y12.2317
G01 X2.8135 Y12.1625
G01 X2.7443 Y12.0861
G01 X2.6830 Y12.0033
G01 X2.6300 Y11.9150
G01 X2.5859 Y11.8218
G01 X2.5512 Y11.7248
G01 X2.5262 Y11.6248
G01 X2.5111 Y11.5229
G01 X2.5060 Y11.4200
G01 X2.5111 Y11.3171
G01 X2.5262 Y11.2152
G01 X2.5512 Y11.1152
G01 X2.5859 Y11.0182
G01 X2.6300 Y10.9250
G01 X2.6830 Y10.8367
G01 X2.7443 Y10.7539
G01 X2.8135 Y10.6775
G01 X2.8899 Y10.6083
G01 X2.9727 Y10.5470
G01 X3.0610 Y10.4940
G01 X3.1542 Y10.4499
G01 X3.2512 Y10.4152
G01 X3.3512 Y10.3902
G01 X3.4531 Y10.3751
G01 X3.5585 Y10.3701
G00 Z2.0000
G00 X3.5585 Y27.5151
G01 F60.00
G01 Z-0.0499
G01 F30.00
G01 X3.6589 Y27.5201
G01 X3.7608 Y27.5352
G01 X3.8608 Y27.5602
G01 X3.9578 Y27.5949
G01 X4.0510 Y27.6390
G01 X4.1393 Y27.6920
G01 X4.2221 Y27.7533
G01 X4.2985 Y27.8225
G01 X4.3677 Y27.8989
G01 X4.4290 Y27.9817
G01 X4.4820 Y28.0700
G01 X4.5261 Y28.1632
G01 X4.5608 Y28.2602
G01 X4.5858 Y28.3602
G01 X4.6009 Y28.4621
G01 X4.6060 Y28.5650
G01 X4.6009 Y28.6679
G01 X4.5858 Y28.7698
G01 X4.5608 Y28.8698
G01 X4.5261 Y28.9668
G01 X4.4820 Y29.0600
G01 X4.4290 Y29.1483
G01 X4.3677 Y29.2311
G01 X4.2985 Y29.3075
G01 X4.2221 Y29.3767
G01 X4.1393 Y29.4380
G01 X4.0510 Y29.4910
G01 X3.9578 Y29.5351
G01 X3.8608 Y29.5698
G01 X3.7608 Y29.5948
G01 X3.6589 Y29.6099
G01 X3.5560 Y29.6150
G01 X3.4531 Y29.6099
G01 X3.3512 Y29.5948
G01 X3.2512 Y29.5698
G01 X3.1542 Y29.5351
G01 X3.0610 Y29.4910
G01 X2.9727 Y29.4380
G01 X2.8899 Y29.3767
G01 X2.8135 Y29.3075
G01 X2.7443 Y29.2311
G01 X2.6830 Y29.1483
G01 X2.6300 Y29.0600
G01 X2.5859 Y28.9668
G01 X2.5512 Y28.8698
G01 X2.5262 Y28.7698
G01 X2.5111 Y28.6679
G01 X2.5060 Y28.5650
G01 X2.5111 Y28.4621
G01 X2.5262 Y28.3602
G01 X2.5512 Y28.2602
G01 X2.5859 Y28.1632
G01 X2.6300 Y28.0700
G01 X2.6830 Y27.9817
G01 X2.7443 Y27.8989
G01 X2.8135 Y27.8225
G01 X2.8899 Y27.7533
G01 X2.9727 Y27.6920
G01 X3.0610 Y27.6390
G01 X3.1542 Y27.5949
G01 X3.2512 Y27.5602
G01 X3.3512 Y27.5352
G01 X3.4531 Y27.5201
G01 X3.5585 Y27.5151
G00 Z2.0000
G00 X3.5585 Y30.0551
G01 F60.00
G01 Z-0.0499
G01 F30.00
G01 X3.6589 Y30.0601
G01 X3.7608 Y30.0752
G01 X3.8608 Y30.1002
G01 X3.9578 Y30.1349
G01 X4.0510 Y30.1790
G01 X4.1393 Y30.2320
G01 X4.2221 Y30.2933
G01 X4.2985 Y30.3625
G01 X4.3677 Y30.4389
G01 X4.4290 Y30.5217
G01 X4.4820 Y30.6100
G01 X4.5261 Y30.7032
G01 X4.5608 Y30.8002
G01 X4.5858 Y30.9002
G01 X4.6009 Y31.0021
G01 X4.6060 Y31.1050
G01 X4.6009 Y31.2079
G01 X4.5858 Y31.3098
G01 X4.5608 Y31.4098
G01 X4.5261 Y31.5068
G01 X4.4820 Y31.6000
G01 X4.4290 Y31.6883
G01 X4.3677 Y31.7711
G01 X4.2985 Y31.8475
G01 X4.2221 Y31.9167
G01 X4.1393 Y31.9780
G01 X4.0510 Y32.0310
G01 X3.9578 Y32.0751
G01 X3.8608 Y32.1098
G01 X3.7608 Y32.1348
G01 X3.6589 Y32.1499
G01 X3.5560 Y32.1550
G01 X3.4531 Y32.1499
G01 X3.3512 Y32.1348
G01 X3.2512 Y32.1098
G01 X3.1542 Y32.0751
G01 X3.0610 Y32.0310
G01 X2.9727 Y31.9780
G01 X2.8899 Y31.9167
G01 X2.8135 Y31.8475
G01 X2.7443 Y31.7711
G01 X2.6830 Y31.6883
G01 X2.6300 Y31.6000
G01 X2.5859 Y31.5068
G01 X2.5512 Y31.4098
G01 X2.5262 Y31.3098
G01 X2.5111 Y31.2079
G01 X2.5060 Y31.1050
G01 X2.5111 Y31.0021
G01 X2.5262 Y30.9002
G01 X2.5512 Y30.8002
G01 X2.5859 Y30.7032
G01 X2.6300 Y30.6100
G01 X2.6830 Y30.5217
G01 X2.7443 Y30.4389
G01 X2.8135 Y30.3625
G01 X2.8899 Y30.2933
G01 X2.9727 Y30.2320
G01 X3.0610 Y30.1790
G01 X3.1542 Y30.1349
G01 X3.2512 Y30.1002
G01 X3.3512 Y30.0752
G01 X3.4531 Y30.0601
G01 X3.5585 Y30.0551
G00 Z2.0000
G00 X3.5585 Y32.5951
G01 F60.00
G01 Z-0.0499
G01 F30.00
G01 X3.6589 Y32.6001
G01 X3.7608 Y32.6152
G01 X3.8608 Y32.6402
G01 X3.9578 Y32.6749
G01 X4.0510 Y32.7190
G01 X4.1393 Y32.7720
G01 X4.2221 Y32.8333
G01 X4.2985 Y32.9025
G01 X4.3677 Y32.9789
G01 X4.4290 Y33.0617
G01 X4.4820 Y33.1500
G01 X4.5261 Y33.2432
G01 X4.5608 Y33.3402
G01 X4.5858 Y33.4402
G01 X4.6009 Y33.5421
G01 X4.6060 Y33.6450
G01 X4.6009 Y33.7479
G01 X4.5858 Y33.8498
G01 X4.5608 Y33.9498
G01 X4.5261 Y34.0468
G01 X4.4820 Y34.1400
G01 X4.4290 Y34.2283
G01 X4.3677 Y34.3111
G01 X4.2985 Y34.3875
G01 X4.2221 Y34.4567
G01 X4.1393 Y34.5180
G01 X4.0510 Y34.5710
G01 X3.9578 Y34.6151
G01 X3.8608 Y34.6498
G01 X3.7608 Y34.6748
G01 X3.6589 Y34.6899
G01 X3.5560 Y34.6950
G01 X3.4531 Y34.6899
G01 X3.3512 Y34.6748
G01 X3.2512 Y34.6498
G01 X3.1542 Y34.6151
G01 X3.0610 Y34.5710
G01 X2.9727 Y34.5180
G01 X2.8899 Y34.4567
G01 X2.8135 Y34.3875
G01 X2.7443 Y34.3111
G01 X2.6830 Y34.2283
G01 X2.6300 Y34.1400
G01 X2.5859 Y34.0468
G01 X2.5512 Y33.9498
G01 X2.5262 Y33.8498
G01 X2.5111 Y33.7479
G01 X2.5060 Y33.6450
G01 X2.5111 Y33.5421
G01 X2.5262 Y33.4402
G01 X2.5512 Y33.3402
G01 X2.5859 Y33.2432
G01 X2.6300 Y33.1500
G01 X2.6830 Y33.0617
G01 X2.7443 Y32.9789
G01 X2.8135 Y32.9025
G01 X2.8899 Y32.8333
G01 X2.9727 Y32.7720
G01 X3.0610 Y32.7190
G01 X3.1542 Y32.6749
G01 X3.2512 Y32.6402
G01 X3.3512 Y32.6152
G01 X3.4531 Y32.6001
G01 X3.5585 Y32.5951
G00 Z2.0000
G00 X3.0057 Y37.0780
G01 F60.00
G01 Z-0.0499
G01 F30.00
G01 X2.9716 Y37.0573
G01 X2.8908 Y36.9974
G01 X2.8144 Y36.9283
G01 X2.7443 Y36.8511
G01 X2.6837 Y36.7694
G01 X2.6300 Y36.6800
G01 X2.5859 Y36.5868
G01 X2.5512 Y36.4898
G01 X2.5264 Y36.3910
G01 X2.5111 Y36.2879
G01 X2.5060 Y36.1850
G01 X2.5111 Y36.0821
G01 X2.5262 Y35.9802
G01 X2.5512 Y35.8802
G01 X2.5859 Y35.7832
G01 X2.6300 Y35.6900
G01 X2.6823 Y35.6027
G01 X2.7443 Y35.5189
G01 X2.8135 Y35.4425
G01 X2.8899 Y35.3733
G01 X2.9727 Y35.3120
G01 X3.0610 Y35.2590
G01 X3.1542 Y35.2149
G01 X3.2512 Y35.1802
G01 X3.3512 Y35.1552
G01 X3.4531 Y35.1401
G01 X3.5560 Y35.1350
G01 X3.6589 Y35.1401
G01 X3.7608 Y35.1552
G01 X3.8608 Y35.1802
G01 X3.9578 Y35.2149
G01 X4.0510 Y35.2590
G01 X4.1383 Y35.3113
G01 X4.2221 Y35.3733
G01 X4.3002 Y35.4443
G01 X4.3677 Y35.5189
G01 X4.4276 Y35.5996
G01 X4.4820 Y35.6900
G01 X4.5261 Y35.7832
G01 X4.5614 Y35.8826
G01 X4.5858 Y35.9802
G01 X4.6006 Y36.0796
G01 X4.6060 Y36.1850
G01 X4.6006 Y36.2904
G01 X4.5858 Y36.3898
G01 X4.5614 Y36.4874
G01 X4.5261 Y36.5868
G01 X4.4814 Y36.6810
G01 X4.4290 Y36.7683
G01 X4.3692 Y36.8492
G01 X4.2993 Y36.9266
G01 X4.2212 Y36.9974
G01 X4.1404 Y37.0573
G01 X4.1063 Y37.0780
G01 X4.1063 Y39.7671
G01 X9.5467 Y45.2075
G01 X9.5854 Y45.1980
G01 X9.6849 Y45.1832
G01 X9.7902 Y45.1780
G01 X9.8919 Y45.1831
G01 X9.9914 Y45.1978
G01 X10.0950 Y45.2236
G01 X10.1908 Y45.2579
G01 X10.2818 Y45.3009
G01 X10.3723 Y45.3550
G01 X10.4570 Y45.4179
G01 X10.5315 Y45.4855
G01 X10.5999 Y45.5609
G01 X10.6620 Y45.6447
G01 X10.7150 Y45.7330
G01 X10.7591 Y45.8262
G01 X10.7938 Y45.9232
G01 X10.8188 Y46.0232
G01 X10.8339 Y46.1251
G01 X10.8390 Y46.2280
G01 X10.8336 Y46.3334
G01 X10.8188 Y46.4328
G01 X10.7930 Y46.5351
G01 X10.7581 Y46.6321
G01 X10.7150 Y46.7230
G01 X10.6634 Y46.8093
G01 X10.6007 Y46.8941
G01 X10.5315 Y46.9705
G01 X10.4551 Y47.0397
G01 X10.3744 Y47.0996
G01 X10.2818 Y47.1551
G01 X10.1908 Y47.1981
G01 X10.0914 Y47.2334
G01 X9.9938 Y47.2578
G01 X9.8919 Y47.2729
G01 X9.7890 Y47.2780
G01 X9.6861 Y47.2729
G01 X9.5842 Y47.2578
G01 X9.4866 Y47.2334
G01 X9.3849 Y47.1971
G01 X9.2940 Y47.1540
G01 X9.2057 Y47.1010
G01 X9.1229 Y47.0397
G01 X9.0474 Y46.9713
G01 X8.9773 Y46.8941
G01 X8.9146 Y46.8093
G01 X8.8630 Y46.7230
G01 X8.8199 Y46.6321
G01 X8.7839 Y46.5316
G01 X8.7592 Y46.4328
G01 X8.7444 Y46.3334
G01 X8.7390 Y46.2292
G01 X8.7442 Y46.1239
G01 X8.7590 Y46.0244
G01 X8.7685 Y45.9857
G01 X3.1669 Y40.3841
G01 X3.1307 Y40.3441
G01 X3.0999 Y40.3027
G01 X3.0696 Y40.2522
G01 X3.0476 Y40.2056
G01 X3.0294 Y40.1547
G01 X3.0159 Y40.0999
G01 X3.0084 Y40.0489
G01 X3.0058 Y39.9962
G01 X3.0057 Y37.0780
G00 Z2.0000
G00 X9.7915 Y37.5581
G01 F60.00
G01 Z-0.0499
G01 F30.00
G01 X9.8919 Y37.5631
G01 X9.9938 Y37.5782
G01 X10.0938 Y37.6032
G01 X10.1908 Y37.6379
G01 X10.2840 Y37.6820
G01 X10.3723 Y37.7350
G01 X10.4551 Y37.7963
G01 X10.5315 Y37.8655
G01 X10.6007 Y37.9419
G01 X10.6620 Y38.0247
G01 X10.7150 Y38.1130
G01 X10.7591 Y38.2062
G01 X10.7938 Y38.3032
G01 X10.8188 Y38.4032
G01 X10.8339 Y38.5051
G01 X10.8390 Y38.6080
G01 X10.8339 Y38.7109
G01 X10.8188 Y38.8128
G01 X10.7938 Y38.9128
G01 X10.7591 Y39.0098
G01 X10.7150 Y39.1030
G01 X10.6620 Y39.1913
G01 X10.6007 Y39.2741
G01 X10.5315 Y39.3505
G01 X10.4551 Y39.4197
G01 X10.3723 Y39.4810
G01 X10.2840 Y39.5340
G01 X10.1908 Y39.5781
G01 X10.0938 Y39.6128
G01 X9.9938 Y39.6378
G01 X9.8919 Y39.6529
G01 X9.7890 Y39.6580
G01 X9.6861 Y39.6529
G01 X9.5842 Y39.6378
G01 X9.4842 Y39.6128
G01 X9.3872 Y39.5781
G01 X9.2940 Y39.5340
G01 X9.2057 Y39.4810
G01 X9.1229 Y39.4197
G01 X9.0465 Y39.3505
G01 X8.9773 Y39.2741
G01 X8.9160 Y39.1913
G01 X8.8630 Y39.1030
G01 X8.8189 Y39.0098
G01 X8.7842 Y38.9128
G01 X8.7592 Y38.8128
G01 X8.7441 Y38.7109
G01 X8.7390 Y38.6080
G01 X8.7441 Y38.5051
G01 X8.7592 Y38.4032
G01 X8.7842 Y38.3032
G01 X8.8189 Y38.2062
G01 X8.8630 Y38.1130
G01 X8.9160 Y38.0247
G01 X8.9773 Y37.9419
G01 X9.0465 Y37.8655
G01 X9.1229 Y37.7963
G01 X9.2057 Y37.7350
G01 X9.2940 Y37.6820
G01 X9.3872 Y37.6379
G01 X9.4842 Y37.6032
G01 X9.5842 Y37.5782
G01 X9.6861 Y37.5631
G01 X9.7915 Y37.5581
G00 Z2.0000
G00 X9.7915 Y40.0981
G01 F60.00
G01 Z-0.0499
G01 F30.00
G01 X9.8919 Y40.1031
G01 X9.9938 Y40.1182
G01 X10.0938 Y40.1432
G01 X10.1908 Y40.1779
G01 X10.2840 Y40.2220
G01 X10.3723 Y40.2750
G01 X10.4551 Y40.3363
G01 X10.5315 Y40.4055
G01 X10.6007 Y40.4819
G01 X10.6620 Y40.5647
G01 X10.7150 Y40.6530
G01 X10.7591 Y40.7462
G01 X10.7938 Y40.8432
G01 X10.8188 Y40.9432
G01 X10.8339 Y41.0451
G01 X10.8390 Y41.1480
G01 X10.8339 Y41.2509
G01 X10.8188 Y41.3528
G01 X10.7938 Y41.4528
G01 X10.7591 Y41.5498
G01 X10.7150 Y41.6430
G01 X10.6620 Y41.7313
G01 X10.6007 Y41.8141
G01 X10.5315 Y41.8905
G01 X10.4551 Y41.9597
G01 X10.3723 Y42.0210
G01 X10.2840 Y42.0740
G01 X10.1908 Y42.1181
G01 X10.0938 Y42.1528
G01 X9.9938 Y42.1778
G01 X9.8919 Y42.1929
G01 X9.7890 Y42.1980
G01 X9.6861 Y42.1929
G01 X9.5842 Y42.1778
G01 X9.4842 Y42.1528
G01 X9.3872 Y42.1181
G01 X9.2940 Y42.0740
G01 X9.2057 Y42.0210
G01 X9.1229 Y41.9597
G01 X9.0465 Y41.8905
G01 X8.9773 Y41.8141
G01 X8.9160 Y41.7313
G01 X8.8630 Y41.6430
G01 X8.8189 Y41.5498
G01 X8.7842 Y41.4528
G01 X8.7592 Y41.3528
G01 X8.7441 Y41.2509
G01 X8.7390 Y41.1480
G01 X8.7441 Y41.0451
G01 X8.7592 Y40.9432
G01 X8.7842 Y40.8432
G01 X8.8189 Y40.7462
G01 X8.8630 Y40.6530
G01 X8.9160 Y40.5647
G01 X8.9773 Y40.4819
G01 X9.0465 Y40.4055
G01 X9.1229 Y40.3363
G01 X9.2057 Y40.2750
G01 X9.2940 Y40.2220
G01 X9.3872 Y40.1779
G01 X9.4842 Y40.1432
G01 X9.5842 Y40.1182
G01 X9.6861 Y40.1031
G01 X9.7915 Y40.0981
G00 Z2.0000
G00 X9.7915 Y42.6381
G01 F60.00
G01 Z-0.0499
G01 F30.00
G01 X9.8919 Y42.6431
G01 X9.9938 Y42.6582
G01 X10.0938 Y42.6832
G01 X10.1908 Y42.7179
G01 X10.2840 Y42.7620
G01 X10.3723 Y42.8150
G01 X10.4551 Y42.8763
G01 X10.5315 Y42.9455
G01 X10.6007 Y43.0219
G01 X10.6620 Y43.1047
G01 X10.7150 Y43.1930
G01 X10.7591 Y43.2862
G01 X10.7938 Y43.3832
G01 X10.8188 Y43.4832
G01 X10.8339 Y43.5851
G01 X10.8390 Y43.6880
G01 X10.8339 Y43.7909
G01 X10.8188 Y43.8928
G01 X10.7938 Y43.9928
G01 X10.7591 Y44.0898
G01 X10.7150 Y44.1830
G01 X10.6620 Y44.2713
G01 X10.6007 Y44.3541
G01 X10.5315 Y44.4305
G01 X10.4551 Y44.4997
G01 X10.3723 Y44.5610
G01 X10.2840 Y44.6140
G01 X10.1908 Y44.6581
G01 X10.0938 Y44.6928
G01 X9.9938 Y44.7178
G01 X9.8919 Y44.7329
G01 X9.7890 Y44.7380
G01 X9.6861 Y44.7329
G01 X9.5842 Y44.7178
G01 X9.4842 Y44.6928
G01 X9.3872 Y44.6581
G01 X9.2940 Y44.6140
G01 X9.2057 Y44.5610
G01 X9.1229 Y44.4997
G01 X9.0465 Y44.4305
G01 X8.9773 Y44.3541
G01 X8.9160 Y44.2713
G01 X8.8630 Y44.1830
G01 X8.8189 Y44.0898
G01 X8.7842 Y43.9928
G01 X8.7592 Y43.8928
G01 X8.7441 Y43.7909
G01 X8.7390 Y43.6880
G01 X8.7441 Y43.5851
G01 X8.7592 Y43.4832
G01 X8.7842 Y43.3832
G01 X8.8189 Y43.2862
G01 X8.8630 Y43.1930
G01 X8.9160 Y43.1047
G01 X8.9773 Y43.0219
G01 X9.0465 Y42.9455
G01 X9.1229 Y42.8763
G01 X9.2057 Y42.8150
G01 X9.2940 Y42.7620
G01 X9.3872 Y42.7179
G01 X9.4842 Y42.6832
G01 X9.5842 Y42.6582
G01 X9.6861 Y42.6431
G01 X9.7915 Y42.6381
G00 Z2.0000
G00 X9.7915 Y47.7181
G01 F60.00
G01 Z-0.0499
G01 F30.00
G01 X9.8919 Y47.7231
G01 X9.9938 Y47.7382
G01 X10.0938 Y47.7632
G01 X10.1908 Y47.7979
G01 X10.2840 Y47.8420
G01 X10.3723 Y47.8950
G01 X10.4551 Y47.9563
G01 X10.5315 Y48.0255
G01 X10.6007 Y48.1019
G01 X10.6620 Y48.1847
G01 X10.7150 Y48.2730
G01 X10.7591 Y48.3662
G01 X10.7938 Y48.4632
G01 X10.8188 Y48.5632
G01 X10.8339 Y48.6651
G01 X10.8390 Y48.7680
G01 X10.8339 Y48.8709
G01 X10.8188 Y48.9728
G01 X10.7938 Y49.0728
G01 X10.7591 Y49.1698
G01 X10.7150 Y49.2630
G01 X10.6620 Y49.3513
G01 X10.6007 Y49.4341
G01 X10.5315 Y49.5105
G01 X10.4551 Y49.5797
G01 X10.3723 Y49.6410
G01 X10.2840 Y49.6940
G01 X10.1908 Y49.7381
G01 X10.0938 Y49.7728
G01 X9.9938 Y49.7978
G01 X9.8919 Y49.8129
G01 X9.7890 Y49.8180
G01 X9.6861 Y49.8129
G01 X9.5842 Y49.7978
G01 X9.4842 Y49.7728
G01 X9.3872 Y49.7381
G01 X9.2940 Y49.6940
G01 X9.2057 Y49.6410
G01 X9.1229 Y49.5797
G01 X9.0465 Y49.5105
G01 X8.9773 Y49.4341
G01 X8.9160 Y49.3513
G01 X8.8630 Y49.2630
G01 X8.8189 Y49.1698
G01 X8.7842 Y49.0728
G01 X8.7592 Y48.9728
G01 X8.7441 Y48.8709
G01 X8.7390 Y48.7680
G01 X8.7441 Y48.6651
G01 X8.7592 Y48.5632
G01 X8.7842 Y48.4632
G01 X8.8189 Y48.3662
G01 X8.8630 Y48.2730
G01 X8.9160 Y48.1847
G01 X8.9773 Y48.1019
G01 X9.0465 Y48.0255
G01 X9.1229 Y47.9563
G01 X9.2057 Y47.8950
G01 X9.2940 Y47.8420
G01 X9.3872 Y47.7979
G01 X9.4842 Y47.7632
G01 X9.5842 Y47.7382
G01 X9.6861 Y47.7231
G01 X9.7915 Y47.7181
G00 Z2.0000
G00 X10.0313 Y50.2875
G01 F60.00
G01 Z-0.0499
G01 F30.00
G01 X10.9419 Y49.3769
G01 X10.9419 Y37.9991
G01 X10.0313 Y37.0885
G01 X9.9926 Y37.0980
G01 X9.8907 Y37.1130
G01 X9.7890 Y37.1180
G01 X9.6849 Y37.1128
G01 X9.5842 Y37.0978
G01 X9.4842 Y37.0728
G01 X9.3872 Y37.0381
G01 X9.2951 Y36.9946
G01 X9.2057 Y36.9410
G01 X9.1248 Y36.8812
G01 X9.0448 Y36.8087
G01 X8.9773 Y36.7341
G01 X8.9160 Y36.6513
G01 X8.8630 Y36.5630
G01 X8.8185 Y36.4687
G01 X8.7836 Y36.3704
G01 X8.7592 Y36.2728
G01 X8.7444 Y36.1734
G01 X8.7390 Y36.0680
G01 X8.7441 Y35.9651
G01 X8.7592 Y35.8632
G01 X8.7850 Y35.7609
G01 X8.8189 Y35.6662
G01 X8.8619 Y35.5752
G01 X8.9160 Y35.4847
G01 X8.9773 Y35.4019
G01 X9.0483 Y35.3238
G01 X9.1229 Y35.2563
G01 X9.2036 Y35.1964
G01 X9.2940 Y35.1420
G01 X9.3872 Y35.0979
G01 X9.4866 Y35.0626
G01 X9.5842 Y35.0382
G01 X9.6836 Y35.0234
G01 X9.7878 Y35.0180
G01 X9.8919 Y35.0231
G01 X9.9938 Y35.0382
G01 X10.0938 Y35.0632
G01 X10.1931 Y35.0989
G01 X10.2861 Y35.1432
G01 X10.3723 Y35.1950
G01 X10.4532 Y35.2548
G01 X10.5315 Y35.3255
G01 X10.6007 Y35.4019
G01 X10.6620 Y35.4847
G01 X10.7161 Y35.5752
G01 X10.7591 Y35.6662
G01 X10.7930 Y35.7609
G01 X10.8186 Y35.8620
G01 X10.8339 Y35.9651
G01 X10.8390 Y36.0692
G01 X10.8338 Y36.1721
G01 X10.8190 Y36.2716
G01 X10.8095 Y36.3103
G01 X11.8813 Y37.3821
G01 X11.9168 Y37.4212
G01 X11.9497 Y37.4655
G01 X11.9763 Y37.5097
G01 X12.0014 Y37.5629
G01 X12.0188 Y37.6115
G01 X12.0319 Y37.6639
G01 X12.0398 Y37.7173
G01 X12.0424 Y37.7700
G01 X12.0425 Y49.6048
G01 X12.0398 Y49.6587
G01 X12.0321 Y49.7109
G01 X12.0180 Y49.7669
G01 X12.0006 Y49.8154
G01 X11.9786 Y49.8620
G01 X11.9497 Y49.9105
G01 X11.9159 Y49.9557
G01 X11.8813 Y49.9939
G01 X10.8095 Y51.0657
G01 X10.8190 Y51.1044
G01 X10.8338 Y51.2039
G01 X10.8390 Y51.3092
G01 X10.8336 Y51.4134
G01 X10.8188 Y51.5128
G01 X10.7941 Y51.6116
G01 X10.7591 Y51.7098
G01 X10.7138 Y51.8051
G01 X10.6620 Y51.8913
G01 X10.6022 Y51.9722
G01 X10.5323 Y52.0496
G01 X10.4551 Y52.1197
G01 X10.3703 Y52.1824
G01 X10.2840 Y52.2340
G01 X10.1931 Y52.2771
G01 X10.0938 Y52.3128
G01 X9.9914 Y52.3382
G01 X9.8919 Y52.3529
G01 X9.7915 Y52.3579
G01 X9.6861 Y52.3529
G01 X9.5830 Y52.3376
G01 X9.4842 Y52.3128
G01 X9.3872 Y52.2781
G01 X9.2940 Y52.2340
G01 X9.2057 Y52.1810
G01 X9.1229 Y52.1197
G01 X9.0465 Y52.0505
G01 X8.9773 Y51.9741
G01 X8.9160 Y51.8913
G01 X8.8630 Y51.8030
G01 X8.8189 Y51.7098
G01 X8.7842 Y51.6128
G01 X8.7592 Y51.5128
G01 X8.7441 Y51.4109
G01 X8.7390 Y51.3080
G01 X8.7441 Y51.2051
G01 X8.7594 Y51.1020
G01 X8.7842 Y51.0032
G01 X8.8189 Y50.9062
G01 X8.8630 Y50.8130
G01 X8.9160 Y50.7247
G01 X8.9773 Y50.6419
G01 X9.0465 Y50.5655
G01 X9.1229 Y50.4963
G01 X9.2067 Y50.4343
G01 X9.2940 Y50.3820
G01 X9.3872 Y50.3379
G01 X9.4842 Y50.3032
G01 X9.5854 Y50.2780
G01 X9.6861 Y50.2631
G01 X9.7902 Y50.2580
G01 X9.8931 Y50.2632
G01 X9.9926 Y50.2780
G01 X10.0313 Y50.2875
G00 Z2.0000
G00 X9.6182 Y54.8169
G01 F60.00
G01 Z-0.0499
G01 F30.00
G01 X12.1450 Y52.2901
G01 X12.1450 Y36.6622
G01 X10.0313 Y34.5485
G01 X9.9926 Y34.5580
G01 X9.8907 Y34.5730
G01 X9.7890 Y34.5780
G01 X9.6873 Y34.5730
G01 X9.5818 Y34.5573
G01 X9.4842 Y34.5328
G01 X9.3861 Y34.4976
G01 X9.2940 Y34.4540
G01 X9.2057 Y34.4010
G01 X9.1229 Y34.3397
G01 X9.0483 Y34.2722
G01 X8.9758 Y34.1922
G01 X8.9160 Y34.1113
G01 X8.8636 Y34.0240
G01 X8.8189 Y33.9298
G01 X8.7836 Y33.8304
G01 X8.7592 Y33.7328
G01 X8.7444 Y33.6334
G01 X8.7390 Y33.5280
G01 X8.7444 Y33.4226
G01 X8.7592 Y33.3232
G01 X8.7836 Y33.2256
G01 X8.8189 Y33.1262
G01 X8.8642 Y33.0309
G01 X8.9160 Y32.9447
G01 X8.9758 Y32.8638
G01 X9.0465 Y32.7855
G01 X9.1248 Y32.7148
G01 X9.2057 Y32.6550
G01 X9.2919 Y32.6032
G01 X9.3872 Y32.5579
G01 X9.4866 Y32.5226
G01 X9.5842 Y32.4982
G01 X9.6836 Y32.4834
G01 X9.7890 Y32.4780
G01 X9.8919 Y32.4831
G01 X9.9938 Y32.4982
G01 X10.0938 Y32.5232
G01 X10.1931 Y32.5589
G01 X10.2861 Y32.6032
G01 X10.3723 Y32.6550
G01 X10.4532 Y32.7148
G01 X10.5315 Y32.7855
G01 X10.5991 Y32.8600
G01 X10.6620 Y32.9447
G01 X10.7161 Y33.0352
G01 X10.7591 Y33.1262
G01 X10.7930 Y33.2209
G01 X10.8186 Y33.3220
G01 X10.8339 Y33.4251
G01 X10.8390 Y33.5292
G01 X10.8338 Y33.6321
G01 X10.8190 Y33.7316
G01 X10.8095 Y33.7703
G01 X13.0852 Y36.0461
G01 X13.1206 Y36.0852
G01 X13.1514 Y36.1266
G01 X13.1806 Y36.1749
G01 X13.2037 Y36.2237
G01 X13.2211 Y36.2722
G01 X13.2352 Y36.3282
G01 X13.2429 Y36.3804
G01 X13.2456 Y36.4343
G01 X13.2456 Y52.5180
G01 X13.2429 Y52.5719
G01 X13.2350 Y52.6253
G01 X13.2219 Y52.6777
G01 X13.2037 Y52.7286
G01 X13.1806 Y52.7774
G01 X13.1528 Y52.8237
G01 X13.1206 Y52.8671
G01 X13.0852 Y52.9062
G01 X10.3964 Y55.5951
G01 X10.3564 Y55.6313
G01 X10.3120 Y55.6642
G01 X10.2667 Y55.6913
G01 X10.2179 Y55.7144
G01 X10.1670 Y55.7326
G01 X10.1146 Y55.7457
G01 X10.0612 Y55.7536
G01 X10.0073 Y55.7563
G01 X9.9534 Y55.7536
G01 X9.9024 Y55.7461
G01 X9.8452 Y55.7318
G01 X9.7967 Y55.7144
G01 X9.7458 Y55.6901
G01 X9.7016 Y55.6635
G01 X9.6582 Y55.6313
G01 X9.6182 Y55.5951
G01 X9.5820 Y55.5551
G01 X9.5498 Y55.5117
G01 X9.5220 Y55.4654
G01 X9.4989 Y55.4166
G01 X9.4807 Y55.3657
G01 X9.4676 Y55.3133
G01 X9.4597 Y55.2599
G01 X9.4570 Y55.2060
G01 X9.4595 Y55.1545
G01 X9.4676 Y55.0987
G01 X9.4801 Y55.0486
G01 X9.4999 Y54.9932
G01 X9.5220 Y54.9466
G01 X9.5498 Y54.9003
G01 X9.5820 Y54.8569
G01 X9.6182 Y54.8169
G00 Z2.0000
G00 X9.7915 Y62.3231
G01 F60.00
G01 Z-0.0499
G01 F30.00
G01 X9.8919 Y62.3281
G01 X9.9938 Y62.3432
G01 X10.0938 Y62.3682
G01 X10.1908 Y62.4029
G01 X10.2840 Y62.4470
G01 X10.3723 Y62.5000
G01 X10.4551 Y62.5613
G01 X10.5315 Y62.6305
G01 X10.6007 Y62.7069
G01 X10.6620 Y62.7897
G01 X10.7150 Y62.8780
G01 X10.7591 Y62.9712
G01 X10.7938 Y63.0682
G01 X10.8188 Y63.1682
G01 X10.8339 Y63.2701
G01 X10.8390 Y63.3730
G01 X10.8339 Y63.4759
G01 X10.8188 Y63.5778
G01 X10.7938 Y63.6778
G01 X10.7591 Y63.7748
G01 X10.7150 Y63.8680
G01 X10.6620 Y63.9563
G01 X10.6007 Y64.0391
G01 X10.5315 Y64.1155
G01 X10.4551 Y64.1847
G01 X10.3723 Y64.2460
G01 X10.2840 Y64.2990
G01 X10.1908 Y64.3431
G01 X10.0938 Y64.3778
G01 X9.9938 Y64.4028
G01 X9.8919 Y64.4179
G01 X9.7890 Y64.4230
G01 X9.6861 Y64.4179
G01 X9.5842 Y64.4028
G01 X9.4842 Y64.3778
G01 X9.3872 Y64.3431
G01 X9.2940 Y64.2990
G01 X9.2057 Y64.2460
G01 X9.1229 Y64.1847
G01 X9.0465 Y64.1155
G01 X8.9773 Y64.0391
G01 X8.9160 Y63.9563
G01 X8.8630 Y63.8680
G01 X8.8189 Y63.7748
G01 X8.7842 Y63.6778
G01 X8.7592 Y63.5778
G01 X8.7441 Y63.4759
G01 X8.7390 Y63.3730
G01 X8.7441 Y63.2701
G01 X8.7592 Y63.1682
G01 X8.7842 Y63.0682
G01 X8.8189 Y62.9712
G01 X8.8630 Y62.8780
G01 X8.9160 Y62.7897
G01 X8.9773 Y62.7069
G01 X9.0465 Y62.6305
G01 X9.1229 Y62.5613
G01 X9.2057 Y62.5000
G01 X9.2940 Y62.4470
G01 X9.3872 Y62.4029
G01 X9.4842 Y62.3682
G01 X9.5842 Y62.3432
G01 X9.6861 Y62.3281
G01 X9.7915 Y62.3231
G00 Z2.0000
G00 X9.7915 Y64.8631
G01 F60.00
G01 Z-0.0499
G01 F30.00
G01 X9.8919 Y64.8681
G01 X9.9938 Y64.8832
G01 X10.0938 Y64.9082
G01 X10.1908 Y64.9429
G01 X10.2840 Y64.9870
G01 X10.3723 Y65.0400
G01 X10.4551 Y65.1013
G01 X10.5315 Y65.1705
G01 X10.6007 Y65.2469
G01 X10.6620 Y65.3297
G01 X10.7150 Y65.4180
G01 X10.7591 Y65.5112
G01 X10.7938 Y65.6082
G01 X10.8188 Y65.7082
G01 X10.8339 Y65.8101
G01 X10.8390 Y65.9130
G01 X10.8339 Y66.0159
G01 X10.8188 Y66.1178
G01 X10.7938 Y66.2178
G01 X10.7591 Y66.3148
G01 X10.7150 Y66.4080
G01 X10.6620 Y66.4963
G01 X10.6007 Y66.5791
G01 X10.5315 Y66.6555
G01 X10.4551 Y66.7247
G01 X10.3723 Y66.7860
G01 X10.2840 Y66.8390
G01 X10.1908 Y66.8831
G01 X10.0938 Y66.9178
G01 X9.9938 Y66.9428
G01 X9.8919 Y66.9579
G01 X9.7890 Y66.9630
G01 X9.6861 Y66.9579
G01 X9.5842 Y66.9428
G01 X9.4842 Y66.9178
G01 X9.3872 Y66.8831
G01 X9.2940 Y66.8390
G01 X9.2057 Y66.7860
G01 X9.1229 Y66.7247
G01 X9.0465 Y66.6555
G01 X8.9773 Y66.5791
G01 X8.9160 Y66.4963
G01 X8.8630 Y66.4080
G01 X8.8189 Y66.3148
G01 X8.7842 Y66.2178
G01 X8.7592 Y66.1178
G01 X8.7441 Y66.0159
G01 X8.7390 Y65.9130
G01 X8.7441 Y65.8101
G01 X8.7592 Y65.7082
G01 X8.7842 Y65.6082
G01 X8.8189 Y65.5112
G01 X8.8630 Y65.4180
G01 X8.9160 Y65.3297
G01 X8.9773 Y65.2469
G01 X9.0465 Y65.1705
G01 X9.1229 Y65.1013
G01 X9.2057 Y65.0400
G01 X9.2940 Y64.9870
G01 X9.3872 Y64.9429
G01 X9.4842 Y64.9082
G01 X9.5842 Y64.8832
G01 X9.6861 Y64.8681
G01 X9.7915 Y64.8631
G00 Z2.0000
G00 X3.5585 Y64.3451
G01 F60.00
G01 Z-0.0499
G01 F30.00
G01 X3.6614 Y64.3504
G01 X3.7608 Y64.3652
G01 X3.8584 Y64.3896
G01 X3.9578 Y64.4249
G01 X4.0520 Y64.4696
G01 X4.1414 Y64.5234
G01 X4.2221 Y64.5833
G01 X4.2976 Y64.6517
G01 X4.3684 Y64.7298
G01 X4.4283 Y64.8106
G01 X4.4490 Y64.8447
G01 X5.2563 Y64.8447
G01 X5.3115 Y64.8475
G01 X5.3636 Y64.8553
G01 X5.4160 Y64.8684
G01 X5.4669 Y64.8866
G01 X5.5135 Y64.9086
G01 X5.5640 Y64.9389
G01 X5.6054 Y64.9697
G01 X5.6462 Y65.0068
G01 X5.6816 Y65.0459
G01 X5.7124 Y65.0873
G01 X5.7427 Y65.1378
G01 X5.7647 Y65.1844
G01 X5.7829 Y65.2353
G01 X5.7960 Y65.2877
G01 X5.8038 Y65.3398
G01 X5.8066 Y65.3950
G01 X5.8066 Y66.2324
G01 X9.5467 Y69.9725
G01 X9.5854 Y69.9630
G01 X9.6873 Y69.9480
G01 X9.7890 Y69.9430
G01 X9.8907 Y69.9480
G01 X9.9962 Y69.9637
G01 X10.0938 Y69.9882
G01 X10.1897 Y70.0225
G01 X10.2861 Y70.0682
G01 X10.3723 Y70.1200
G01 X10.4551 Y70.1813
G01 X10.5332 Y70.2523
G01 X10.6007 Y70.3269
G01 X10.6606 Y70.4076
G01 X10.7150 Y70.4980
G01 X10.7581 Y70.5889
G01 X10.7944 Y70.6906
G01 X10.8188 Y70.7882
G01 X10.8339 Y70.8901
G01 X10.8390 Y70.9930
G01 X10.8339 Y71.0959
G01 X10.8188 Y71.1978
G01 X10.7938 Y71.2978
G01 X10.7591 Y71.3948
G01 X10.7161 Y71.4858
G01 X10.6606 Y71.5784
G01 X10.6007 Y71.6591
G01 X10.5306 Y71.7363
G01 X10.4551 Y71.8047
G01 X10.3723 Y71.8660
G01 X10.2840 Y71.9190
G01 X10.1908 Y71.9631
G01 X10.0938 Y71.9978
G01 X9.9938 Y72.0228
G01 X9.8919 Y72.0379
G01 X9.7890 Y72.0430
G01 X9.6861 Y72.0379
G01 X9.5842 Y72.0228
G01 X9.4842 Y71.9978
G01 X9.3872 Y71.9631
G01 X9.2940 Y71.9190
G01 X9.2057 Y71.8660
G01 X9.1229 Y71.8047
G01 X9.0465 Y71.7355
G01 X8.9758 Y71.6572
G01 X8.9160 Y71.5763
G01 X8.8642 Y71.4901
G01 X8.8189 Y71.3948
G01 X8.7839 Y71.2966
G01 X8.7588 Y71.1954
G01 X8.7441 Y71.0959
G01 X8.7390 Y70.9942
G01 X8.7442 Y70.8889
G01 X8.7590 Y70.7894
G01 X8.7685 Y70.7507
G01 X4.8672 Y66.8494
G01 X4.8294 Y66.8074
G01 X4.7988 Y66.7660
G01 X4.7722 Y66.7218
G01 X4.7479 Y66.6709
G01 X4.7291 Y66.6177
G01 X4.7166 Y66.5676
G01 X4.7090 Y66.5167
G01 X4.7060 Y66.4603
G01 X4.7060 Y65.9453
G01 X4.4490 Y65.9453
G01 X4.4283 Y65.9794
G01 X4.3684 Y66.0602
G01 X4.2993 Y66.1366
G01 X4.2221 Y66.2067
G01 X4.1383 Y66.2687
G01 X4.0488 Y66.3221
G01 X3.9578 Y66.3651
G01 X3.8631 Y66.3990
G01 X3.7608 Y66.4248
G01 X3.6589 Y66.4399
G01 X3.5560 Y66.4450
G01 X3.4506 Y66.4396
G01 X3.3512 Y66.4248
G01 X3.2536 Y66.4004
G01 X3.1565 Y66.3660
G01 X3.0610 Y66.3210
G01 X2.9727 Y66.2680
G01 X2.8899 Y66.2067
G01 X2.8127 Y66.1366
G01 X2.7443 Y66.0611
G01 X2.6844 Y65.9804
G01 X2.6300 Y65.8900
G01 X2.5859 Y65.7968
G01 X2.5520 Y65.7021
G01 X2.5262 Y65.5998
G01 X2.5109 Y65.4955
G01 X2.5060 Y65.3950
G01 X2.5111 Y65.2921
G01 X2.5262 Y65.1902
G01 X2.5506 Y65.0926
G01 X2.5859 Y64.9932
G01 X2.6312 Y64.8979
G01 X2.6830 Y64.8117
G01 X2.7443 Y64.7289
G01 X2.8153 Y64.6508
G01 X2.8899 Y64.5833
G01 X2.9727 Y64.5220
G01 X3.0632 Y64.4679
G01 X3.1542 Y64.4249
G01 X3.2512 Y64.3902
G01 X3.3512 Y64.3652
G01 X3.4506 Y64.3504
G01 X3.5585 Y64.3451
G00 Z2.0000
G00 X3.5585 Y66.8851
G01 F60.00
G01 Z-0.0499
G01 F30.00
G01 X3.6589 Y66.8901
G01 X3.7608 Y66.9052
G01 X3.8608 Y66.9302
G01 X3.9578 Y66.9649
G01 X4.0510 Y67.0090
G01 X4.1393 Y67.0620
G01 X4.2221 Y67.1233
G01 X4.2985 Y67.1925
G01 X4.3677 Y67.2689
G01 X4.4290 Y67.3517
G01 X4.4820 Y67.4400
G01 X4.5261 Y67.5332
G01 X4.5608 Y67.6302
G01 X4.5858 Y67.7302
G01 X4.6009 Y67.8321
G01 X4.6060 Y67.9350
G01 X4.6009 Y68.0379
G01 X4.5858 Y68.1398
G01 X4.5608 Y68.2398
G01 X4.5261 Y68.3368
G01 X4.4820 Y68.4300
G01 X4.4290 Y68.5183
G01 X4.3677 Y68.6011
G01 X4.2985 Y68.6775
G01 X4.2221 Y68.7467
G01 X4.1393 Y68.8080
G01 X4.0510 Y68.8610
G01 X3.9578 Y68.9051
G01 X3.8608 Y68.9398
G01 X3.7608 Y68.9648
G01 X3.6589 Y68.9799
G01 X3.5560 Y68.9850
G01 X3.4531 Y68.9799
G01 X3.3512 Y68.9648
G01 X3.2512 Y68.9398
G01 X3.1542 Y68.9051
G01 X3.0610 Y68.8610
G01 X2.9727 Y68.8080
G01 X2.8899 Y68.7467
G01 X2.8135 Y68.6775
G01 X2.7443 Y68.6011
G01 X2.6830 Y68.5183
G01 X2.6300 Y68.4300
G01 X2.5859 Y68.3368
G01 X2.5512 Y68.2398
G01 X2.5262 Y68.1398
G01 X2.5111 Y68.0379
G01 X2.5060 Y67.9350
G01 X2.5111 Y67.8321
G01 X2.5262 Y67.7302
G01 X2.5512 Y67.6302
G01 X2.5859 Y67.5332
G01 X2.6300 Y67.4400
G01 X2.6830 Y67.3517
G01 X2.7443 Y67.2689
G01 X2.8135 Y67.1925
G01 X2.8899 Y67.1233
G01 X2.9727 Y67.0620
G01 X3.0610 Y67.0090
G01 X3.1542 Y66.9649
G01 X3.2512 Y66.9302
G01 X3.3512 Y66.9052
G01 X3.4531 Y66.8901
G01 X3.5585 Y66.8851
G00 Z2.0000
G00 X3.0057 Y58.8903
G01 F60.00
G01 Z-0.0499
G01 F30.00
G01 X2.4614 Y58.3460
G01 X2.4252 Y58.3060
G01 X2.3917 Y58.2605
G01 X2.3652 Y58.2163
G01 X2.3431 Y58.1697
G01 X2.3239 Y58.1166
G01 X2.3106 Y58.0630
G01 X2.3029 Y58.0108
G01 X2.3002 Y57.9569
G01 X2.3029 Y57.9030
G01 X2.3108 Y57.8496
G01 X2.3239 Y57.7972
G01 X2.3421 Y57.7463
G01 X2.3652 Y57.6975
G01 X2.3930 Y57.6512
G01 X2.4252 Y57.6078
G01 X2.4614 Y57.5678
G01 X2.5014 Y57.5316
G01 X2.5448 Y57.4994
G01 X2.5911 Y57.4716
G01 X2.6399 Y57.4485
G01 X2.6908 Y57.4303
G01 X2.7444 Y57.4170
G01 X2.7966 Y57.4093
G01 X2.8530 Y57.4067
G01 X2.9069 Y57.4096
G01 X2.9578 Y57.4172
G01 X3.0079 Y57.4297
G01 X3.0611 Y57.4485
G01 X3.1099 Y57.4716
G01 X3.1562 Y57.4994
G01 X3.1996 Y57.5316
G01 X3.2396 Y57.5678
G01 X3.9468 Y58.2751
G01 X3.9829 Y58.3153
G01 X4.0135 Y58.3567
G01 X4.0401 Y58.4009
G01 X4.0644 Y58.4518
G01 X4.0826 Y58.5027
G01 X4.0957 Y58.5551
G01 X4.1033 Y58.6060
G01 X4.1063 Y58.6624
G01 X4.1063 Y61.9620
G01 X4.1404 Y61.9827
G01 X4.2212 Y62.0426
G01 X4.2985 Y62.1125
G01 X4.3684 Y62.1898
G01 X4.4283 Y62.2706
G01 X4.4490 Y62.3047
G01 X5.2563 Y62.3047
G01 X5.3102 Y62.3074
G01 X5.3636 Y62.3153
G01 X5.4137 Y62.3278
G01 X5.4669 Y62.3466
G01 X5.5157 Y62.3697
G01 X5.5599 Y62.3962
G01 X5.6072 Y62.4313
G01 X5.6454 Y62.4659
G01 X8.3847 Y65.2052
G01 X8.4209 Y65.2452
G01 X8.4517 Y65.2866
G01 X8.4809 Y65.3349
G01 X8.5048 Y65.3860
G01 X8.5222 Y65.4346
G01 X8.5347 Y65.4846
G01 X8.5433 Y65.5416
G01 X8.5459 Y65.5943
G01 X8.5459 Y66.4317
G01 X9.5467 Y67.4325
G01 X9.5854 Y67.4230
G01 X9.6849 Y67.4082
G01 X9.7902 Y67.4030
G01 X9.8919 Y67.4081
G01 X9.9914 Y67.4228
G01 X10.0950 Y67.4486
G01 X10.1908 Y67.4829
G01 X10.2818 Y67.5259
G01 X10.3723 Y67.5800
G01 X10.4570 Y67.6429
G01 X10.5315 Y67.7105
G01 X10.5999 Y67.7859
G01 X10.6620 Y67.8697
G01 X10.7150 Y67.9580
G01 X10.7591 Y68.0512
G01 X10.7938 Y68.1482
G01 X10.8188 Y68.2482
G01 X10.8339 Y68.3501
G01 X10.8390 Y68.4530
G01 X10.8336 Y68.5584
G01 X10.8188 Y68.6578
G01 X10.7944 Y68.7554
G01 X10.7600 Y68.8525
G01 X10.7150 Y68.9480
G01 X10.6634 Y69.0343
G01 X10.6007 Y69.1191
G01 X10.5315 Y69.1955
G01 X10.4551 Y69.2647
G01 X10.3734 Y69.3253
G01 X10.2840 Y69.3790
G01 X10.1908 Y69.4231
G01 X10.0938 Y69.4578
G01 X9.9962 Y69.4823
G01 X9.8919 Y69.4979
G01 X9.7915 Y69.5029
G01 X9.6836 Y69.4976
G01 X9.5842 Y69.4828
G01 X9.4842 Y69.4578
G01 X9.3872 Y69.4231
G01 X9.2940 Y69.3790
G01 X9.2057 Y69.3260
G01 X9.1229 Y69.2647
G01 X9.0465 Y69.1955
G01 X8.9789 Y69.1210
G01 X8.9160 Y69.0363
G01 X8.8619 Y68.9458
G01 X8.8189 Y68.8548
G01 X8.7850 Y68.7601
G01 X8.7594 Y68.6590
G01 X8.7441 Y68.5559
G01 X8.7390 Y68.4518
G01 X8.7442 Y68.3489
G01 X8.7590 Y68.2494
G01 X8.7685 Y68.2107
G01 X7.6057 Y67.0478
G01 X7.5703 Y67.0087
G01 X7.5381 Y66.9653
G01 X7.5103 Y66.9190
G01 X7.4882 Y66.8724
G01 X7.4690 Y66.8193
G01 X7.4559 Y66.7669
G01 X7.4480 Y66.7135
G01 X7.4454 Y66.6621
G01 X7.4453 Y65.8222
G01 X5.0284 Y63.4053
G01 X4.4490 Y63.4053
G01 X4.4283 Y63.4394
G01 X4.3684 Y63.5202
G01 X4.2976 Y63.5983
G01 X4.2202 Y63.6682
G01 X4.1393 Y63.7280
G01 X4.0520 Y63.7804
G01 X3.9578 Y63.8251
G01 X3.8584 Y63.8604
G01 X3.7608 Y63.8848
G01 X3.6614 Y63.8996
G01 X3.5572 Y63.9050
G01 X3.4531 Y63.8999
G01 X3.3488 Y63.8843
G01 X3.2512 Y63.8598
G01 X3.1565 Y63.8260
G01 X3.0610 Y63.7810
G01 X2.9727 Y63.7280
G01 X2.8880 Y63.6651
G01 X2.8135 Y63.5975
G01 X2.7459 Y63.5230
G01 X2.6837 Y63.4394
G01 X2.6300 Y63.3500
G01 X2.5869 Y63.2591
G01 X2.5506 Y63.1574
G01 X2.5262 Y63.0598
G01 X2.5111 Y62.9579
G01 X2.5060 Y62.8550
G01 X2.5110 Y62.7533
G01 X2.5262 Y62.6502
G01 X2.5520 Y62.5479
G01 X2.5859 Y62.4532
G01 X2.6289 Y62.3622
G01 X2.6823 Y62.2727
G01 X2.7443 Y62.1889
G01 X2.8144 Y62.1117
G01 X2.8908 Y62.0426
G01 X2.9716 Y61.9827
G01 X3.0057 Y61.9620
G01 X3.0057 Y58.8903
G00 Z2.0000
G00 X1.1000 Y56.9336
G01 F60.00
G01 Z-0.0499
G01 F30.00
G01 X1.1026 Y56.8822
G01 X1.1105 Y56.8288
G01 X1.1236 Y56.7764
G01 X1.1410 Y56.7278
G01 X1.1661 Y56.6746
G01 X1.1927 Y56.6304
G01 X1.2265 Y56.5852
G01 X1.2611 Y56.5470
G01 X3.0057 Y54.8024
G01 X3.0057 Y54.2230
G01 X2.9716 Y54.2023
G01 X2.8908 Y54.1424
G01 X2.8144 Y54.0733
G01 X2.7443 Y53.9961
G01 X2.6837 Y53.9144
G01 X2.6300 Y53.8250
G01 X2.5859 Y53.7318
G01 X2.5512 Y53.6348
G01 X2.5258 Y53.5324
G01 X2.5111 Y53.4329
G01 X2.5060 Y53.3300
G01 X2.5111 Y53.2271
G01 X2.5262 Y53.1252
G01 X2.5512 Y53.0252
G01 X2.5859 Y52.9282
G01 X2.6300 Y52.8350
G01 X2.6830 Y52.7467
G01 X2.7443 Y52.6639
G01 X2.8135 Y52.5875
G01 X2.8899 Y52.5183
G01 X2.9727 Y52.4570
G01 X3.0610 Y52.4040
G01 X3.1542 Y52.3599
G01 X3.2512 Y52.3252
G01 X3.3512 Y52.3002
G01 X3.4531 Y52.2851
G01 X3.5560 Y52.2800
G01 X3.6589 Y52.2851
G01 X3.7608 Y52.3002
G01 X3.8608 Y52.3252
G01 X3.9578 Y52.3599
G01 X4.0510 Y52.4040
G01 X4.1393 Y52.4570
G01 X4.2240 Y52.5199
G01 X4.2985 Y52.5875
G01 X4.3661 Y52.6620
G01 X4.4290 Y52.7467
G01 X4.4820 Y52.8350
G01 X4.5270 Y52.9305
G01 X4.5608 Y53.0252
G01 X4.5853 Y53.1228
G01 X4.6009 Y53.2271
G01 X4.6060 Y53.3312
G01 X4.6006 Y53.4354
G01 X4.5858 Y53.5348
G01 X4.5614 Y53.6324
G01 X4.5261 Y53.7318
G01 X4.4814 Y53.8260
G01 X4.4290 Y53.9133
G01 X4.3692 Y53.9942
G01 X4.2993 Y54.0716
G01 X4.2212 Y54.1424
G01 X4.1404 Y54.2023
G01 X4.1063 Y54.2230
G01 X4.1062 Y55.0328
G01 X4.1036 Y55.0842
G01 X4.0957 Y55.1376
G01 X4.0826 Y55.1900
G01 X4.0644 Y55.2409
G01 X4.0413 Y55.2897
G01 X4.0135 Y55.3360
G01 X3.9813 Y55.3794
G01 X3.9459 Y55.4185
G01 X2.2005 Y57.1640
G01 X2.2005 Y68.3413
G01 X3.3137 Y69.4545
G01 X3.3524 Y69.4450
G01 X3.4543 Y69.4300
G01 X3.5560 Y69.4250
G01 X3.6577 Y69.4300
G01 X3.7608 Y69.4452
G01 X3.8584 Y69.4696
G01 X3.9589 Y69.5054
G01 X4.0510 Y69.5490
G01 X4.1393 Y69.6020
G01 X4.2221 Y69.6633
G01 X4.2967 Y69.7308
G01 X4.3692 Y69.8108
G01 X4.4290 Y69.8917
G01 X4.4826 Y69.9811
G01 X4.5270 Y70.0755
G01 X4.5608 Y70.1702
G01 X4.5853 Y70.2678
G01 X4.6009 Y70.3721
G01 X4.6060 Y70.4750
G01 X4.6009 Y70.5779
G01 X4.5853 Y70.6822
G01 X4.5608 Y70.7798
G01 X4.5270 Y70.8745
G01 X4.4831 Y70.9678
G01 X4.4290 Y71.0583
G01 X4.3677 Y71.1411
G01 X4.2985 Y71.2175
G01 X4.2202 Y71.2882
G01 X4.1393 Y71.3480
G01 X4.0531 Y71.3998
G01 X3.9601 Y71.4441
G01 X3.8608 Y71.4798
G01 X3.7596 Y71.5050
G01 X3.6565 Y71.5201
G01 X3.5560 Y71.5250
G01 X3.4555 Y71.5201
G01 X3.3512 Y71.5048
G01 X3.2512 Y71.4798
G01 X3.1519 Y71.4441
G01 X3.0610 Y71.4010
G01 X2.9747 Y71.3494
G01 X2.8899 Y71.2867
G01 X2.8127 Y71.2166
G01 X2.7428 Y71.1392
G01 X2.6830 Y71.0583
G01 X2.6312 Y70.9721
G01 X2.5859 Y70.8768
G01 X2.5509 Y70.7786
G01 X2.5262 Y70.6798
G01 X2.5114 Y70.5804
G01 X2.5060 Y70.4762
G01 X2.5112 Y70.3709
G01 X2.5260 Y70.2714
G01 X2.5355 Y70.2327
G01 X1.2594 Y68.9565
G01 X1.2249 Y68.9183
G01 X1.1941 Y68.8769
G01 X1.1649 Y68.8286
G01 X1.1418 Y68.7798
G01 X1.1244 Y68.7313
G01 X1.1103 Y68.6753
G01 X1.1026 Y68.6231
G01 X1.0999 Y68.5692
G01 X1.1000 Y56.9336
G00 Z2.0000
G00 X3.5585 Y49.7401
G01 F60.00
G01 Z-0.0499
G01 F30.00
G01 X3.6589 Y49.7451
G01 X3.7608 Y49.7602
G01 X3.8608 Y49.7852
G01 X3.9578 Y49.8199
G01 X4.0510 Y49.8640
G01 X4.1393 Y49.9170
G01 X4.2221 Y49.9783
G01 X4.2985 Y50.0475
G01 X4.3677 Y50.1239
G01 X4.4290 Y50.2067
G01 X4.4820 Y50.2950
G01 X4.5261 Y50.3882
G01 X4.5608 Y50.4852
G01 X4.5858 Y50.5852
G01 X4.6009 Y50.6871
G01 X4.6060 Y50.7900
G01 X4.6009 Y50.8929
G01 X4.5858 Y50.9948
G01 X4.5608 Y51.0948
G01 X4.5261 Y51.1918
G01 X4.4820 Y51.2850
G01 X4.4290 Y51.3733
G01 X4.3677 Y51.4561
G01 X4.2985 Y51.5325
G01 X4.2221 Y51.6017
G01 X4.1393 Y51.6630
G01 X4.0510 Y51.7160
G01 X3.9578 Y51.7601
G01 X3.8608 Y51.7948
G01 X3.7608 Y51.8198
G01 X3.6589 Y51.8349
G01 X3.5560 Y51.8400
G01 X3.4531 Y51.8349
G01 X3.3512 Y51.8198
G01 X3.2512 Y51.7948
G01 X3.1542 Y51.7601
G01 X3.0610 Y51.7160
G01 X2.9727 Y51.6630
G01 X2.8899 Y51.6017
G01 X2.8135 Y51.5325
G01 X2.7443 Y51.4561
G01 X2.6830 Y51.3733
G01 X2.6300 Y51.2850
G01 X2.5859 Y51.1918
G01 X2.5512 Y51.0948
G01 X2.5262 Y50.9948
G01 X2.5111 Y50.8929
G01 X2.5060 Y50.7900
G01 X2.5111 Y50.6871
G01 X2.5262 Y50.5852
G01 X2.5512 Y50.4852
G01 X2.5859 Y50.3882
G01 X2.6300 Y50.2950
G01 X2.6830 Y50.2067
G01 X2.7443 Y50.1239
G01 X2.8135 Y50.0475
G01 X2.8899 Y49.9783
G01 X2.9727 Y49.9170
G01 X3.0610 Y49.8640
G01 X3.1542 Y49.8199
G01 X3.2512 Y49.7852
G01 X3.3512 Y49.7602
G01 X3.4531 Y49.7451
G01 X3.5585 Y49.7401
G00 Z2.0000
G00 X3.5585 Y47.2001
G01 F60.00
G01 Z-0.0499
G01 F30.00
G01 X3.6614 Y47.2054
G01 X3.7608 Y47.2202
G01 X3.8584 Y47.2446
G01 X3.9578 Y47.2799
G01 X4.0520 Y47.3246
G01 X4.1393 Y47.3770
G01 X4.2202 Y47.4368
G01 X4.2976 Y47.5067
G01 X4.3684 Y47.5848
G01 X4.4283 Y47.6656
G01 X4.4490 Y47.6997
G01 X5.2563 Y47.6997
G01 X5.3090 Y47.7023
G01 X5.3636 Y47.7103
G01 X5.4184 Y47.7242
G01 X5.4669 Y47.7416
G01 X5.5135 Y47.7636
G01 X5.5610 Y47.7918
G01 X5.6054 Y47.8247
G01 X5.6454 Y47.8609
G01 X5.6816 Y47.9009
G01 X5.7138 Y47.9443
G01 X5.7416 Y47.9906
G01 X5.7647 Y48.0394
G01 X5.7829 Y48.0903
G01 X5.7960 Y48.1427
G01 X5.8039 Y48.1961
G01 X5.8066 Y48.2500
G01 X5.8039 Y48.3039
G01 X5.7960 Y48.3573
G01 X5.7829 Y48.4097
G01 X5.7647 Y48.4606
G01 X5.7416 Y48.5094
G01 X5.7145 Y48.5547
G01 X5.6816 Y48.5991
G01 X5.6454 Y48.6391
G01 X5.6054 Y48.6753
G01 X5.5620 Y48.7075
G01 X5.5157 Y48.7353
G01 X5.4669 Y48.7584
G01 X5.4160 Y48.7766
G01 X5.3636 Y48.7897
G01 X5.3102 Y48.7976
G01 X5.2563 Y48.8003
G01 X4.4490 Y48.8003
G01 X4.4283 Y48.8344
G01 X4.3684 Y48.9152
G01 X4.2993 Y48.9916
G01 X4.2221 Y49.0617
G01 X4.1404 Y49.1223
G01 X4.0510 Y49.1760
G01 X3.9578 Y49.2201
G01 X3.8608 Y49.2548
G01 X3.7608 Y49.2798
G01 X3.6589 Y49.2949
G01 X3.5560 Y49.3000
G01 X3.4531 Y49.2949
G01 X3.3512 Y49.2798
G01 X3.2512 Y49.2548
G01 X3.1542 Y49.2201
G01 X3.0610 Y49.1760
G01 X2.9737 Y49.1237
G01 X2.8880 Y49.0601
G01 X2.8135 Y48.9925
G01 X2.7443 Y48.9161
G01 X2.6830 Y48.8333
G01 X2.6312 Y48.7471
G01 X2.5850 Y48.6495
G01 X2.5512 Y48.5548
G01 X2.5262 Y48.4548
G01 X2.5111 Y48.3529
G01 X2.5061 Y48.2525
G01 X2.5114 Y48.1446
G01 X2.5262 Y48.0452
G01 X2.5512 Y47.9452
G01 X2.5859 Y47.8482
G01 X2.6289 Y47.7572
G01 X2.6844 Y47.6646
G01 X2.7443 Y47.5839
G01 X2.8135 Y47.5075
G01 X2.8899 Y47.4383
G01 X2.9706 Y47.3784
G01 X3.0632 Y47.3229
G01 X3.1542 Y47.2799
G01 X3.2512 Y47.2452
G01 X3.3512 Y47.2202
G01 X3.4506 Y47.2054
G01 X3.5585 Y47.2001
G00 Z2.0000
G00 X3.5585 Y44.6601
G01 F60.00
G01 Z-0.0499
G01 F30.00
G01 X3.6589 Y44.6651
G01 X3.7608 Y44.6802
G01 X3.8608 Y44.7052
G01 X3.9578 Y44.7399
G01 X4.0510 Y44.7840
G01 X4.1393 Y44.8370
G01 X4.2221 Y44.8983
G01 X4.2985 Y44.9675
G01 X4.3677 Y45.0439
G01 X4.4290 Y45.1267
G01 X4.4820 Y45.2150
G01 X4.5261 Y45.3082
G01 X4.5608 Y45.4052
G01 X4.5858 Y45.5052
G01 X4.6009 Y45.6071
G01 X4.6060 Y45.7100
G01 X4.6009 Y45.8129
G01 X4.5858 Y45.9148
G01 X4.5608 Y46.0148
G01 X4.5261 Y46.1118
G01 X4.4820 Y46.2050
G01 X4.4290 Y46.2933
G01 X4.3677 Y46.3761
G01 X4.2985 Y46.4525
G01 X4.2221 Y46.5217
G01 X4.1393 Y46.5830
G01 X4.0510 Y46.6360
G01 X3.9578 Y46.6801
G01 X3.8608 Y46.7148
G01 X3.7608 Y46.7398
G01 X3.6589 Y46.7549
G01 X3.5560 Y46.7600
G01 X3.4531 Y46.7549
G01 X3.3512 Y46.7398
G01 X3.2512 Y46.7148
G01 X3.1542 Y46.6801
G01 X3.0610 Y46.6360
G01 X2.9727 Y46.5830
G01 X2.8899 Y46.5217
G01 X2.8135 Y46.4525
G01 X2.7443 Y46.3761
G01 X2.6830 Y46.2933
G01 X2.6300 Y46.2050
G01 X2.5859 Y46.1118
G01 X2.5512 Y46.0148
G01 X2.5262 Y45.9148
G01 X2.5111 Y45.8129
G01 X2.5060 Y45.7100
G01 X2.5111 Y45.6071
G01 X2.5262 Y45.5052
G01 X2.5512 Y45.4052
G01 X2.5859 Y45.3082
G01 X2.6300 Y45.2150
G01 X2.6830 Y45.1267
G01 X2.7443 Y45.0439
G01 X2.8135 Y44.9675
G01 X2.8899 Y44.8983
G01 X2.9727 Y44.8370
G01 X3.0610 Y44.7840
G01 X3.1542 Y44.7399
G01 X3.2512 Y44.7052
G01 X3.3512 Y44.6802
G01 X3.4531 Y44.6651
G01 X3.5585 Y44.6601
G00 Z2.0000
G00 X22.4915 Y45.1781
G01 F60.00
G01 Z-0.0499
G01 F30.00
G01 X22.5919 Y45.1831
G01 X22.6938 Y45.1982
G01 X22.7938 Y45.2232
G01 X22.8908 Y45.2579
G01 X22.9840 Y45.3020
G01 X23.0723 Y45.3550
G01 X23.1551 Y45.4163
G01 X23.2315 Y45.4855
G01 X23.3007 Y45.5619
G01 X23.3620 Y45.6447
G01 X23.4150 Y45.7330
G01 X23.4591 Y45.8262
G01 X23.4938 Y45.9232
G01 X23.5188 Y46.0232
G01 X23.5339 Y46.1251
G01 X23.5390 Y46.2280
G01 X23.5339 Y46.3309
G01 X23.5188 Y46.4328
G01 X23.4938 Y46.5328
G01 X23.4591 Y46.6298
G01 X23.4150 Y46.7230
G01 X23.3620 Y46.8113
G01 X23.3007 Y46.8941
G01 X23.2315 Y46.9705
G01 X23.1551 Y47.0397
G01 X23.0723 Y47.1010
G01 X22.9840 Y47.1540
G01 X22.8908 Y47.1981
G01 X22.7938 Y47.2328
G01 X22.6938 Y47.2578
G01 X22.5919 Y47.2729
G01 X22.4890 Y47.2780
G01 X22.3861 Y47.2729
G01 X22.2842 Y47.2578
G01 X22.1842 Y47.2328
G01 X22.0872 Y47.1981
G01 X21.9940 Y47.1540
G01 X21.9057 Y47.1010
G01 X21.8229 Y47.0397
G01 X21.7465 Y46.9705
G01 X21.6773 Y46.8941
G01 X21.6160 Y46.8113
G01 X21.5630 Y46.7230
G01 X21.5189 Y46.6298
G01 X21.4842 Y46.5328
G01 X21.4592 Y46.4328
G01 X21.4441 Y46.3309
G01 X21.4390 Y46.2280
G01 X21.4441 Y46.1251
G01 X21.4592 Y46.0232
G01 X21.4842 Y45.9232
G01 X21.5189 Y45.8262
G01 X21.5630 Y45.7330
G01 X21.6160 Y45.6447
G01 X21.6773 Y45.5619
G01 X21.7465 Y45.4855
G01 X21.8229 Y45.4163
G01 X21.9057 Y45.3550
G01 X21.9940 Y45.3020
G01 X22.0872 Y45.2579
G01 X22.1842 Y45.2232
G01 X22.2842 Y45.1982
G01 X22.3861 Y45.1831
G01 X22.4915 Y45.1781
G00 Z2.0000
G00 X22.4915 Y42.6381
G01 F60.00
G01 Z-0.0499
G01 F30.00
G01 X22.5919 Y42.6431
G01 X22.6938 Y42.6582
G01 X22.7938 Y42.6832
G01 X22.8908 Y42.7179
G01 X22.9840 Y42.7620
G01 X23.0723 Y42.8150
G01 X23.1551 Y42.8763
G01 X23.2315 Y42.9455
G01 X23.3007 Y43.0219
G01 X23.3620 Y43.1047
G01 X23.4150 Y43.1930
G01 X23.4591 Y43.2862
G01 X23.4938 Y43.3832
G01 X23.5188 Y43.4832
G01 X23.5339 Y43.5851
G01 X23.5390 Y43.6880
G01 X23.5339 Y43.7909
G01 X23.5188 Y43.8928
G01 X23.4938 Y43.9928
G01 X23.4591 Y44.0898
G01 X23.4150 Y44.1830
G01 X23.3620 Y44.2713
G01 X23.3007 Y44.3541
G01 X23.2315 Y44.4305
G01 X23.1551 Y44.4997
G01 X23.0723 Y44.5610
G01 X22.9840 Y44.6140
G01 X22.8908 Y44.6581
G01 X22.7938 Y44.6928
G01 X22.6938 Y44.7178
G01 X22.5919 Y44.7329
G01 X22.4890 Y44.7380
G01 X22.3861 Y44.7329
G01 X22.2842 Y44.7178
G01 X22.1842 Y44.6928
G01 X22.0872 Y44.6581
G01 X21.9940 Y44.6140
G01 X21.9057 Y44.5610
G01 X21.8229 Y44.4997
G01 X21.7465 Y44.4305
G01 X21.6773 Y44.3541
G01 X21.6160 Y44.2713
G01 X21.5630 Y44.1830
G01 X21.5189 Y44.0898
G01 X21.4842 Y43.9928
G01 X21.4592 Y43.8928
G01 X21.4441 Y43.7909
G01 X21.4390 Y43.6880
G01 X21.4441 Y43.5851
G01 X21.4592 Y43.4832
G01 X21.4842 Y43.3832
G01 X21.5189 Y43.2862
G01 X21.5630 Y43.1930
G01 X21.6160 Y43.1047
G01 X21.6773 Y43.0219
G01 X21.7465 Y42.9455
G01 X21.8229 Y42.8763
G01 X21.9057 Y42.8150
G01 X21.9940 Y42.7620
G01 X22.0872 Y42.7179
G01 X22.1842 Y42.6832
G01 X22.2842 Y42.6582
G01 X22.3861 Y42.6431
G01 X22.4915 Y42.6381
G00 Z2.0000
G00 X22.4915 Y40.0981
G01 F60.00
G01 Z-0.0499
G01 F30.00
G01 X22.5919 Y40.1031
G01 X22.6938 Y40.1182
G01 X22.7938 Y40.1432
G01 X22.8908 Y40.1779
G01 X22.9840 Y40.2220
G01 X23.0723 Y40.2750
G01 X23.1551 Y40.3363
G01 X23.2315 Y40.4055
G01 X23.3007 Y40.4819
G01 X23.3620 Y40.5647
G01 X23.4150 Y40.6530
G01 X23.4591 Y40.7462
G01 X23.4938 Y40.8432
G01 X23.5188 Y40.9432
G01 X23.5339 Y41.0451
G01 X23.5390 Y41.1480
G01 X23.5339 Y41.2509
G01 X23.5188 Y41.3528
G01 X23.4938 Y41.4528
G01 X23.4591 Y41.5498
G01 X23.4150 Y41.6430
G01 X23.3620 Y41.7313
G01 X23.3007 Y41.8141
G01 X23.2315 Y41.8905
G01 X23.1551 Y41.9597
G01 X23.0723 Y42.0210
G01 X22.9840 Y42.0740
G01 X22.8908 Y42.1181
G01 X22.7938 Y42.1528
G01 X22.6938 Y42.1778
G01 X22.5919 Y42.1929
G01 X22.4890 Y42.1980
G01 X22.3861 Y42.1929
G01 X22.2842 Y42.1778
G01 X22.1842 Y42.1528
G01 X22.0872 Y42.1181
G01 X21.9940 Y42.0740
G01 X21.9057 Y42.0210
G01 X21.8229 Y41.9597
G01 X21.7465 Y41.8905
G01 X21.6773 Y41.8141
G01 X21.6160 Y41.7313
G01 X21.5630 Y41.6430
G01 X21.5189 Y41.5498
G01 X21.4842 Y41.4528
G01 X21.4592 Y41.3528
G01 X21.4441 Y41.2509
G01 X21.4390 Y41.1480
G01 X21.4441 Y41.0451
G01 X21.4592 Y40.9432
G01 X21.4842 Y40.8432
G01 X21.5189 Y40.7462
G01 X21.5630 Y40.6530
G01 X21.6160 Y40.5647
G01 X21.6773 Y40.4819
G01 X21.7465 Y40.4055
G01 X21.8229 Y40.3363
G01 X21.9057 Y40.2750
G01 X21.9940 Y40.2220
G01 X22.0872 Y40.1779
G01 X22.1842 Y40.1432
G01 X22.2842 Y40.1182
G01 X22.3861 Y40.1031
G01 X22.4915 Y40.0981
G00 Z2.0000
G00 X22.4915 Y37.5581
G01 F60.00
G01 Z-0.0499
G01 F30.00
G01 X22.5919 Y37.5631
G01 X22.6938 Y37.5782
G01 X22.7938 Y37.6032
G01 X22.8908 Y37.6379
G01 X22.9840 Y37.6820
G01 X23.0723 Y37.7350
G01 X23.1551 Y37.7963
G01 X23.2315 Y37.8655
G01 X23.3007 Y37.9419
G01 X23.3620 Y38.0247
G01 X23.4150 Y38.1130
G01 X23.4591 Y38.2062
G01 X23.4938 Y38.3032
G01 X23.5188 Y38.4032
G01 X23.5339 Y38.5051
G01 X23.5390 Y38.6080
G01 X23.5339 Y38.7109
G01 X23.5188 Y38.8128
G01 X23.4938 Y38.9128
G01 X23.4591 Y39.0098
G01 X23.4150 Y39.1030
G01 X23.3620 Y39.1913
G01 X23.3007 Y39.2741
G01 X23.2315 Y39.3505
G01 X23.1551 Y39.4197
G01 X23.0723 Y39.4810
G01 X22.9840 Y39.5340
G01 X22.8908 Y39.5781
G01 X22.7938 Y39.6128
G01 X22.6938 Y39.6378
G01 X22.5919 Y39.6529
G01 X22.4890 Y39.6580
G01 X22.3861 Y39.6529
G01 X22.2842 Y39.6378
G01 X22.1842 Y39.6128
G01 X22.0872 Y39.5781
G01 X21.9940 Y39.5340
G01 X21.9057 Y39.4810
G01 X21.8229 Y39.4197
G01 X21.7465 Y39.3505
G01 X21.6773 Y39.2741
G01 X21.6160 Y39.1913
G01 X21.5630 Y39.1030
G01 X21.5189 Y39.0098
G01 X21.4842 Y38.9128
G01 X21.4592 Y38.8128
G01 X21.4441 Y38.7109
G01 X21.4390 Y38.6080
G01 X21.4441 Y38.5051
G01 X21.4592 Y38.4032
G01 X21.4842 Y38.3032
G01 X21.5189 Y38.2062
G01 X21.5630 Y38.1130
G01 X21.6160 Y38.0247
G01 X21.6773 Y37.9419
G01 X21.7465 Y37.8655
G01 X21.8229 Y37.7963
G01 X21.9057 Y37.7350
G01 X21.9940 Y37.6820
G01 X22.0872 Y37.6379
G01 X22.1842 Y37.6032
G01 X22.2842 Y37.5782
G01 X22.3861 Y37.5631
G01 X22.4915 Y37.5581
G00 Z2.0000
G00 X22.4915 Y35.0181
G01 F60.00
G01 Z-0.0499
G01 F30.00
G01 X22.5919 Y35.0231
G01 X22.6938 Y35.0382
G01 X22.7938 Y35.0632
G01 X22.8908 Y35.0979
G01 X22.9840 Y35.1420
G01 X23.0723 Y35.1950
G01 X23.1551 Y35.2563
G01 X23.2315 Y35.3255
G01 X23.3007 Y35.4019
G01 X23.3620 Y35.4847
G01 X23.4150 Y35.5730
G01 X23.4591 Y35.6662
G01 X23.4938 Y35.7632
G01 X23.5188 Y35.8632
G01 X23.5339 Y35.9651
G01 X23.5390 Y36.0680
G01 X23.5339 Y36.1709
G01 X23.5188 Y36.2728
G01 X23.4938 Y36.3728
G01 X23.4591 Y36.4698
G01 X23.4150 Y36.5630
G01 X23.3620 Y36.6513
G01 X23.3007 Y36.7341
G01 X23.2315 Y36.8105
G01 X23.1551 Y36.8797
G01 X23.0723 Y36.9410
G01 X22.9840 Y36.9940
G01 X22.8908 Y37.0381
G01 X22.7938 Y37.0728
G01 X22.6938 Y37.0978
G01 X22.5919 Y37.1129
G01 X22.4890 Y37.1180
G01 X22.3861 Y37.1129
G01 X22.2842 Y37.0978
G01 X22.1842 Y37.0728
G01 X22.0872 Y37.0381
G01 X21.9940 Y36.9940
G01 X21.9057 Y36.9410
G01 X21.8229 Y36.8797
G01 X21.7465 Y36.8105
G01 X21.6773 Y36.7341
G01 X21.6160 Y36.6513
G01 X21.5630 Y36.5630
G01 X21.5189 Y36.4698
G01 X21.4842 Y36.3728
G01 X21.4592 Y36.2728
G01 X21.4441 Y36.1709
G01 X21.4390 Y36.0680
G01 X21.4441 Y35.9651
G01 X21.4592 Y35.8632
G01 X21.4842 Y35.7632
G01 X21.5189 Y35.6662
G01 X21.5630 Y35.5730
G01 X21.6160 Y35.4847
G01 X21.6773 Y35.4019
G01 X21.7465 Y35.3255
G01 X21.8229 Y35.2563
G01 X21.9057 Y35.1950
G01 X21.9940 Y35.1420
G01 X22.0872 Y35.0979
G01 X22.1842 Y35.0632
G01 X22.2842 Y35.0382
G01 X22.3861 Y35.0231
G01 X22.4915 Y35.0181
G00 Z2.0000
G00 X22.4915 Y32.4781
G01 F60.00
G01 Z-0.0499
G01 F30.00
G01 X22.5944 Y32.4834
G01 X22.6938 Y32.4982
G01 X22.7914 Y32.5226
G01 X22.8908 Y32.5579
G01 X22.9850 Y32.6026
G01 X23.0723 Y32.6550
G01 X23.1532 Y32.7148
G01 X23.2306 Y32.7847
G01 X23.3014 Y32.8628
G01 X23.3613 Y32.9436
G01 X23.3820 Y32.9777
G01 X23.9614 Y32.9777
G01 X28.2244 Y28.7147
G01 X28.2245 Y28.6995
G01 X28.2271 Y28.6481
G01 X28.2356 Y28.5923
G01 X28.2481 Y28.5423
G01 X28.2655 Y28.4937
G01 X28.2906 Y28.4405
G01 X28.3172 Y28.3963
G01 X28.3478 Y28.3549
G01 X28.3856 Y28.3129
G01 X28.4256 Y28.2767
G01 X28.4670 Y28.2459
G01 X28.5175 Y28.2156
G01 X28.5641 Y28.1936
G01 X28.6150 Y28.1754
G01 X28.6674 Y28.1623
G01 X28.7208 Y28.1544
G01 X28.7747 Y28.1517
G01 X29.4318 Y28.1517
G01 X29.4356 Y28.1462
G01 X29.4396 Y28.1416
G01 X29.4442 Y28.1376
G01 X29.4493 Y28.1341
G01 X29.4547 Y28.1313
G01 X29.4617 Y28.1288
G01 X29.4677 Y28.1275
G01 X29.4738 Y28.1270
G01 X31.4750 Y28.1270
G01 X31.4823 Y28.1275
G01 X31.4895 Y28.1292
G01 X31.4964 Y28.1318
G01 X31.5038 Y28.1361
G01 X31.5086 Y28.1400
G01 X31.5129 Y28.1443
G01 X31.5166 Y28.1492
G01 X31.5197 Y28.1545
G01 X31.5221 Y28.1602
G01 X31.5238 Y28.1660
G01 X31.5248 Y28.1721
G01 X31.5250 Y28.1770
G01 X31.5250 Y29.2282
G01 X31.5238 Y29.2380
G01 X31.5225 Y29.2427
G01 X31.5202 Y29.2484
G01 X31.5179 Y29.2527
G01 X31.5144 Y29.2578
G01 X31.5104 Y29.2624
G01 X31.5067 Y29.2657
G01 X31.4996 Y29.2705
G01 X31.4918 Y29.2741
G01 X31.4835 Y29.2763
G01 X31.4750 Y29.2770
G01 X29.4750 Y29.2770
G01 X29.4689 Y29.2766
G01 X29.4617 Y29.2752
G01 X29.4559 Y29.2732
G01 X29.4504 Y29.2705
G01 X29.4442 Y29.2664
G01 X29.4396 Y29.2624
G01 X29.4356 Y29.2578
G01 X29.4318 Y29.2523
G01 X29.2294 Y29.2523
G01 X29.2000 Y29.2917
G01 X29.1638 Y29.3317
G01 X25.3143 Y33.1812
G01 X31.7974 Y39.6643
G01 X31.8336 Y39.7043
G01 X31.8658 Y39.7477
G01 X31.8936 Y39.7940
G01 X31.9157 Y39.8406
G01 X31.9349 Y39.8937
G01 X31.9484 Y39.9485
G01 X31.9559 Y39.9995
G01 X31.9585 Y40.0522
G01 X31.9586 Y43.0791
G01 X36.7162 Y47.8367
G01 X44.0550 Y47.8367
G01 X44.0757 Y47.8026
G01 X44.1356 Y47.7218
G01 X44.2064 Y47.6437
G01 X44.2819 Y47.5753
G01 X44.3626 Y47.5154
G01 X44.4541 Y47.4604
G01 X44.5462 Y47.4169
G01 X44.6409 Y47.3830
G01 X44.7432 Y47.3572
G01 X44.8451 Y47.3421
G01 X44.9455 Y47.3371
G01 X45.0521 Y47.3422
G01 X45.1552 Y47.3577
G01 X45.2528 Y47.3822
G01 X45.3475 Y47.4160
G01 X45.4430 Y47.4610
G01 X45.5334 Y47.5154
G01 X45.6141 Y47.5753
G01 X45.6887 Y47.6428
G01 X45.7597 Y47.7209
G01 X45.8224 Y47.8057
G01 X45.8740 Y47.8920
G01 X45.9171 Y47.9829
G01 X45.9528 Y48.0822
G01 X45.9782 Y48.1846
G01 X45.9929 Y48.2841
G01 X45.9979 Y48.3845
G01 X45.9929 Y48.4899
G01 X45.9773 Y48.5942
G01 X45.9528 Y48.6918
G01 X45.9190 Y48.7865
G01 X45.8740 Y48.8820
G01 X45.8203 Y48.9714
G01 X45.7581 Y49.0550
G01 X45.6905 Y49.1295
G01 X45.6160 Y49.1971
G01 X45.5313 Y49.2600
G01 X45.4430 Y49.3130
G01 X45.3475 Y49.3580
G01 X45.2528 Y49.3918
G01 X45.1552 Y49.4163
G01 X45.0509 Y49.4319
G01 X44.9480 Y49.4370
G01 X44.8426 Y49.4316
G01 X44.7432 Y49.4168
G01 X44.6456 Y49.3924
G01 X44.5462 Y49.3571
G01 X44.4520 Y49.3124
G01 X44.3626 Y49.2586
G01 X44.2819 Y49.1987
G01 X44.2064 Y49.1303
G01 X44.1356 Y49.0522
G01 X44.0757 Y48.9714
G01 X44.0550 Y48.9373
G01 X36.4883 Y48.9373
G01 X36.4319 Y48.9343
G01 X36.3810 Y48.9267
G01 X36.3297 Y48.9139
G01 X36.2777 Y48.8954
G01 X36.2268 Y48.8711
G01 X36.1826 Y48.8445
G01 X36.1412 Y48.8139
G01 X36.0992 Y48.7761
G01 X31.1804 Y43.8573
G01 X30.6010 Y43.8573
G01 X30.5803 Y43.8914
G01 X30.5204 Y43.9722
G01 X30.4513 Y44.0486
G01 X30.3741 Y44.1187
G01 X30.2924 Y44.1793
G01 X30.2030 Y44.2330
G01 X30.1098 Y44.2771
G01 X30.0128 Y44.3118
G01 X29.9104 Y44.3372
G01 X29.8109 Y44.3519
G01 X29.7080 Y44.3570
G01 X29.6051 Y44.3519
G01 X29.5032 Y44.3368
G01 X29.4032 Y44.3118
G01 X29.3062 Y44.2771
G01 X29.2130 Y44.2330
G01 X29.1236 Y44.1793
G01 X29.0400 Y44.1171
G01 X28.9655 Y44.0495
G01 X28.8979 Y43.9750
G01 X28.8350 Y43.8903
G01 X28.7820 Y43.8020
G01 X28.7379 Y43.7088
G01 X28.7026 Y43.6094
G01 X28.6782 Y43.5118
G01 X28.6634 Y43.4124
G01 X28.6581 Y43.3095
G01 X28.6631 Y43.2041
G01 X28.6782 Y43.1022
G01 X28.7032 Y43.0022
G01 X28.7389 Y42.9029
G01 X28.7832 Y42.8099
G01 X28.8350 Y42.7237
G01 X28.8948 Y42.6428
G01 X28.9655 Y42.5645
G01 X29.0419 Y42.4953
G01 X29.1247 Y42.4340
G01 X29.2130 Y42.3810
G01 X29.3062 Y42.3369
G01 X29.4032 Y42.3022
G01 X29.5032 Y42.2772
G01 X29.6051 Y42.2621
G01 X29.7080 Y42.2570
G01 X29.8134 Y42.2624
G01 X29.9152 Y42.2777
G01 X30.0128 Y42.3022
G01 X30.1075 Y42.3360
G01 X30.2030 Y42.3810
G01 X30.2903 Y42.4333
G01 X30.3741 Y42.4953
G01 X30.4513 Y42.5654
G01 X30.5204 Y42.6418
G01 X30.5803 Y42.7226
G01 X30.6010 Y42.7567
G01 X30.8580 Y42.7567
G01 X30.8580 Y40.2813
G01 X24.6550 Y34.0783
G01 X23.3820 Y34.0783
G01 X23.3613 Y34.1124
G01 X23.3014 Y34.1932
G01 X23.2323 Y34.2696
G01 X23.1551 Y34.3397
G01 X23.0713 Y34.4017
G01 X22.9818 Y34.4551
G01 X22.8908 Y34.4981
G01 X22.7961 Y34.5320
G01 X22.6938 Y34.5578
G01 X22.5907 Y34.5730
G01 X22.4890 Y34.5780
G01 X22.3836 Y34.5726
G01 X22.2818 Y34.5573
G01 X22.1842 Y34.5328
G01 X22.0895 Y34.4990
G01 X21.9940 Y34.4540
G01 X21.9057 Y34.4010
G01 X21.8229 Y34.3397
G01 X21.7474 Y34.2713
G01 X21.6758 Y34.1922
G01 X21.6160 Y34.1113
G01 X21.5630 Y34.0230
G01 X21.5180 Y33.9275
G01 X21.4842 Y33.8328
G01 X21.4592 Y33.7328
G01 X21.4439 Y33.6285
G01 X21.4390 Y33.5280
G01 X21.4441 Y33.4251
G01 X21.4592 Y33.3232
G01 X21.4836 Y33.2256
G01 X21.5189 Y33.1262
G01 X21.5642 Y33.0309
G01 X21.6160 Y32.9447
G01 X21.6773 Y32.8619
G01 X21.7483 Y32.7838
G01 X21.8229 Y32.7163
G01 X21.9057 Y32.6550
G01 X21.9940 Y32.6020
G01 X22.0849 Y32.5589
G01 X22.1842 Y32.5232
G01 X22.2842 Y32.4982
G01 X22.3836 Y32.4834
G01 X22.4915 Y32.4781
G00 Z2.0000
G00 X30.3555 Y31.2081
G01 F60.00
G01 Z-0.0499
G01 F30.00
G01 X30.4559 Y31.2131
G01 X30.5578 Y31.2282
G01 X30.6578 Y31.2532
G01 X30.7548 Y31.2879
G01 X30.8480 Y31.3320
G01 X30.9363 Y31.3850
G01 X31.0191 Y31.4463
G01 X31.0955 Y31.5155
G01 X31.1647 Y31.5919
G01 X31.2260 Y31.6747
G01 X31.2790 Y31.7630
G01 X31.3231 Y31.8562
G01 X31.3578 Y31.9532
G01 X31.3828 Y32.0532
G01 X31.3979 Y32.1551
G01 X31.4030 Y32.2580
G01 X31.3979 Y32.3609
G01 X31.3828 Y32.4628
G01 X31.3578 Y32.5628
G01 X31.3231 Y32.6598
G01 X31.2790 Y32.7530
G01 X31.2260 Y32.8413
G01 X31.1647 Y32.9241
G01 X31.0955 Y33.0005
G01 X31.0191 Y33.0697
G01 X30.9363 Y33.1310
G01 X30.8480 Y33.1840
G01 X30.7548 Y33.2281
G01 X30.6578 Y33.2628
G01 X30.5578 Y33.2878
G01 X30.4559 Y33.3029
G01 X30.3530 Y33.3080
G01 X30.2501 Y33.3029
G01 X30.1482 Y33.2878
G01 X30.0482 Y33.2628
G01 X29.9512 Y33.2281
G01 X29.8580 Y33.1840
G01 X29.7697 Y33.1310
G01 X29.6869 Y33.0697
G01 X29.6105 Y33.0005
G01 X29.5413 Y32.9241
G01 X29.4800 Y32.8413
G01 X29.4270 Y32.7530
G01 X29.3829 Y32.6598
G01 X29.3482 Y32.5628
G01 X29.3232 Y32.4628
G01 X29.3081 Y32.3609
G01 X29.3030 Y32.2580
G01 X29.3081 Y32.1551
G01 X29.3232 Y32.0532
G01 X29.3482 Y31.9532
G01 X29.3829 Y31.8562
G01 X29.4270 Y31.7630
G01 X29.4800 Y31.6747
G01 X29.5413 Y31.5919
G01 X29.6105 Y31.5155
G01 X29.6869 Y31.4463
G01 X29.7697 Y31.3850
G01 X29.8580 Y31.3320
G01 X29.9512 Y31.2879
G01 X30.0482 Y31.2532
G01 X30.1482 Y31.2282
G01 X30.2501 Y31.2131
G01 X30.3555 Y31.2081
G00 Z2.0000
G00 X30.0000 Y26.8570
G01 F60.00
G01 Z-0.0499
G01 F30.00
G01 X30.9500 Y26.8570
G01 X31.0051 Y26.8597
G01 X31.0622 Y26.8680
G01 X31.1192 Y26.8825
G01 X31.1700 Y26.9008
G01 X31.2189 Y26.9238
G01 X31.2684 Y26.9532
G01 X31.3148 Y26.9875
G01 X31.3566 Y27.0254
G01 X31.3945 Y27.0672
G01 X31.4281 Y27.1125
G01 X31.4571 Y27.1609
G01 X31.4812 Y27.2120
G01 X31.5002 Y27.2651
G01 X31.5140 Y27.3198
G01 X31.5222 Y27.3756
G01 X31.5250 Y27.4320
G01 X31.5222 Y27.4884
G01 X31.5140 Y27.5442
G01 X31.5002 Y27.5989
G01 X31.4812 Y27.6520
G01 X31.4571 Y27.7031
G01 X31.4288 Y27.7504
G01 X31.3945 Y27.7968
G01 X31.3566 Y27.8386
G01 X31.3148 Y27.8765
G01 X31.2674 Y27.9114
G01 X31.2211 Y27.9391
G01 X31.1723 Y27.9622
G01 X31.1192 Y27.9815
G01 X31.0622 Y27.9960
G01 X31.0064 Y28.0042
G01 X30.9500 Y28.0070
G01 X30.0000 Y28.0070
G01 X29.9449 Y28.0043
G01 X29.8878 Y27.9960
G01 X29.8308 Y27.9815
G01 X29.7800 Y27.9632
G01 X29.7311 Y27.9402
G01 X29.6816 Y27.9108
G01 X29.6334 Y27.8749
G01 X29.5934 Y27.8386
G01 X29.5555 Y27.7968
G01 X29.5219 Y27.7515
G01 X29.4941 Y27.7052
G01 X29.4679 Y27.6498
G01 X29.4498 Y27.5989
G01 X29.4360 Y27.5442
G01 X29.4278 Y27.4884
G01 X29.4251 Y27.4345
G01 X29.4281 Y27.3732
G01 X29.4360 Y27.3198
G01 X29.4498 Y27.2651
G01 X29.4688 Y27.2120
G01 X29.4918 Y27.1631
G01 X29.5233 Y27.1105
G01 X29.5555 Y27.0672
G01 X29.5934 Y27.0254
G01 X29.6352 Y26.9875
G01 X29.6785 Y26.9553
G01 X29.7311 Y26.9238
G01 X29.7800 Y26.9008
G01 X29.8331 Y26.8818
G01 X29.8878 Y26.8680
G01 X29.9412 Y26.8601
G01 X30.0000 Y26.8570
G00 Z2.0000
G00 X30.0000 Y25.5870
G01 F60.00
G01 Z-0.0499
G01 F30.00
G01 X30.9512 Y25.5870
G01 X31.0064 Y25.5898
G01 X31.0598 Y25.5976
G01 X31.1169 Y25.6117
G01 X32.1778 Y25.6118
G01 X32.2317 Y25.6147
G01 X32.2826 Y25.6223
G01 X32.3327 Y25.6348
G01 X32.3859 Y25.6536
G01 X32.4368 Y25.6779
G01 X32.4810 Y25.7045
G01 X32.5224 Y25.7351
G01 X32.5644 Y25.7729
G01 X35.8221 Y29.0306
G01 X35.8583 Y29.0706
G01 X35.8905 Y29.1140
G01 X35.9095 Y29.1456
G01 X35.9188 Y29.1614
G01 X35.9414 Y29.2091
G01 X35.9596 Y29.2600
G01 X35.9721 Y29.3100
G01 X35.9808 Y29.3682
G01 X35.9833 Y29.4197
G01 X35.9833 Y31.3650
G01 X36.0174 Y31.3857
G01 X36.0982 Y31.4456
G01 X36.1746 Y31.5147
G01 X36.2447 Y31.5919
G01 X36.3067 Y31.6757
G01 X36.3601 Y31.7652
G01 X36.4031 Y31.8562
G01 X36.4370 Y31.9509
G01 X36.4628 Y32.0532
G01 X36.4781 Y32.1575
G01 X36.4829 Y32.2605
G01 X36.4779 Y32.3609
G01 X36.4632 Y32.4604
G01 X36.4378 Y32.5628
G01 X36.4031 Y32.6598
G01 X36.3590 Y32.7530
G01 X36.3046 Y32.8434
G01 X36.2447 Y32.9241
G01 X36.1772 Y32.9987
G01 X36.0991 Y33.0697
G01 X36.0163 Y33.1310
G01 X35.9258 Y33.1851
G01 X35.8348 Y33.2281
G01 X35.7401 Y33.2620
G01 X35.6378 Y33.2878
G01 X35.5335 Y33.3031
G01 X35.4330 Y33.3080
G01 X35.3325 Y33.3031
G01 X35.2282 Y33.2878
G01 X35.1282 Y33.2628
G01 X35.0312 Y33.2281
G01 X34.9359 Y33.1828
G01 X34.8497 Y33.1310
G01 X34.7688 Y33.0712
G01 X34.6905 Y33.0005
G01 X34.6213 Y32.9241
G01 X34.5586 Y32.8393
G01 X34.5070 Y32.7530
G01 X34.4639 Y32.6621
G01 X34.4290 Y32.5651
G01 X34.4032 Y32.4628
G01 X34.3884 Y32.3634
G01 X34.3831 Y32.2555
G01 X34.3881 Y32.1551
G01 X34.4032 Y32.0532
G01 X34.4282 Y31.9532
G01 X34.4625 Y31.8573
G01 X34.5082 Y31.7609
G01 X34.5600 Y31.6747
G01 X34.6221 Y31.5909
G01 X34.6905 Y31.5155
G01 X34.7659 Y31.4471
G01 X34.8486 Y31.3857
G01 X34.8827 Y31.3650
G01 X34.8827 Y29.6476
G01 X31.9474 Y26.7123
G01 X31.1169 Y26.7123
G01 X31.0598 Y26.7264
G01 X31.0064 Y26.7342
G01 X30.9512 Y26.7370
G01 X29.9975 Y26.7369
G01 X29.9436 Y26.7342
G01 X29.8878 Y26.7260
G01 X29.8331 Y26.7122
G01 X29.7822 Y26.6941
G01 X29.7268 Y26.6679
G01 X29.6805 Y26.6401
G01 X29.6352 Y26.6065
G01 X29.5934 Y26.5686
G01 X29.5571 Y26.5286
G01 X29.5219 Y26.4815
G01 X29.4929 Y26.4331
G01 X29.4698 Y26.3843
G01 X29.4491 Y26.3265
G01 X29.4360 Y26.2742
G01 X29.4281 Y26.2208
G01 X29.4251 Y26.1595
G01 X29.4278 Y26.1056
G01 X29.4360 Y26.0498
G01 X29.4498 Y25.9951
G01 X29.4679 Y25.9442
G01 X29.4941 Y25.8888
G01 X29.5219 Y25.8425
G01 X29.5555 Y25.7972
G01 X29.5934 Y25.7554
G01 X29.6334 Y25.7191
G01 X29.6805 Y25.6839
G01 X29.7289 Y25.6549
G01 X29.7777 Y25.6318
G01 X29.8331 Y25.6118
G01 X29.8878 Y25.5980
G01 X29.9412 Y25.5901
G01 X30.0000 Y25.5870
G00 Z2.0000
G00 X22.4915 Y17.8731
G01 F60.00
G01 Z-0.0499
G01 F30.00
G01 X22.5919 Y17.8781
G01 X22.6938 Y17.8932
G01 X22.7938 Y17.9182
G01 X22.8908 Y17.9529
G01 X22.9840 Y17.9970
G01 X23.0723 Y18.0500
G01 X23.1551 Y18.1113
G01 X23.2315 Y18.1805
G01 X23.3007 Y18.2569
G01 X23.3620 Y18.3397
G01 X23.4150 Y18.4280
G01 X23.4591 Y18.5212
G01 X23.4938 Y18.6182
G01 X23.5188 Y18.7182
G01 X23.5339 Y18.8201
G01 X23.5390 Y18.9230
G01 X23.5339 Y19.0259
G01 X23.5188 Y19.1278
G01 X23.4938 Y19.2278
G01 X23.4591 Y19.3248
G01 X23.4150 Y19.4180
G01 X23.3620 Y19.5063
G01 X23.3007 Y19.5891
G01 X23.2315 Y19.6655
G01 X23.1551 Y19.7347
G01 X23.0723 Y19.7960
G01 X22.9840 Y19.8490
G01 X22.8908 Y19.8931
G01 X22.7938 Y19.9278
G01 X22.6938 Y19.9528
G01 X22.5919 Y19.9679
G01 X22.4890 Y19.9730
G01 X22.3861 Y19.9679
G01 X22.2842 Y19.9528
G01 X22.1842 Y19.9278
G01 X22.0872 Y19.8931
G01 X21.9940 Y19.8490
G01 X21.9057 Y19.7960
G01 X21.8229 Y19.7347
G01 X21.7465 Y19.6655
G01 X21.6773 Y19.5891
G01 X21.6160 Y19.5063
G01 X21.5630 Y19.4180
G01 X21.5189 Y19.3248
G01 X21.4842 Y19.2278
G01 X21.4592 Y19.1278
G01 X21.4441 Y19.0259
G01 X21.4390 Y18.9230
G01 X21.4441 Y18.8201
G01 X21.4592 Y18.7182
G01 X21.4842 Y18.6182
G01 X21.5189 Y18.5212
G01 X21.5630 Y18.4280
G01 X21.6160 Y18.3397
G01 X21.6773 Y18.2569
G01 X21.7465 Y18.1805
G01 X21.8229 Y18.1113
G01 X21.9057 Y18.0500
G01 X21.9940 Y17.9970
G01 X22.0872 Y17.9529
G01 X22.1842 Y17.9182
G01 X22.2842 Y17.8932
G01 X22.3861 Y17.8781
G01 X22.4915 Y17.8731
G00 Z2.0000
G00 X22.4915 Y15.3331
G01 F60.00
G01 Z-0.0499
G01 F30.00
G01 X22.5919 Y15.3381
G01 X22.6938 Y15.3532
G01 X22.7938 Y15.3782
G01 X22.8908 Y15.4129
G01 X22.9840 Y15.4570
G01 X23.0723 Y15.5100
G01 X23.1551 Y15.5713
G01 X23.2315 Y15.6405
G01 X23.3007 Y15.7169
G01 X23.3620 Y15.7997
G01 X23.4150 Y15.8880
G01 X23.4591 Y15.9812
G01 X23.4938 Y16.0782
G01 X23.5188 Y16.1782
G01 X23.5339 Y16.2801
G01 X23.5390 Y16.3830
G01 X23.5339 Y16.4859
G01 X23.5188 Y16.5878
G01 X23.4938 Y16.6878
G01 X23.4591 Y16.7848
G01 X23.4150 Y16.8780
G01 X23.3620 Y16.9663
G01 X23.3007 Y17.0491
G01 X23.2315 Y17.1255
G01 X23.1551 Y17.1947
G01 X23.0723 Y17.2560
G01 X22.9840 Y17.3090
G01 X22.8908 Y17.3531
G01 X22.7938 Y17.3878
G01 X22.6938 Y17.4128
G01 X22.5919 Y17.4279
G01 X22.4890 Y17.4330
G01 X22.3861 Y17.4279
G01 X22.2842 Y17.4128
G01 X22.1842 Y17.3878
G01 X22.0872 Y17.3531
G01 X21.9940 Y17.3090
G01 X21.9057 Y17.2560
G01 X21.8229 Y17.1947
G01 X21.7465 Y17.1255
G01 X21.6773 Y17.0491
G01 X21.6160 Y16.9663
G01 X21.5630 Y16.8780
G01 X21.5189 Y16.7848
G01 X21.4842 Y16.6878
G01 X21.4592 Y16.5878
G01 X21.4441 Y16.4859
G01 X21.4390 Y16.3830
G01 X21.4441 Y16.2801
G01 X21.4592 Y16.1782
G01 X21.4842 Y16.0782
G01 X21.5189 Y15.9812
G01 X21.5630 Y15.8880
G01 X21.6160 Y15.7997
G01 X21.6773 Y15.7169
G01 X21.7465 Y15.6405
G01 X21.8229 Y15.5713
G01 X21.9057 Y15.5100
G01 X21.9940 Y15.4570
G01 X22.0872 Y15.4129
G01 X22.1842 Y15.3782
G01 X22.2842 Y15.3532
G01 X22.3861 Y15.3381
G01 X22.4915 Y15.3331
G00 Z2.0000
G00 X22.4915 Y12.7931
G01 F60.00
G01 Z-0.0499
G01 F30.00
G01 X22.5919 Y12.7981
G01 X22.6938 Y12.8132
G01 X22.7938 Y12.8382
G01 X22.8908 Y12.8729
G01 X22.9840 Y12.9170
G01 X23.0723 Y12.9700
G01 X23.1551 Y13.0313
G01 X23.2315 Y13.1005
G01 X23.3007 Y13.1769
G01 X23.3620 Y13.2597
G01 X23.4150 Y13.3480
G01 X23.4591 Y13.4412
G01 X23.4938 Y13.5382
G01 X23.5188 Y13.6382
G01 X23.5339 Y13.7401
G01 X23.5390 Y13.8430
G01 X23.5339 Y13.9459
G01 X23.5188 Y14.0478
G01 X23.4938 Y14.1478
G01 X23.4591 Y14.2448
G01 X23.4150 Y14.3380
G01 X23.3620 Y14.4263
G01 X23.3007 Y14.5091
G01 X23.2315 Y14.5855
G01 X23.1551 Y14.6547
G01 X23.0723 Y14.7160
G01 X22.9840 Y14.7690
G01 X22.8908 Y14.8131
G01 X22.7938 Y14.8478
G01 X22.6938 Y14.8728
G01 X22.5919 Y14.8879
G01 X22.4890 Y14.8930
G01 X22.3861 Y14.8879
G01 X22.2842 Y14.8728
G01 X22.1842 Y14.8478
G01 X22.0872 Y14.8131
G01 X21.9940 Y14.7690
G01 X21.9057 Y14.7160
G01 X21.8229 Y14.6547
G01 X21.7465 Y14.5855
G01 X21.6773 Y14.5091
G01 X21.6160 Y14.4263
G01 X21.5630 Y14.3380
G01 X21.5189 Y14.2448
G01 X21.4842 Y14.1478
G01 X21.4592 Y14.0478
G01 X21.4441 Y13.9459
G01 X21.4390 Y13.8430
G01 X21.4441 Y13.7401
G01 X21.4592 Y13.6382
G01 X21.4842 Y13.5382
G01 X21.5189 Y13.4412
G01 X21.5630 Y13.3480
G01 X21.6160 Y13.2597
G01 X21.6773 Y13.1769
G01 X21.7465 Y13.1005
G01 X21.8229 Y13.0313
G01 X21.9057 Y12.9700
G01 X21.9940 Y12.9170
G01 X22.0872 Y12.8729
G01 X22.1842 Y12.8382
G01 X22.2842 Y12.8132
G01 X22.3861 Y12.7981
G01 X22.4915 Y12.7931
G00 Z2.0000
G00 X22.4915 Y10.2531
G01 F60.00
G01 Z-0.0499
G01 F30.00
G01 X22.5919 Y10.2581
G01 X22.6938 Y10.2732
G01 X22.7938 Y10.2982
G01 X22.8908 Y10.3329
G01 X22.9840 Y10.3770
G01 X23.0723 Y10.4300
G01 X23.1551 Y10.4913
G01 X23.2315 Y10.5605
G01 X23.3007 Y10.6369
G01 X23.3620 Y10.7197
G01 X23.4150 Y10.8080
G01 X23.4591 Y10.9012
G01 X23.4938 Y10.9982
G01 X23.5188 Y11.0982
G01 X23.5339 Y11.2001
G01 X23.5390 Y11.3030
G01 X23.5339 Y11.4059
G01 X23.5188 Y11.5078
G01 X23.4938 Y11.6078
G01 X23.4591 Y11.7048
G01 X23.4150 Y11.7980
G01 X23.3620 Y11.8863
G01 X23.3007 Y11.9691
G01 X23.2315 Y12.0455
G01 X23.1551 Y12.1147
G01 X23.0723 Y12.1760
G01 X22.9840 Y12.2290
G01 X22.8908 Y12.2731
G01 X22.7938 Y12.3078
G01 X22.6938 Y12.3328
G01 X22.5919 Y12.3479
G01 X22.4890 Y12.3530
G01 X22.3861 Y12.3479
G01 X22.2842 Y12.3328
G01 X22.1842 Y12.3078
G01 X22.0872 Y12.2731
G01 X21.9940 Y12.2290
G01 X21.9057 Y12.1760
G01 X21.8229 Y12.1147
G01 X21.7465 Y12.0455
G01 X21.6773 Y11.9691
G01 X21.6160 Y11.8863
G01 X21.5630 Y11.7980
G01 X21.5189 Y11.7048
G01 X21.4842 Y11.6078
G01 X21.4592 Y11.5078
G01 X21.4441 Y11.4059
G01 X21.4390 Y11.3030
G01 X21.4441 Y11.2001
G01 X21.4592 Y11.0982
G01 X21.4842 Y10.9982
G01 X21.5189 Y10.9012
G01 X21.5630 Y10.8080
G01 X21.6160 Y10.7197
G01 X21.6773 Y10.6369
G01 X21.7465 Y10.5605
G01 X21.8229 Y10.4913
G01 X21.9057 Y10.4300
G01 X21.9940 Y10.3770
