(G-CODE GENERATED BY FLATCAM v8.994 - www.flatcam.org - Version Date: 2020/11/7)

(Name: WB-F_Cu.gbr_iso_combined_cnc)
(Type: G-code from Geometry)
(Units: MM)

(Created on Thursday, 10 November 2022 at 21:38)

(This preprocessor is the default preprocessor used by FlatCAM.)
(It is made to work with MACH3 compatible motion controllers.)

(TOOL DIAMETER: 0.2176 mm)
(Feedrate_XY: 60.0 mm/min)
(Feedrate_Z: 60.0 mm/min)
(Feedrate rapids 1500.0 mm/min)

(Z_Cut: -0.0499 mm)
(Z_Move: 2.0 mm)
(Z Start: None mm)
(Z End: 15.0 mm)
(X,Y End: None mm)
(Steps per circle: 64)
(Preprocessor Geometry: default)

(X range:    0.6197 ...   86.6866  mm)
(Y range:    0.8737 ...   83.3127  mm)

(Spindle Speed: 0.0 RPM)
G21
G90
G94

G01 F60.00

M5
G00 Z15.0000
G00 X0.0000 Y0.0000
T1
M6    
(MSG, Change to Tool Dia = 0.2176)
M0
G00 Z15.0000

M03
G01 F60.00
G00 X9.7915 Y2.8331
G01 F60.00
G01 Z-0.0499
G01 F60.00
G01 X9.8723 Y2.8371
G01 X9.9548 Y2.8493
G01 X10.0357 Y2.8696
G01 X10.1165 Y2.8987
G01 X10.1897 Y2.9334
G01 X10.2632 Y2.9777
G01 X10.3301 Y3.0275
G01 X10.3900 Y3.0820
G01 X10.4362 Y3.1327
G01 X11.0614 Y3.1327
G01 X13.0592 Y1.1349
G01 X13.0974 Y1.1003
G01 X13.1426 Y1.0665
G01 X13.1868 Y1.0399
G01 X13.2400 Y1.0148
G01 X13.2886 Y0.9974
G01 X13.3410 Y0.9843
G01 X13.3944 Y0.9764
G01 X13.4471 Y0.9738
G01 X72.0637 Y0.9737
G01 X72.1176 Y0.9764
G01 X72.1698 Y0.9841
G01 X72.2258 Y0.9982
G01 X72.2743 Y1.0156
G01 X72.3231 Y1.0387
G01 X72.3714 Y1.0679
G01 X72.4128 Y1.0987
G01 X72.4519 Y1.1341
G01 X75.2276 Y3.9097
G01 X76.7000 Y3.9100
G01 X76.7098 Y3.9110
G01 X76.7180 Y3.9134
G01 X76.7267 Y3.9178
G01 X76.7336 Y3.9230
G01 X76.7402 Y3.9302
G01 X76.7429 Y3.9343
G01 X76.7457 Y3.9397
G01 X76.7488 Y3.9490
G01 X76.7500 Y3.9588
G01 X76.7503 Y4.5568
G01 X84.2091 Y12.0156
G01 X84.2453 Y12.0556
G01 X84.2775 Y12.0990
G01 X84.3041 Y12.1432
G01 X84.3284 Y12.1941
G01 X84.3472 Y12.2473
G01 X84.3597 Y12.2974
G01 X84.3675 Y12.3495
G01 X84.3703 Y12.4047
G01 X84.3703 Y13.0550
G01 X85.3212 Y13.0550
G01 X85.3310 Y13.0562
G01 X85.3368 Y13.0579
G01 X85.3414 Y13.0598
G01 X85.3457 Y13.0621
G01 X85.3508 Y13.0656
G01 X85.3579 Y13.0723
G01 X85.3629 Y13.0793
G01 X85.3666 Y13.0870
G01 X85.3693 Y13.0965
G01 X85.3700 Y13.1050
G01 X85.3700 Y16.1050
G01 X85.3693 Y16.1135
G01 X85.3671 Y16.1218
G01 X85.3629 Y16.1307
G01 X85.3579 Y16.1377
G01 X85.3517 Y16.1437
G01 X85.3446 Y16.1485
G01 X85.3368 Y16.1521
G01 X85.3285 Y16.1543
G01 X85.3200 Y16.1550
G01 X82.3200 Y16.1550
G01 X82.3102 Y16.1540
G01 X82.3055 Y16.1528
G01 X82.2997 Y16.1507
G01 X82.2912 Y16.1459
G01 X82.2838 Y16.1395
G01 X82.2778 Y16.1317
G01 X82.2738 Y16.1241
G01 X82.2710 Y16.1148
G01 X82.2700 Y16.1050
G01 X82.2700 Y13.1050
G01 X82.2705 Y13.0977
G01 X82.2718 Y13.0917
G01 X82.2748 Y13.0836
G01 X82.2784 Y13.0772
G01 X82.2830 Y13.0714
G01 X82.2892 Y13.0656
G01 X82.2954 Y13.0615
G01 X82.3032 Y13.0579
G01 X82.3115 Y13.0557
G01 X82.3188 Y13.0550
G01 X83.2697 Y13.0550
G01 X83.2697 Y12.6326
G01 X75.8109 Y5.1738
G01 X75.7747 Y5.1338
G01 X75.7432 Y5.0914
G01 X75.7147 Y5.0441
G01 X75.6987 Y5.0103
G01 X74.9997 Y5.0103
G01 X74.9445 Y5.0075
G01 X74.8924 Y4.9997
G01 X74.8423 Y4.9872
G01 X74.7891 Y4.9684
G01 X74.7382 Y4.9441
G01 X74.6940 Y4.9175
G01 X74.6526 Y4.8869
G01 X74.6106 Y4.8491
G01 X71.8358 Y2.0743
G01 X13.6762 Y2.0743
G01 X11.6784 Y4.0721
G01 X11.6384 Y4.1083
G01 X11.5940 Y4.1412
G01 X11.5465 Y4.1694
G01 X11.4999 Y4.1914
G01 X11.4514 Y4.2088
G01 X11.3966 Y4.2227
G01 X11.3420 Y4.2307
G01 X11.2893 Y4.2333
G01 X10.4362 Y4.2333
G01 X10.3900 Y4.2840
G01 X10.3301 Y4.3385
G01 X10.2632 Y4.3883
G01 X10.1897 Y4.4326
G01 X10.1165 Y4.4673
G01 X10.0357 Y4.4964
G01 X9.9548 Y4.5167
G01 X9.8723 Y4.5289
G01 X9.7890 Y4.5330
G01 X9.7057 Y4.5289
G01 X9.6232 Y4.5167
G01 X9.5423 Y4.4964
G01 X9.4637 Y4.4683
G01 X9.3883 Y4.4326
G01 X9.3168 Y4.3897
G01 X9.2498 Y4.3401
G01 X9.1880 Y4.2840
G01 X9.1319 Y4.2222
G01 X9.0823 Y4.1552
G01 X9.0394 Y4.0837
G01 X9.0037 Y4.0083
G01 X8.9756 Y3.9297
G01 X8.9553 Y3.8488
G01 X8.9431 Y3.7663
G01 X8.9390 Y3.6830
G01 X8.9431 Y3.5997
G01 X8.9553 Y3.5172
G01 X8.9756 Y3.4363
G01 X9.0037 Y3.3577
G01 X9.0394 Y3.2823
G01 X9.0823 Y3.2108
G01 X9.1319 Y3.1438
G01 X9.1880 Y3.0820
G01 X9.2498 Y3.0259
G01 X9.3168 Y2.9763
G01 X9.3883 Y2.9334
G01 X9.4637 Y2.8977
G01 X9.5423 Y2.8696
G01 X9.6232 Y2.8493
G01 X9.7057 Y2.8371
G01 X9.7915 Y2.8331
G00 Z2.0000
G00 X9.7964 Y5.2732
G01 F60.00
G01 Z-0.0499
G01 F60.00
G01 X9.8821 Y5.2776
G01 X9.9743 Y5.2913
G01 X10.0648 Y5.3139
G01 X10.1525 Y5.3453
G01 X10.2368 Y5.3852
G01 X10.3168 Y5.4331
G01 X10.3917 Y5.4886
G01 X10.4608 Y5.5512
G01 X10.5234 Y5.6203
G01 X10.5789 Y5.6952
G01 X10.6268 Y5.7752
G01 X10.6667 Y5.8595
G01 X10.6981 Y5.9472
G01 X10.7207 Y6.0377
G01 X10.7344 Y6.1299
G01 X10.7390 Y6.2230
G01 X10.7344 Y6.3161
G01 X10.7207 Y6.4083
G01 X10.6981 Y6.4988
G01 X10.6667 Y6.5865
G01 X10.6268 Y6.6708
G01 X10.5789 Y6.7508
G01 X10.5234 Y6.8257
G01 X10.4608 Y6.8948
G01 X10.3917 Y6.9574
G01 X10.3168 Y7.0129
G01 X10.2368 Y7.0608
G01 X10.1525 Y7.1007
G01 X10.0648 Y7.1321
G01 X9.9743 Y7.1547
G01 X9.8821 Y7.1684
G01 X9.7890 Y7.1730
G01 X9.6959 Y7.1684
G01 X9.6037 Y7.1547
G01 X9.5132 Y7.1321
G01 X9.4255 Y7.1007
G01 X9.3412 Y7.0608
G01 X9.2612 Y7.0129
G01 X9.1863 Y6.9574
G01 X9.1172 Y6.8948
G01 X9.0546 Y6.8257
G01 X8.9991 Y6.7508
G01 X8.9512 Y6.6708
G01 X8.9113 Y6.5865
G01 X8.8799 Y6.4988
G01 X8.8573 Y6.4083
G01 X8.8436 Y6.3161
G01 X8.8390 Y6.2230
G01 X8.8436 Y6.1299
G01 X8.8573 Y6.0377
G01 X8.8799 Y5.9472
G01 X8.9113 Y5.8595
G01 X8.9512 Y5.7752
G01 X8.9991 Y5.6952
G01 X9.0546 Y5.6203
G01 X9.1172 Y5.5512
G01 X9.1863 Y5.4886
G01 X9.2612 Y5.4331
G01 X9.3412 Y5.3852
G01 X9.4255 Y5.3453
G01 X9.5132 Y5.3139
G01 X9.6037 Y5.2913
G01 X9.6959 Y5.2776
G01 X9.7816 Y5.2732
G01 X9.7964 Y5.2732
G00 Z2.0000
G00 X9.7915 Y5.3731
G01 F60.00
G01 Z-0.0499
G01 F60.00
G01 X9.8723 Y5.3771
G01 X9.9548 Y5.3893
G01 X10.0357 Y5.4096
G01 X10.1143 Y5.4377
G01 X10.1897 Y5.4734
G01 X10.2612 Y5.5163
G01 X10.3282 Y5.5659
G01 X10.3900 Y5.6220
G01 X10.4461 Y5.6838
G01 X10.4957 Y5.7508
G01 X10.5386 Y5.8223
G01 X10.5743 Y5.8977
G01 X10.6024 Y5.9763
G01 X10.6227 Y6.0572
G01 X10.6349 Y6.1397
G01 X10.6390 Y6.2230
G01 X10.6349 Y6.3063
G01 X10.6227 Y6.3888
G01 X10.6024 Y6.4697
G01 X10.5743 Y6.5483
G01 X10.5386 Y6.6237
G01 X10.4957 Y6.6952
G01 X10.4461 Y6.7622
G01 X10.3900 Y6.8240
G01 X10.3282 Y6.8801
G01 X10.2612 Y6.9297
G01 X10.1897 Y6.9726
G01 X10.1143 Y7.0083
G01 X10.0357 Y7.0364
G01 X9.9548 Y7.0567
G01 X9.8723 Y7.0689
G01 X9.7890 Y7.0730
G01 X9.7057 Y7.0689
G01 X9.6232 Y7.0567
G01 X9.5423 Y7.0364
G01 X9.4637 Y7.0083
G01 X9.3883 Y6.9726
G01 X9.3168 Y6.9297
G01 X9.2498 Y6.8801
G01 X9.1880 Y6.8240
G01 X9.1319 Y6.7622
G01 X9.0823 Y6.6952
G01 X9.0394 Y6.6237
G01 X9.0037 Y6.5483
G01 X8.9756 Y6.4697
G01 X8.9553 Y6.3888
G01 X8.9431 Y6.3063
G01 X8.9390 Y6.2230
G01 X8.9431 Y6.1397
G01 X8.9553 Y6.0572
G01 X8.9756 Y5.9763
G01 X9.0037 Y5.8977
G01 X9.0394 Y5.8223
G01 X9.0823 Y5.7508
G01 X9.1319 Y5.6838
G01 X9.1880 Y5.6220
G01 X9.2498 Y5.5659
G01 X9.3168 Y5.5163
G01 X9.3883 Y5.4734
G01 X9.4637 Y5.4377
G01 X9.5423 Y5.4096
G01 X9.6232 Y5.3893
G01 X9.7057 Y5.3771
G01 X9.7915 Y5.3731
G00 Z2.0000
G00 X16.2939 Y4.8285
G01 F60.00
G01 Z-0.0499
G01 F60.00
G01 X16.2901 Y4.9044
G01 X16.2786 Y4.9821
G01 X16.2596 Y5.0582
G01 X16.2331 Y5.1321
G01 X16.1995 Y5.2031
G01 X16.1592 Y5.2705
G01 X16.1124 Y5.3335
G01 X16.0597 Y5.3917
G01 X16.0015 Y5.4444
G01 X15.9385 Y5.4912
G01 X15.8711 Y5.5315
G01 X15.8001 Y5.5651
G01 X15.7262 Y5.5916
G01 X15.6501 Y5.6106
G01 X15.5724 Y5.6221
G01 X15.4940 Y5.6260
G01 X15.4156 Y5.6221
G01 X15.3379 Y5.6106
G01 X15.2618 Y5.5916
G01 X15.1879 Y5.5651
G01 X15.1169 Y5.5315
G01 X15.0495 Y5.4912
G01 X14.9865 Y5.4444
G01 X14.9283 Y5.3917
G01 X14.8756 Y5.3335
G01 X14.8288 Y5.2705
G01 X14.7885 Y5.2031
G01 X14.7549 Y5.1321
G01 X14.7284 Y5.0582
G01 X14.7094 Y4.9821
G01 X14.6979 Y4.9044
G01 X14.6940 Y4.8260
G01 X14.6979 Y4.7476
G01 X14.7094 Y4.6699
G01 X14.7284 Y4.5938
G01 X14.7549 Y4.5199
G01 X14.7885 Y4.4489
G01 X14.8288 Y4.3815
G01 X14.8756 Y4.3185
G01 X14.9283 Y4.2603
G01 X14.9865 Y4.2076
G01 X15.0495 Y4.1608
G01 X15.1169 Y4.1205
G01 X15.1879 Y4.0869
G01 X15.2618 Y4.0604
G01 X15.3379 Y4.0414
G01 X15.4156 Y4.0299
G01 X15.4940 Y4.0260
G01 X15.5724 Y4.0299
G01 X15.6501 Y4.0414
G01 X15.7262 Y4.0604
G01 X15.8001 Y4.0869
G01 X15.8711 Y4.1205
G01 X15.9385 Y4.1608
G01 X16.0015 Y4.2076
G01 X16.0597 Y4.2603
G01 X16.1124 Y4.3185
G01 X16.1592 Y4.3815
G01 X16.1995 Y4.4489
G01 X16.2331 Y4.5199
G01 X16.2596 Y4.5938
G01 X16.2786 Y4.6699
G01 X16.2901 Y4.7476
G01 X16.2939 Y4.8285
G00 Z2.0000
G00 X16.3938 Y4.8334
G01 F60.00
G01 Z-0.0499
G01 F60.00
G01 X16.3897 Y4.9142
G01 X16.3767 Y5.0016
G01 X16.3552 Y5.0873
G01 X16.3255 Y5.1704
G01 X16.2877 Y5.2503
G01 X16.2423 Y5.3260
G01 X16.1897 Y5.3970
G01 X16.1304 Y5.4624
G01 X16.0650 Y5.5217
G01 X15.9940 Y5.5743
G01 X15.9183 Y5.6197
G01 X15.8384 Y5.6575
G01 X15.7553 Y5.6872
G01 X15.6696 Y5.7087
G01 X15.5822 Y5.7217
G01 X15.4940 Y5.7260
G01 X15.4058 Y5.7217
G01 X15.3184 Y5.7087
G01 X15.2327 Y5.6872
G01 X15.1496 Y5.6575
G01 X15.0697 Y5.6197
G01 X14.9940 Y5.5743
G01 X14.9230 Y5.5217
G01 X14.8576 Y5.4624
G01 X14.7983 Y5.3970
G01 X14.7457 Y5.3260
G01 X14.7003 Y5.2503
G01 X14.6625 Y5.1704
G01 X14.6328 Y5.0873
G01 X14.6113 Y5.0016
G01 X14.5983 Y4.9142
G01 X14.5940 Y4.8260
G01 X14.5983 Y4.7378
G01 X14.6113 Y4.6504
G01 X14.6328 Y4.5647
G01 X14.6625 Y4.4816
G01 X14.7003 Y4.4017
G01 X14.7457 Y4.3260
G01 X14.7983 Y4.2550
G01 X14.8576 Y4.1896
G01 X14.9230 Y4.1303
G01 X14.9940 Y4.0777
G01 X15.0697 Y4.0323
G01 X15.1496 Y3.9945
G01 X15.2327 Y3.9648
G01 X15.3184 Y3.9433
G01 X15.4058 Y3.9303
G01 X15.4940 Y3.9260
G01 X15.5822 Y3.9303
G01 X15.6696 Y3.9433
G01 X15.7553 Y3.9648
G01 X15.8384 Y3.9945
G01 X15.9183 Y4.0323
G01 X15.9940 Y4.0777
G01 X16.0650 Y4.1303
G01 X16.1304 Y4.1896
G01 X16.1897 Y4.2550
G01 X16.2423 Y4.3260
G01 X16.2877 Y4.4017
G01 X16.3255 Y4.4816
G01 X16.3552 Y4.5647
G01 X16.3767 Y4.6504
G01 X16.3897 Y4.7378
G01 X16.3938 Y4.8186
G01 X16.3938 Y4.8334
G00 Z2.0000
G00 X22.4964 Y5.2732
G01 F60.00
G01 Z-0.0499
G01 F60.00
G01 X22.5821 Y5.2776
G01 X22.6743 Y5.2913
G01 X22.7648 Y5.3139
G01 X22.8525 Y5.3453
G01 X22.9368 Y5.3852
G01 X23.0168 Y5.4331
G01 X23.0917 Y5.4886
G01 X23.1608 Y5.5512
G01 X23.2234 Y5.6203
G01 X23.2789 Y5.6952
G01 X23.3268 Y5.7752
G01 X23.3667 Y5.8595
G01 X23.3981 Y5.9472
G01 X23.4207 Y6.0377
G01 X23.4344 Y6.1299
G01 X23.4390 Y6.2230
G01 X23.4344 Y6.3161
G01 X23.4207 Y6.4083
G01 X23.3981 Y6.4988
G01 X23.3667 Y6.5865
G01 X23.3268 Y6.6708
G01 X23.2789 Y6.7508
G01 X23.2234 Y6.8257
G01 X23.1608 Y6.8948
G01 X23.0917 Y6.9574
G01 X23.0168 Y7.0129
G01 X22.9368 Y7.0608
G01 X22.8525 Y7.1007
G01 X22.7648 Y7.1321
G01 X22.6743 Y7.1547
G01 X22.5821 Y7.1684
G01 X22.4890 Y7.1730
G01 X22.3959 Y7.1684
G01 X22.3037 Y7.1547
G01 X22.2132 Y7.1321
G01 X22.1255 Y7.1007
G01 X22.0412 Y7.0608
G01 X21.9612 Y7.0129
G01 X21.8863 Y6.9574
G01 X21.8172 Y6.8948
G01 X21.7546 Y6.8257
G01 X21.6991 Y6.7508
G01 X21.6512 Y6.6708
G01 X21.6113 Y6.5865
G01 X21.5799 Y6.4988
G01 X21.5573 Y6.4083
G01 X21.5436 Y6.3161
G01 X21.5390 Y6.2230
G01 X21.5436 Y6.1299
G01 X21.5573 Y6.0377
G01 X21.5799 Y5.9472
G01 X21.6113 Y5.8595
G01 X21.6512 Y5.7752
G01 X21.6991 Y5.6952
G01 X21.7546 Y5.6203
G01 X21.8172 Y5.5512
G01 X21.8863 Y5.4886
G01 X21.9612 Y5.4331
G01 X22.0412 Y5.3852
G01 X22.1255 Y5.3453
G01 X22.2132 Y5.3139
G01 X22.3037 Y5.2913
G01 X22.3959 Y5.2776
G01 X22.4816 Y5.2732
G01 X22.4964 Y5.2732
G00 Z2.0000
G00 X22.4915 Y5.3731
G01 F60.00
G01 Z-0.0499
G01 F60.00
G01 X22.5723 Y5.3771
G01 X22.6548 Y5.3893
G01 X22.7357 Y5.4096
G01 X22.8143 Y5.4377
G01 X22.8897 Y5.4734
G01 X22.9612 Y5.5163
G01 X23.0282 Y5.5659
G01 X23.0900 Y5.6220
G01 X23.1461 Y5.6838
G01 X23.1957 Y5.7508
G01 X23.2386 Y5.8223
G01 X23.2743 Y5.8977
G01 X23.3024 Y5.9763
G01 X23.3227 Y6.0572
G01 X23.3349 Y6.1397
G01 X23.3390 Y6.2230
G01 X23.3349 Y6.3063
G01 X23.3227 Y6.3888
G01 X23.3024 Y6.4697
G01 X23.2743 Y6.5483
G01 X23.2386 Y6.6237
G01 X23.1957 Y6.6952
G01 X23.1461 Y6.7622
G01 X23.0900 Y6.8240
G01 X23.0282 Y6.8801
G01 X22.9612 Y6.9297
G01 X22.8897 Y6.9726
G01 X22.8143 Y7.0083
G01 X22.7357 Y7.0364
G01 X22.6548 Y7.0567
G01 X22.5723 Y7.0689
G01 X22.4890 Y7.0730
G01 X22.4057 Y7.0689
G01 X22.3232 Y7.0567
G01 X22.2423 Y7.0364
G01 X22.1637 Y7.0083
G01 X22.0883 Y6.9726
G01 X22.0168 Y6.9297
G01 X21.9498 Y6.8801
G01 X21.8880 Y6.8240
G01 X21.8319 Y6.7622
G01 X21.7823 Y6.6952
G01 X21.7394 Y6.6237
G01 X21.7037 Y6.5483
G01 X21.6756 Y6.4697
G01 X21.6553 Y6.3888
G01 X21.6431 Y6.3063
G01 X21.6390 Y6.2230
G01 X21.6431 Y6.1397
G01 X21.6553 Y6.0572
G01 X21.6756 Y5.9763
G01 X21.7037 Y5.8977
G01 X21.7394 Y5.8223
G01 X21.7823 Y5.7508
G01 X21.8319 Y5.6838
G01 X21.8880 Y5.6220
G01 X21.9498 Y5.5659
G01 X22.0168 Y5.5163
G01 X22.0883 Y5.4734
G01 X22.1637 Y5.4377
G01 X22.2423 Y5.4096
G01 X22.3232 Y5.3893
G01 X22.4057 Y5.3771
G01 X22.4915 Y5.3731
G00 Z2.0000
G00 X22.4964 Y7.8132
G01 F60.00
G01 Z-0.0499
G01 F60.00
G01 X22.5821 Y7.8176
G01 X22.6743 Y7.8313
G01 X22.7648 Y7.8539
G01 X22.8525 Y7.8853
G01 X22.9368 Y7.9252
G01 X23.0168 Y7.9731
G01 X23.0917 Y8.0286
G01 X23.1608 Y8.0912
G01 X23.2234 Y8.1603
G01 X23.2789 Y8.2352
G01 X23.3268 Y8.3152
G01 X23.3667 Y8.3995
G01 X23.3981 Y8.4872
G01 X23.4207 Y8.5777
G01 X23.4344 Y8.6699
G01 X23.4390 Y8.7630
G01 X23.4344 Y8.8561
G01 X23.4207 Y8.9483
G01 X23.3981 Y9.0388
G01 X23.3667 Y9.1265
G01 X23.3268 Y9.2108
G01 X23.2789 Y9.2908
G01 X23.2234 Y9.3657
G01 X23.1608 Y9.4348
G01 X23.0917 Y9.4974
G01 X23.0168 Y9.5529
G01 X22.9368 Y9.6008
G01 X22.8525 Y9.6407
G01 X22.7648 Y9.6721
G01 X22.6743 Y9.6947
G01 X22.5821 Y9.7084
G01 X22.4890 Y9.7130
G01 X22.3959 Y9.7084
G01 X22.3037 Y9.6947
G01 X22.2132 Y9.6721
G01 X22.1255 Y9.6407
G01 X22.0412 Y9.6008
G01 X21.9612 Y9.5529
G01 X21.8863 Y9.4974
G01 X21.8172 Y9.4348
G01 X21.7546 Y9.3657
G01 X21.6991 Y9.2908
G01 X21.6512 Y9.2108
G01 X21.6113 Y9.1265
G01 X21.5799 Y9.0388
G01 X21.5573 Y8.9483
G01 X21.5436 Y8.8561
G01 X21.5390 Y8.7630
G01 X21.5436 Y8.6699
G01 X21.5573 Y8.5777
G01 X21.5799 Y8.4872
G01 X21.6113 Y8.3995
G01 X21.6512 Y8.3152
G01 X21.6991 Y8.2352
G01 X21.7546 Y8.1603
G01 X21.8172 Y8.0912
G01 X21.8863 Y8.0286
G01 X21.9612 Y7.9731
G01 X22.0412 Y7.9252
G01 X22.1255 Y7.8853
G01 X22.2132 Y7.8539
G01 X22.3037 Y7.8313
G01 X22.3959 Y7.8176
G01 X22.4816 Y7.8132
G01 X22.4964 Y7.8132
G00 Z2.0000
G00 X22.4915 Y7.9131
G01 F60.00
G01 Z-0.0499
G01 F60.00
G01 X22.5723 Y7.9171
G01 X22.6548 Y7.9293
G01 X22.7357 Y7.9496
G01 X22.8143 Y7.9777
G01 X22.8897 Y8.0134
G01 X22.9612 Y8.0563
G01 X23.0282 Y8.1059
G01 X23.0900 Y8.1620
G01 X23.1461 Y8.2238
G01 X23.1957 Y8.2908
G01 X23.2386 Y8.3623
G01 X23.2743 Y8.4377
G01 X23.3024 Y8.5163
G01 X23.3227 Y8.5972
G01 X23.3349 Y8.6797
G01 X23.3390 Y8.7630
G01 X23.3349 Y8.8463
G01 X23.3227 Y8.9288
G01 X23.3024 Y9.0097
G01 X23.2743 Y9.0883
G01 X23.2386 Y9.1637
G01 X23.1957 Y9.2352
G01 X23.1461 Y9.3022
G01 X23.0900 Y9.3640
G01 X23.0282 Y9.4201
G01 X22.9612 Y9.4697
G01 X22.8897 Y9.5126
G01 X22.8143 Y9.5483
G01 X22.7357 Y9.5764
G01 X22.6548 Y9.5967
G01 X22.5723 Y9.6089
G01 X22.4890 Y9.6130
G01 X22.4057 Y9.6089
G01 X22.3232 Y9.5967
G01 X22.2423 Y9.5764
G01 X22.1637 Y9.5483
G01 X22.0883 Y9.5126
G01 X22.0168 Y9.4697
G01 X21.9498 Y9.4201
G01 X21.8880 Y9.3640
G01 X21.8319 Y9.3022
G01 X21.7823 Y9.2352
G01 X21.7394 Y9.1637
G01 X21.7037 Y9.0883
G01 X21.6756 Y9.0097
G01 X21.6553 Y8.9288
G01 X21.6431 Y8.8463
G01 X21.6390 Y8.7630
G01 X21.6431 Y8.6797
G01 X21.6553 Y8.5972
G01 X21.6756 Y8.5163
G01 X21.7037 Y8.4377
G01 X21.7394 Y8.3623
G01 X21.7823 Y8.2908
G01 X21.8319 Y8.2238
G01 X21.8880 Y8.1620
G01 X21.9498 Y8.1059
G01 X22.0168 Y8.0563
G01 X22.0883 Y8.0134
G01 X22.1637 Y7.9777
G01 X22.2423 Y7.9496
G01 X22.3232 Y7.9293
G01 X22.4057 Y7.9171
G01 X22.4915 Y7.9131
G00 Z2.0000
G00 X22.4964 Y10.3532
G01 F60.00
G01 Z-0.0499
G01 F60.00
G01 X22.5821 Y10.3576
G01 X22.6743 Y10.3713
G01 X22.7648 Y10.3939
G01 X22.8525 Y10.4253
G01 X22.9368 Y10.4652
G01 X23.0168 Y10.5131
G01 X23.0917 Y10.5686
G01 X23.1608 Y10.6312
G01 X23.2234 Y10.7003
G01 X23.2789 Y10.7752
G01 X23.3268 Y10.8552
G01 X23.3667 Y10.9395
G01 X23.3981 Y11.0272
G01 X23.4207 Y11.1177
G01 X23.4344 Y11.2099
G01 X23.4390 Y11.3030
G01 X23.4344 Y11.3961
G01 X23.4207 Y11.4883
G01 X23.3981 Y11.5788
G01 X23.3667 Y11.6665
G01 X23.3268 Y11.7508
G01 X23.2789 Y11.8308
G01 X23.2234 Y11.9057
G01 X23.1608 Y11.9748
G01 X23.0917 Y12.0374
G01 X23.0168 Y12.0929
G01 X22.9368 Y12.1408
G01 X22.8525 Y12.1807
G01 X22.7648 Y12.2121
G01 X22.6743 Y12.2347
G01 X22.5821 Y12.2484
G01 X22.4890 Y12.2530
G01 X22.3959 Y12.2484
G01 X22.3037 Y12.2347
G01 X22.2132 Y12.2121
G01 X22.1255 Y12.1807
G01 X22.0412 Y12.1408
G01 X21.9612 Y12.0929
G01 X21.8863 Y12.0374
G01 X21.8172 Y11.9748
G01 X21.7546 Y11.9057
G01 X21.6991 Y11.8308
G01 X21.6512 Y11.7508
G01 X21.6113 Y11.6665
G01 X21.5799 Y11.5788
G01 X21.5573 Y11.4883
G01 X21.5436 Y11.3961
G01 X21.5390 Y11.3030
G01 X21.5436 Y11.2099
G01 X21.5573 Y11.1177
G01 X21.5799 Y11.0272
G01 X21.6113 Y10.9395
G01 X21.6512 Y10.8552
G01 X21.6991 Y10.7752
G01 X21.7546 Y10.7003
G01 X21.8172 Y10.6312
G01 X21.8863 Y10.5686
G01 X21.9612 Y10.5131
G01 X22.0412 Y10.4652
G01 X22.1255 Y10.4253
G01 X22.2132 Y10.3939
G01 X22.3037 Y10.3713
G01 X22.3959 Y10.3576
G01 X22.4816 Y10.3532
G01 X22.4964 Y10.3532
G00 Z2.0000
G00 X22.4915 Y10.4531
G01 F60.00
G01 Z-0.0499
G01 F60.00
G01 X22.5723 Y10.4571
G01 X22.6548 Y10.4693
G01 X22.7357 Y10.4896
G01 X22.8143 Y10.5177
G01 X22.8897 Y10.5534
G01 X22.9612 Y10.5963
G01 X23.0282 Y10.6459
G01 X23.0900 Y10.7020
G01 X23.1461 Y10.7638
G01 X23.1957 Y10.8308
G01 X23.2386 Y10.9023
G01 X23.2743 Y10.9777
G01 X23.3024 Y11.0563
G01 X23.3227 Y11.1372
G01 X23.3349 Y11.2197
G01 X23.3390 Y11.3030
G01 X23.3349 Y11.3863
G01 X23.3227 Y11.4688
G01 X23.3024 Y11.5497
G01 X23.2743 Y11.6283
G01 X23.2386 Y11.7037
G01 X23.1957 Y11.7752
G01 X23.1461 Y11.8422
G01 X23.0900 Y11.9040
G01 X23.0282 Y11.9601
G01 X22.9612 Y12.0097
G01 X22.8897 Y12.0526
G01 X22.8143 Y12.0883
G01 X22.7357 Y12.1164
G01 X22.6548 Y12.1367
G01 X22.5723 Y12.1489
G01 X22.4890 Y12.1530
G01 X22.4057 Y12.1489
G01 X22.3232 Y12.1367
G01 X22.2423 Y12.1164
G01 X22.1637 Y12.0883
G01 X22.0883 Y12.0526
G01 X22.0168 Y12.0097
G01 X21.9498 Y11.9601
G01 X21.8880 Y11.9040
G01 X21.8319 Y11.8422
G01 X21.7823 Y11.7752
G01 X21.7394 Y11.7037
G01 X21.7037 Y11.6283
G01 X21.6756 Y11.5497
G01 X21.6553 Y11.4688
G01 X21.6431 Y11.3863
G01 X21.6390 Y11.3030
G01 X21.6431 Y11.2197
G01 X21.6553 Y11.1372
G01 X21.6756 Y11.0563
G01 X21.7037 Y10.9777
G01 X21.7394 Y10.9023
G01 X21.7823 Y10.8308
G01 X21.8319 Y10.7638
G01 X21.8880 Y10.7020
G01 X21.9498 Y10.6459
G01 X22.0168 Y10.5963
G01 X22.0883 Y10.5534
G01 X22.1637 Y10.5177
G01 X22.2423 Y10.4896
G01 X22.3232 Y10.4693
G01 X22.4057 Y10.4571
G01 X22.4915 Y10.4531
G00 Z2.0000
G00 X22.4964 Y12.8932
G01 F60.00
G01 Z-0.0499
G01 F60.00
G01 X22.5821 Y12.8976
G01 X22.6743 Y12.9113
G01 X22.7648 Y12.9339
G01 X22.8525 Y12.9653
G01 X22.9368 Y13.0052
G01 X23.0168 Y13.0531
G01 X23.0917 Y13.1086
G01 X23.1608 Y13.1712
G01 X23.2234 Y13.2403
G01 X23.2789 Y13.3152
G01 X23.3268 Y13.3952
G01 X23.3667 Y13.4795
G01 X23.3981 Y13.5672
G01 X23.4207 Y13.6577
G01 X23.4344 Y13.7499
G01 X23.4390 Y13.8430
G01 X23.4344 Y13.9361
G01 X23.4207 Y14.0283
G01 X23.3981 Y14.1188
G01 X23.3667 Y14.2065
G01 X23.3268 Y14.2908
G01 X23.2789 Y14.3708
G01 X23.2234 Y14.4457
G01 X23.1608 Y14.5148
G01 X23.0917 Y14.5774
G01 X23.0168 Y14.6329
G01 X22.9368 Y14.6808
G01 X22.8525 Y14.7207
G01 X22.7648 Y14.7521
G01 X22.6743 Y14.7747
G01 X22.5821 Y14.7884
G01 X22.4890 Y14.7930
G01 X22.3959 Y14.7884
G01 X22.3037 Y14.7747
G01 X22.2132 Y14.7521
G01 X22.1255 Y14.7207
G01 X22.0412 Y14.6808
G01 X21.9612 Y14.6329
G01 X21.8863 Y14.5774
G01 X21.8172 Y14.5148
G01 X21.7546 Y14.4457
G01 X21.6991 Y14.3708
G01 X21.6512 Y14.2908
G01 X21.6113 Y14.2065
G01 X21.5799 Y14.1188
G01 X21.5573 Y14.0283
G01 X21.5436 Y13.9361
G01 X21.5390 Y13.8430
G01 X21.5436 Y13.7499
G01 X21.5573 Y13.6577
G01 X21.5799 Y13.5672
G01 X21.6113 Y13.4795
G01 X21.6512 Y13.3952
G01 X21.6991 Y13.3152
G01 X21.7546 Y13.2403
G01 X21.8172 Y13.1712
G01 X21.8863 Y13.1086
G01 X21.9612 Y13.0531
G01 X22.0412 Y13.0052
G01 X22.1255 Y12.9653
G01 X22.2132 Y12.9339
G01 X22.3037 Y12.9113
G01 X22.3959 Y12.8976
G01 X22.4816 Y12.8932
G01 X22.4964 Y12.8932
G00 Z2.0000
G00 X22.4915 Y12.9931
G01 F60.00
G01 Z-0.0499
G01 F60.00
G01 X22.5723 Y12.9971
G01 X22.6548 Y13.0093
G01 X22.7357 Y13.0296
G01 X22.8143 Y13.0577
G01 X22.8897 Y13.0934
G01 X22.9612 Y13.1363
G01 X23.0282 Y13.1859
G01 X23.0900 Y13.2420
G01 X23.1461 Y13.3038
G01 X23.1957 Y13.3708
G01 X23.2386 Y13.4423
G01 X23.2743 Y13.5177
G01 X23.3024 Y13.5963
G01 X23.3227 Y13.6772
G01 X23.3349 Y13.7597
G01 X23.3390 Y13.8430
G01 X23.3349 Y13.9263
G01 X23.3227 Y14.0088
G01 X23.3024 Y14.0897
G01 X23.2743 Y14.1683
G01 X23.2386 Y14.2437
G01 X23.1957 Y14.3152
G01 X23.1461 Y14.3822
G01 X23.0900 Y14.4440
G01 X23.0282 Y14.5001
G01 X22.9612 Y14.5497
G01 X22.8897 Y14.5926
G01 X22.8143 Y14.6283
G01 X22.7357 Y14.6564
G01 X22.6548 Y14.6767
G01 X22.5723 Y14.6889
G01 X22.4890 Y14.6930
G01 X22.4057 Y14.6889
G01 X22.3232 Y14.6767
G01 X22.2423 Y14.6564
G01 X22.1637 Y14.6283
G01 X22.0883 Y14.5926
G01 X22.0168 Y14.5497
G01 X21.9498 Y14.5001
G01 X21.8880 Y14.4440
G01 X21.8319 Y14.3822
G01 X21.7823 Y14.3152
G01 X21.7394 Y14.2437
G01 X21.7037 Y14.1683
G01 X21.6756 Y14.0897
G01 X21.6553 Y14.0088
G01 X21.6431 Y13.9263
G01 X21.6390 Y13.8430
G01 X21.6431 Y13.7597
G01 X21.6553 Y13.6772
G01 X21.6756 Y13.5963
G01 X21.7037 Y13.5177
G01 X21.7394 Y13.4423
G01 X21.7823 Y13.3708
G01 X21.8319 Y13.3038
G01 X21.8880 Y13.2420
G01 X21.9498 Y13.1859
G01 X22.0168 Y13.1363
G01 X22.0883 Y13.0934
G01 X22.1637 Y13.0577
G01 X22.2423 Y13.0296
G01 X22.3232 Y13.0093
G01 X22.4057 Y12.9971
G01 X22.4915 Y12.9931
G00 Z2.0000
G00 X22.4964 Y15.4332
G01 F60.00
G01 Z-0.0499
G01 F60.00
G01 X22.5821 Y15.4376
G01 X22.6743 Y15.4513
G01 X22.7648 Y15.4739
G01 X22.8525 Y15.5053
G01 X22.9368 Y15.5452
G01 X23.0168 Y15.5931
G01 X23.0917 Y15.6486
G01 X23.1608 Y15.7112
G01 X23.2234 Y15.7803
G01 X23.2789 Y15.8552
G01 X23.3268 Y15.9352
G01 X23.3667 Y16.0195
G01 X23.3981 Y16.1072
G01 X23.4207 Y16.1977
G01 X23.4344 Y16.2899
G01 X23.4390 Y16.3830
G01 X23.4344 Y16.4761
G01 X23.4207 Y16.5683
G01 X23.3981 Y16.6588
G01 X23.3667 Y16.7465
G01 X23.3268 Y16.8308
G01 X23.2789 Y16.9108
G01 X23.2234 Y16.9857
G01 X23.1608 Y17.0548
G01 X23.0917 Y17.1174
G01 X23.0168 Y17.1729
G01 X22.9368 Y17.2208
G01 X22.8525 Y17.2607
G01 X22.7648 Y17.2921
G01 X22.6743 Y17.3147
G01 X22.5821 Y17.3284
G01 X22.4890 Y17.3330
G01 X22.3959 Y17.3284
G01 X22.3037 Y17.3147
G01 X22.2132 Y17.2921
G01 X22.1255 Y17.2607
G01 X22.0412 Y17.2208
G01 X21.9612 Y17.1729
G01 X21.8863 Y17.1174
G01 X21.8172 Y17.0548
G01 X21.7546 Y16.9857
G01 X21.6991 Y16.9108
G01 X21.6512 Y16.8308
G01 X21.6113 Y16.7465
G01 X21.5799 Y16.6588
G01 X21.5573 Y16.5683
G01 X21.5436 Y16.4761
G01 X21.5390 Y16.3830
G01 X21.5436 Y16.2899
G01 X21.5573 Y16.1977
G01 X21.5799 Y16.1072
G01 X21.6113 Y16.0195
G01 X21.6512 Y15.9352
G01 X21.6991 Y15.8552
G01 X21.7546 Y15.7803
G01 X21.8172 Y15.7112
G01 X21.8863 Y15.6486
G01 X21.9612 Y15.5931
G01 X22.0412 Y15.5452
G01 X22.1255 Y15.5053
G01 X22.2132 Y15.4739
G01 X22.3037 Y15.4513
G01 X22.3959 Y15.4376
G01 X22.4816 Y15.4332
G01 X22.4964 Y15.4332
G00 Z2.0000
G00 X22.4915 Y15.5331
G01 F60.00
G01 Z-0.0499
G01 F60.00
G01 X22.5723 Y15.5371
G01 X22.6548 Y15.5493
G01 X22.7357 Y15.5696
G01 X22.8143 Y15.5977
G01 X22.8897 Y15.6334
G01 X22.9612 Y15.6763
G01 X23.0282 Y15.7259
G01 X23.0900 Y15.7820
G01 X23.1461 Y15.8438
G01 X23.1957 Y15.9108
G01 X23.2386 Y15.9823
G01 X23.2743 Y16.0577
G01 X23.3024 Y16.1363
G01 X23.3227 Y16.2172
G01 X23.3349 Y16.2997
G01 X23.3390 Y16.3830
G01 X23.3349 Y16.4663
G01 X23.3227 Y16.5488
G01 X23.3024 Y16.6297
G01 X23.2743 Y16.7083
G01 X23.2386 Y16.7837
G01 X23.1957 Y16.8552
G01 X23.1461 Y16.9222
G01 X23.0900 Y16.9840
G01 X23.0282 Y17.0401
G01 X22.9612 Y17.0897
G01 X22.8897 Y17.1326
G01 X22.8143 Y17.1683
G01 X22.7357 Y17.1964
G01 X22.6548 Y17.2167
G01 X22.5723 Y17.2289
G01 X22.4890 Y17.2330
G01 X22.4057 Y17.2289
G01 X22.3232 Y17.2167
G01 X22.2423 Y17.1964
G01 X22.1637 Y17.1683
G01 X22.0883 Y17.1326
G01 X22.0168 Y17.0897
G01 X21.9498 Y17.0401
G01 X21.8880 Y16.9840
G01 X21.8319 Y16.9222
G01 X21.7823 Y16.8552
G01 X21.7394 Y16.7837
G01 X21.7037 Y16.7083
G01 X21.6756 Y16.6297
G01 X21.6553 Y16.5488
G01 X21.6431 Y16.4663
G01 X21.6390 Y16.3830
G01 X21.6431 Y16.2997
G01 X21.6553 Y16.2172
G01 X21.6756 Y16.1363
G01 X21.7037 Y16.0577
G01 X21.7394 Y15.9823
G01 X21.7823 Y15.9108
G01 X21.8319 Y15.8438
G01 X21.8880 Y15.7820
G01 X21.9498 Y15.7259
G01 X22.0168 Y15.6763
G01 X22.0883 Y15.6334
G01 X22.1637 Y15.5977
G01 X22.2423 Y15.5696
G01 X22.3232 Y15.5493
G01 X22.4057 Y15.5371
G01 X22.4915 Y15.5331
G00 Z2.0000
G00 X22.4964 Y17.9732
G01 F60.00
G01 Z-0.0499
G01 F60.00
G01 X22.5821 Y17.9776
G01 X22.6743 Y17.9913
G01 X22.7648 Y18.0139
G01 X22.8525 Y18.0453
G01 X22.9368 Y18.0852
G01 X23.0168 Y18.1331
G01 X23.0917 Y18.1886
G01 X23.1608 Y18.2512
G01 X23.2234 Y18.3203
G01 X23.2789 Y18.3952
G01 X23.3268 Y18.4752
G01 X23.3667 Y18.5595
G01 X23.3981 Y18.6472
G01 X23.4207 Y18.7377
G01 X23.4344 Y18.8299
G01 X23.4390 Y18.9230
G01 X23.4344 Y19.0161
G01 X23.4207 Y19.1083
G01 X23.3981 Y19.1988
G01 X23.3667 Y19.2865
G01 X23.3268 Y19.3708
G01 X23.2789 Y19.4508
G01 X23.2234 Y19.5257
G01 X23.1608 Y19.5948
G01 X23.0917 Y19.6574
G01 X23.0168 Y19.7129
G01 X22.9368 Y19.7608
G01 X22.8525 Y19.8007
G01 X22.7648 Y19.8321
G01 X22.6743 Y19.8547
G01 X22.5821 Y19.8684
G01 X22.4890 Y19.8730
G01 X22.3959 Y19.8684
G01 X22.3037 Y19.8547
G01 X22.2132 Y19.8321
G01 X22.1255 Y19.8007
G01 X22.0412 Y19.7608
G01 X21.9612 Y19.7129
G01 X21.8863 Y19.6574
G01 X21.8172 Y19.5948
G01 X21.7546 Y19.5257
G01 X21.6991 Y19.4508
G01 X21.6512 Y19.3708
G01 X21.6113 Y19.2865
G01 X21.5799 Y19.1988
G01 X21.5573 Y19.1083
G01 X21.5436 Y19.0161
G01 X21.5390 Y18.9230
G01 X21.5436 Y18.8299
G01 X21.5573 Y18.7377
G01 X21.5799 Y18.6472
G01 X21.6113 Y18.5595
G01 X21.6512 Y18.4752
G01 X21.6991 Y18.3952
G01 X21.7546 Y18.3203
G01 X21.8172 Y18.2512
G01 X21.8863 Y18.1886
G01 X21.9612 Y18.1331
G01 X22.0412 Y18.0852
G01 X22.1255 Y18.0453
G01 X22.2132 Y18.0139
G01 X22.3037 Y17.9913
G01 X22.3959 Y17.9776
G01 X22.4816 Y17.9732
G01 X22.4964 Y17.9732
G00 Z2.0000
G00 X22.4915 Y18.0731
G01 F60.00
G01 Z-0.0499
G01 F60.00
G01 X22.5723 Y18.0771
G01 X22.6548 Y18.0893
G01 X22.7357 Y18.1096
G01 X22.8143 Y18.1377
G01 X22.8897 Y18.1734
G01 X22.9612 Y18.2163
G01 X23.0282 Y18.2659
G01 X23.0900 Y18.3220
G01 X23.1461 Y18.3838
G01 X23.1957 Y18.4508
G01 X23.2386 Y18.5223
G01 X23.2743 Y18.5977
G01 X23.3024 Y18.6763
G01 X23.3227 Y18.7572
G01 X23.3349 Y18.8397
G01 X23.3390 Y18.9230
G01 X23.3349 Y19.0063
G01 X23.3227 Y19.0888
G01 X23.3024 Y19.1697
G01 X23.2743 Y19.2483
G01 X23.2386 Y19.3237
G01 X23.1957 Y19.3952
G01 X23.1461 Y19.4622
G01 X23.0900 Y19.5240
G01 X23.0282 Y19.5801
G01 X22.9612 Y19.6297
G01 X22.8897 Y19.6726
G01 X22.8143 Y19.7083
G01 X22.7357 Y19.7364
G01 X22.6548 Y19.7567
G01 X22.5723 Y19.7689
G01 X22.4890 Y19.7730
G01 X22.4057 Y19.7689
G01 X22.3232 Y19.7567
G01 X22.2423 Y19.7364
G01 X22.1637 Y19.7083
G01 X22.0883 Y19.6726
G01 X22.0168 Y19.6297
G01 X21.9498 Y19.5801
G01 X21.8880 Y19.5240
G01 X21.8319 Y19.4622
G01 X21.7823 Y19.3952
G01 X21.7394 Y19.3237
G01 X21.7037 Y19.2483
G01 X21.6756 Y19.1697
G01 X21.6553 Y19.0888
G01 X21.6431 Y19.0063
G01 X21.6390 Y18.9230
G01 X21.6431 Y18.8397
G01 X21.6553 Y18.7572
G01 X21.6756 Y18.6763
G01 X21.7037 Y18.5977
G01 X21.7394 Y18.5223
G01 X21.7823 Y18.4508
G01 X21.8319 Y18.3838
G01 X21.8880 Y18.3220
G01 X21.9498 Y18.2659
G01 X22.0168 Y18.2163
G01 X22.0883 Y18.1734
G01 X22.1637 Y18.1377
G01 X22.2423 Y18.1096
G01 X22.3232 Y18.0893
G01 X22.4057 Y18.0771
G01 X22.4915 Y18.0731
G00 Z2.0000
G00 X22.4915 Y20.6131
G01 F60.00
G01 Z-0.0499
G01 F60.00
G01 X22.5723 Y20.6171
G01 X22.6548 Y20.6293
G01 X22.7357 Y20.6496
G01 X22.8143 Y20.6777
G01 X22.8897 Y20.7134
G01 X22.9612 Y20.7563
G01 X23.0282 Y20.8059
G01 X23.0900 Y20.8620
G01 X23.1461 Y20.9238
G01 X23.1957 Y20.9908
G01 X23.2386 Y21.0623
G01 X23.2743 Y21.1377
G01 X23.3024 Y21.2163
G01 X23.3227 Y21.2972
G01 X23.3349 Y21.3797
G01 X23.3390 Y21.4630
G01 X23.3349 Y21.5463
G01 X23.3227 Y21.6288
G01 X23.3024 Y21.7097
G01 X23.2743 Y21.7883
G01 X23.2386 Y21.8637
G01 X23.1957 Y21.9352
G01 X23.1461 Y22.0022
G01 X23.0900 Y22.0640
G01 X23.0282 Y22.1201
G01 X22.9612 Y22.1697
G01 X22.8897 Y22.2126
G01 X22.8143 Y22.2483
G01 X22.7357 Y22.2764
G01 X22.6548 Y22.2967
G01 X22.5723 Y22.3089
G01 X22.4890 Y22.3130
G01 X22.4057 Y22.3089
G01 X22.3232 Y22.2967
G01 X22.2423 Y22.2764
G01 X22.1637 Y22.2483
G01 X22.0883 Y22.2126
G01 X22.0168 Y22.1697
G01 X21.9498 Y22.1201
G01 X21.8880 Y22.0640
G01 X21.8319 Y22.0022
G01 X21.7823 Y21.9352
G01 X21.7394 Y21.8637
G01 X21.7037 Y21.7883
G01 X21.6756 Y21.7097
G01 X21.6553 Y21.6288
G01 X21.6431 Y21.5463
G01 X21.6390 Y21.4630
G01 X21.6431 Y21.3797
G01 X21.6553 Y21.2972
G01 X21.6756 Y21.2163
G01 X21.7037 Y21.1377
G01 X21.7394 Y21.0623
G01 X21.7823 Y20.9908
G01 X21.8319 Y20.9238
G01 X21.8880 Y20.8620
G01 X21.9498 Y20.8059
G01 X22.0168 Y20.7563
G01 X22.0883 Y20.7134
G01 X22.1637 Y20.6777
G01 X22.2423 Y20.6496
G01 X22.3232 Y20.6293
G01 X22.4057 Y20.6171
G01 X22.4915 Y20.6131
G00 Z2.0000
G00 X18.6798 Y17.0254
G01 F60.00
G01 Z-0.0499
G01 F60.00
G01 X18.6757 Y17.1062
G01 X18.6627 Y17.1936
G01 X18.6412 Y17.2793
G01 X18.6115 Y17.3624
G01 X18.5737 Y17.4423
G01 X18.5283 Y17.5180
G01 X18.4757 Y17.5890
G01 X18.4164 Y17.6544
G01 X18.3510 Y17.7137
G01 X18.2800 Y17.7663
G01 X18.2043 Y17.8117
G01 X18.1244 Y17.8495
G01 X18.0413 Y17.8792
G01 X17.9556 Y17.9007
G01 X17.8682 Y17.9137
G01 X17.7800 Y17.9180
G01 X17.6918 Y17.9137
G01 X17.6044 Y17.9007
G01 X17.5187 Y17.8792
G01 X17.4356 Y17.8495
G01 X17.3557 Y17.8117
G01 X17.2800 Y17.7663
G01 X17.2090 Y17.7137
G01 X17.1436 Y17.6544
G01 X17.0843 Y17.5890
G01 X17.0317 Y17.5180
G01 X16.9863 Y17.4423
G01 X16.9485 Y17.3624
G01 X16.9188 Y17.2793
G01 X16.8973 Y17.1936
G01 X16.8843 Y17.1062
G01 X16.8800 Y17.0180
G01 X16.8843 Y16.9298
G01 X16.8973 Y16.8424
G01 X16.9188 Y16.7567
G01 X16.9485 Y16.6736
G01 X16.9863 Y16.5937
G01 X17.0317 Y16.5180
G01 X17.0843 Y16.4470
G01 X17.1436 Y16.3816
G01 X17.2090 Y16.3223
G01 X17.2800 Y16.2697
G01 X17.3557 Y16.2243
G01 X17.4356 Y16.1865
G01 X17.5187 Y16.1568
G01 X17.6044 Y16.1353
G01 X17.6918 Y16.1223
G01 X17.7800 Y16.1180
G01 X17.8682 Y16.1223
G01 X17.9556 Y16.1353
G01 X18.0413 Y16.1568
G01 X18.1244 Y16.1865
G01 X18.2043 Y16.2243
G01 X18.2800 Y16.2697
G01 X18.3510 Y16.3223
G01 X18.4164 Y16.3816
G01 X18.4757 Y16.4470
G01 X18.5283 Y16.5180
G01 X18.5737 Y16.5937
G01 X18.6115 Y16.6736
G01 X18.6412 Y16.7567
G01 X18.6627 Y16.8424
G01 X18.6757 Y16.9298
G01 X18.6798 Y17.0106
G01 X18.6798 Y17.0254
G00 Z2.0000
G00 X18.5799 Y17.0205
G01 F60.00
G01 Z-0.0499
G01 F60.00
G01 X18.5761 Y17.0964
G01 X18.5646 Y17.1741
G01 X18.5456 Y17.2502
G01 X18.5191 Y17.3241
G01 X18.4855 Y17.3951
G01 X18.4452 Y17.4625
G01 X18.3984 Y17.5255
G01 X18.3457 Y17.5837
G01 X18.2875 Y17.6364
G01 X18.2245 Y17.6832
G01 X18.1571 Y17.7235
G01 X18.0861 Y17.7571
G01 X18.0122 Y17.7836
G01 X17.9361 Y17.8026
G01 X17.8584 Y17.8141
G01 X17.7800 Y17.8180
G01 X17.7016 Y17.8141
G01 X17.6239 Y17.8026
G01 X17.5478 Y17.7836
G01 X17.4739 Y17.7571
G01 X17.4029 Y17.7235
G01 X17.3355 Y17.6832
G01 X17.2725 Y17.6364
G01 X17.2143 Y17.5837
G01 X17.1616 Y17.5255
G01 X17.1148 Y17.4625
G01 X17.0745 Y17.3951
G01 X17.0409 Y17.3241
G01 X17.0144 Y17.2502
G01 X16.9954 Y17.1741
G01 X16.9839 Y17.0964
G01 X16.9800 Y17.0180
G01 X16.9839 Y16.9396
G01 X16.9954 Y16.8619
G01 X17.0144 Y16.7858
G01 X17.0409 Y16.7119
G01 X17.0745 Y16.6409
G01 X17.1148 Y16.5735
G01 X17.1616 Y16.5105
G01 X17.2143 Y16.4523
G01 X17.2725 Y16.3996
G01 X17.3355 Y16.3528
G01 X17.4029 Y16.3125
G01 X17.4739 Y16.2789
G01 X17.5478 Y16.2524
G01 X17.6239 Y16.2334
G01 X17.7016 Y16.2219
G01 X17.7800 Y16.2180
G01 X17.8584 Y16.2219
G01 X17.9361 Y16.2334
G01 X18.0122 Y16.2524
G01 X18.0861 Y16.2789
G01 X18.1571 Y16.3125
G01 X18.2245 Y16.3528
G01 X18.2875 Y16.3996
G01 X18.3457 Y16.4523
G01 X18.3984 Y16.5105
G01 X18.4452 Y16.5735
G01 X18.4855 Y16.6409
G01 X18.5191 Y16.7119
G01 X18.5456 Y16.7858
G01 X18.5646 Y16.8619
G01 X18.5761 Y16.9396
G01 X18.5799 Y17.0205
G00 Z2.0000
G00 X9.7915 Y18.0731
G01 F60.00
G01 Z-0.0499
G01 F60.00
G01 X9.8723 Y18.0771
G01 X9.9548 Y18.0893
G01 X10.0357 Y18.1096
G01 X10.1165 Y18.1387
G01 X10.1897 Y18.1734
G01 X10.2632 Y18.2177
G01 X10.3301 Y18.2675
G01 X10.3900 Y18.3220
G01 X10.4362 Y18.3727
G01 X14.7012 Y18.3728
G01 X14.7564 Y18.3757
G01 X14.8073 Y18.3833
G01 X14.8574 Y18.3958
G01 X14.9106 Y18.4146
G01 X14.9594 Y18.4377
G01 X15.0057 Y18.4655
G01 X15.0471 Y18.4961
G01 X15.0891 Y18.5339
G01 X19.1309 Y22.5757
G01 X19.1687 Y22.6177
G01 X19.1993 Y22.6591
G01 X19.2259 Y22.7033
G01 X19.2502 Y22.7542
G01 X19.2684 Y22.8051
G01 X19.2809 Y22.8551
G01 X19.2895 Y22.9121
G01 X19.2921 Y22.9648
G01 X19.2921 Y24.1921
G01 X21.1081 Y24.1921
G01 X26.6277 Y18.6725
G01 X26.6277 Y17.7922
G01 X26.5770 Y17.7460
G01 X26.5225 Y17.6861
G01 X26.4727 Y17.6192
G01 X26.4284 Y17.5457
G01 X26.3927 Y17.4703
G01 X26.3646 Y17.3917
G01 X26.3439 Y17.3084
G01 X26.3319 Y17.2259
G01 X26.3280 Y17.1450
G01 X26.3313 Y17.0765
G01 X24.5029 Y15.2481
G01 X24.4683 Y15.2099
G01 X24.4345 Y15.1647
G01 X24.4079 Y15.1205
G01 X24.3828 Y15.0673
G01 X24.3654 Y15.0187
G01 X24.3523 Y14.9663
G01 X24.3444 Y14.9129
G01 X24.3418 Y14.8602
G01 X24.3417 Y11.0490
G01 X24.3444 Y10.9951
G01 X24.3519 Y10.9441
G01 X24.3658 Y10.8881
G01 X24.3846 Y10.8362
G01 X24.4067 Y10.7896
G01 X24.4332 Y10.7454
G01 X24.4667 Y10.6999
G01 X24.5021 Y10.6608
G01 X25.9008 Y9.2621
G01 X25.9399 Y9.2267
G01 X25.9833 Y9.1945
G01 X26.0296 Y9.1667
G01 X26.0784 Y9.1436
G01 X26.1293 Y9.1254
G01 X26.1817 Y9.1123
G01 X26.2351 Y9.1044
G01 X26.2878 Y9.1018
G01 X38.3640 Y9.1017
G01 X38.4179 Y9.1044
G01 X38.4689 Y9.1119
G01 X38.5261 Y9.1262
G01 X38.5746 Y9.1436
G01 X38.6212 Y9.1656
G01 X38.6676 Y9.1932
G01 X38.7131 Y9.2267
G01 X38.7522 Y9.2621
G01 X40.6985 Y11.2083
G01 X40.7670 Y11.2050
G01 X40.8479 Y11.2089
G01 X40.9304 Y11.2209
G01 X41.0137 Y11.2416
G01 X41.0923 Y11.2697
G01 X41.1677 Y11.3054
G01 X41.2412 Y11.3497
G01 X41.3081 Y11.3995
G01 X41.3680 Y11.4540
G01 X41.4142 Y11.5047
G01 X42.2810 Y11.5047
G01 X42.3349 Y11.5074
G01 X42.3907 Y11.5159
G01 X42.4407 Y11.5284
G01 X42.4916 Y11.5466
G01 X42.5425 Y11.5709
G01 X42.5867 Y11.5975
G01 X42.6291 Y11.6289
G01 X42.6701 Y11.6659
G01 X47.3025 Y16.2983
G01 X47.3710 Y16.2950
G01 X47.4519 Y16.2989
G01 X47.5344 Y16.3109
G01 X47.6177 Y16.3316
G01 X47.6963 Y16.3597
G01 X47.7717 Y16.3954
G01 X47.8452 Y16.4397
G01 X47.9121 Y16.4895
G01 X47.9720 Y16.5440
G01 X48.0182 Y16.5947
G01 X53.3278 Y16.5947
G01 X53.3740 Y16.5440
G01 X53.4339 Y16.4895
G01 X53.5008 Y16.4397
G01 X53.5743 Y16.3954
G01 X53.6475 Y16.3607
G01 X53.7283 Y16.3316
G01 X53.8092 Y16.3113
G01 X53.8917 Y16.2991
G01 X53.9750 Y16.2950
G01 X54.0583 Y16.2991
G01 X54.1408 Y16.3113
G01 X54.2217 Y16.3316
G01 X54.3025 Y16.3607
G01 X54.3757 Y16.3954
G01 X54.4492 Y16.4397
G01 X54.5161 Y16.4895
G01 X54.5760 Y16.5440
G01 X54.6222 Y16.5947
G01 X59.9318 Y16.5947
G01 X59.9780 Y16.5440
G01 X60.0379 Y16.4895
G01 X60.1048 Y16.4397
G01 X60.1783 Y16.3954
G01 X60.2515 Y16.3607
G01 X60.3323 Y16.3316
G01 X60.4132 Y16.3113
G01 X60.4957 Y16.2991
G01 X60.5790 Y16.2950
G01 X60.6623 Y16.2991
G01 X60.7472 Y16.3119
G01 X60.8281 Y16.3324
G01 X60.9043 Y16.3597
G01 X60.9775 Y16.3943
G01 X61.0512 Y16.4383
G01 X61.1182 Y16.4879
G01 X61.1800 Y16.5440
G01 X61.2361 Y16.6058
G01 X61.2871 Y16.6748
G01 X61.3286 Y16.7443
G01 X61.3633 Y16.8175
G01 X61.3924 Y16.8983
G01 X61.4131 Y16.9816
G01 X61.4249 Y17.0617
G01 X61.4289 Y17.1425
G01 X61.4249 Y17.2283
G01 X61.4127 Y17.3108
G01 X61.3931 Y17.3894
G01 X61.3643 Y17.4703
G01 X61.3274 Y17.5478
G01 X61.2857 Y17.6172
G01 X61.2376 Y17.6823
G01 X61.1800 Y17.7460
G01 X61.1163 Y17.8036
G01 X61.0512 Y17.8517
G01 X60.9818 Y17.8934
G01 X60.9043 Y17.9303
G01 X60.8234 Y17.9591
G01 X60.7448 Y17.9787
G01 X60.6623 Y17.9909
G01 X60.5790 Y17.9950
G01 X60.4932 Y17.9906
G01 X60.4132 Y17.9787
G01 X60.3346 Y17.9591
G01 X60.2537 Y17.9303
G01 X60.1783 Y17.8946
G01 X60.1048 Y17.8503
G01 X60.0379 Y17.8005
G01 X59.9780 Y17.7460
G01 X59.9318 Y17.6953
G01 X54.6222 Y17.6953
G01 X54.5760 Y17.7460
G01 X54.5161 Y17.8005
G01 X54.4492 Y17.8503
G01 X54.3757 Y17.8946
G01 X54.3025 Y17.9293
G01 X54.2217 Y17.9584
G01 X54.1408 Y17.9787
G01 X54.0583 Y17.9909
G01 X53.9750 Y17.9950
G01 X53.8917 Y17.9909
G01 X53.8092 Y17.9787
G01 X53.7283 Y17.9584
G01 X53.6475 Y17.9293
G01 X53.5743 Y17.8946
G01 X53.5008 Y17.8503
G01 X53.4339 Y17.8005
G01 X53.3740 Y17.7460
G01 X53.3278 Y17.6953
G01 X48.0182 Y17.6953
G01 X47.9720 Y17.7460
G01 X47.9121 Y17.8005
G01 X47.8432 Y17.8517
G01 X47.7695 Y17.8957
G01 X47.6963 Y17.9303
G01 X47.6201 Y17.9576
G01 X47.5368 Y17.9787
G01 X47.4519 Y17.9911
G01 X47.3685 Y17.9949
G01 X47.2877 Y17.9909
G01 X47.2076 Y17.9791
G01 X47.1219 Y17.9576
G01 X47.0457 Y17.9303
G01 X46.9703 Y17.8946
G01 X46.8988 Y17.8517
G01 X46.8337 Y17.8036
G01 X46.7691 Y17.7452
G01 X46.7139 Y17.6842
G01 X46.6643 Y17.6172
G01 X46.6214 Y17.5457
G01 X46.5848 Y17.4680
G01 X46.5576 Y17.3917
G01 X46.5369 Y17.3084
G01 X46.5249 Y17.2259
G01 X46.5210 Y17.1450
G01 X46.5243 Y17.0765
G01 X42.0531 Y12.6053
G01 X41.4142 Y12.6053
G01 X41.3680 Y12.6560
G01 X41.3062 Y12.7121
G01 X41.2392 Y12.7617
G01 X41.1677 Y12.8046
G01 X41.0923 Y12.8403
G01 X41.0137 Y12.8684
G01 X40.9328 Y12.8887
G01 X40.8503 Y12.9009
G01 X40.7670 Y12.9050
G01 X40.6861 Y12.9011
G01 X40.5988 Y12.8881
G01 X40.5203 Y12.8684
G01 X40.4417 Y12.8403
G01 X40.3663 Y12.8046
G01 X40.2968 Y12.7631
G01 X40.2259 Y12.7105
G01 X40.1660 Y12.6560
G01 X40.1115 Y12.5961
G01 X40.0603 Y12.5272
G01 X40.0163 Y12.4535
G01 X39.9817 Y12.3803
G01 X39.9544 Y12.3041
G01 X39.9333 Y12.2208
G01 X39.9209 Y12.1359
G01 X39.9170 Y12.0550
G01 X39.9203 Y11.9865
G01 X38.1361 Y10.2023
G01 X26.5169 Y10.2023
G01 X25.4423 Y11.2769
G01 X25.4423 Y14.6311
G01 X27.1095 Y16.2983
G01 X27.1780 Y16.2950
G01 X27.2589 Y16.2989
G01 X27.3414 Y16.3109
G01 X27.4247 Y16.3316
G01 X27.5033 Y16.3597
G01 X27.5787 Y16.3954
G01 X27.6522 Y16.4397
G01 X27.7191 Y16.4895
G01 X27.7790 Y16.5440
G01 X27.8252 Y16.5947
G01 X33.3888 Y16.5947
G01 X33.4350 Y16.5440
G01 X33.4949 Y16.4895
G01 X33.5618 Y16.4397
G01 X33.6353 Y16.3954
G01 X33.7085 Y16.3607
G01 X33.7893 Y16.3316
G01 X33.8702 Y16.3113
G01 X33.9527 Y16.2991
G01 X34.0360 Y16.2950
G01 X34.1193 Y16.2991
G01 X34.2018 Y16.3113
G01 X34.2827 Y16.3316
G01 X34.3613 Y16.3597
G01 X34.4367 Y16.3954
G01 X34.5082 Y16.4383
G01 X34.5752 Y16.4879
G01 X34.6379 Y16.5448
G01 X34.6931 Y16.6058
G01 X34.7427 Y16.6728
G01 X34.7856 Y16.7443
G01 X34.8213 Y16.8197
G01 X34.8494 Y16.8983
G01 X34.8697 Y16.9792
G01 X34.8819 Y17.0617
G01 X34.8860 Y17.1462
G01 X34.8819 Y17.2283
G01 X34.8697 Y17.3108
G01 X34.8494 Y17.3917
G01 X34.8203 Y17.4725
G01 X34.7856 Y17.5457
G01 X34.7413 Y17.6192
G01 X34.6915 Y17.6861
G01 X34.6370 Y17.7460
G01 X34.5863 Y17.7922
G01 X34.5863 Y20.7271
G01 X35.3645 Y21.5053
G01 X35.4330 Y21.5020
G01 X35.5139 Y21.5059
G01 X35.5964 Y21.5179
G01 X35.6797 Y21.5386
G01 X35.7560 Y21.5658
G01 X35.8337 Y21.6024
G01 X35.9052 Y21.6453
G01 X35.9722 Y21.6949
G01 X36.0349 Y21.7518
G01 X36.0916 Y21.8147
G01 X36.1397 Y21.8798
G01 X36.1814 Y21.9492
G01 X36.2183 Y22.0267
G01 X36.2464 Y22.1053
G01 X36.2671 Y22.1886
G01 X36.2789 Y22.2687
G01 X36.2829 Y22.3495
G01 X36.2789 Y22.4353
G01 X36.2667 Y22.5178
G01 X36.2464 Y22.5987
G01 X36.2173 Y22.6795
G01 X36.1814 Y22.7548
G01 X36.1397 Y22.8242
G01 X36.0916 Y22.8893
G01 X36.0340 Y22.9530
G01 X35.9722 Y23.0091
G01 X35.9052 Y23.0587
G01 X35.8315 Y23.1027
G01 X35.7583 Y23.1373
G01 X35.6821 Y23.1646
G01 X35.6012 Y23.1851
G01 X35.5163 Y23.1979
G01 X35.4330 Y23.2020
G01 X35.3497 Y23.1979
G01 X35.2648 Y23.1851
G01 X35.1839 Y23.1646
G01 X35.1077 Y23.1373
G01 X35.0345 Y23.1027
G01 X34.9588 Y23.0573
G01 X34.8938 Y23.0091
G01 X34.8320 Y22.9530
G01 X34.7744 Y22.8893
G01 X34.7263 Y22.8242
G01 X34.6834 Y22.7527
G01 X34.6477 Y22.6773
G01 X34.6204 Y22.6011
G01 X34.5993 Y22.5178
G01 X34.5869 Y22.4329
G01 X34.5830 Y22.3520
G01 X34.5863 Y22.2835
G01 X33.6461 Y21.3432
G01 X33.6091 Y21.3021
G01 X33.5785 Y21.2607
G01 X33.5519 Y21.2165
G01 X33.5276 Y21.1656
G01 X33.5088 Y21.1124
G01 X33.4963 Y21.0623
G01 X33.4887 Y21.0114
G01 X33.4858 Y20.9562
G01 X33.4857 Y17.7922
G01 X33.4350 Y17.7460
G01 X33.3888 Y17.6953
G01 X27.8252 Y17.6953
G01 X27.7790 Y17.7460
G01 X27.7283 Y17.7922
G01 X27.7283 Y18.9004
G01 X27.7257 Y18.9531
G01 X27.7171 Y19.0101
G01 X27.7046 Y19.0601
G01 X27.6864 Y19.1110
G01 X27.6621 Y19.1619
G01 X27.6355 Y19.2061
G01 X27.6033 Y19.2495
G01 X27.5671 Y19.2895
G01 X21.5737 Y25.2828
G01 X21.5355 Y25.3173
G01 X21.4921 Y25.3495
G01 X21.4458 Y25.3773
G01 X21.3992 Y25.3994
G01 X21.3438 Y25.4192
G01 X21.2937 Y25.4317
G01 X21.2391 Y25.4397
G01 X21.1864 Y25.4423
G01 X19.2921 Y25.4423
G01 X19.2921 Y31.4531
G01 X23.1088 Y31.4531
G01 X23.1627 Y31.4558
G01 X23.2161 Y31.4637
G01 X23.2685 Y31.4768
G01 X23.3216 Y31.4960
G01 X23.3682 Y31.5181
G01 X23.4145 Y31.5459
G01 X23.4579 Y31.5781
G01 X23.4979 Y31.6143
G01 X26.6781 Y34.7945
G01 X26.7143 Y34.8345
G01 X26.7465 Y34.8779
G01 X26.7754 Y34.9264
G01 X26.7974 Y34.9730
G01 X26.8156 Y35.0239
G01 X26.8287 Y35.0763
G01 X26.8363 Y35.1272
G01 X26.8393 Y35.1836
G01 X26.8393 Y44.7401
G01 X29.4657 Y47.3665
G01 X29.5044 Y47.3570
G01 X29.6039 Y47.3422
G01 X29.7092 Y47.3370
G01 X29.8134 Y47.3424
G01 X29.9128 Y47.3572
G01 X30.0116 Y47.3819
G01 X30.1098 Y47.4169
G01 X30.2051 Y47.4622
G01 X30.2913 Y47.5140
G01 X30.3722 Y47.5738
G01 X30.4496 Y47.6437
G01 X30.5197 Y47.7209
G01 X30.5824 Y47.8057
G01 X30.6340 Y47.8920
G01 X30.6771 Y47.9829
G01 X30.7120 Y48.0799
G01 X30.7378 Y48.1822
G01 X30.7529 Y48.2841
G01 X30.7580 Y48.3870
G01 X30.7526 Y48.4924
G01 X30.7378 Y48.5918
G01 X30.7134 Y48.6894
G01 X30.6781 Y48.7888
G01 X30.6328 Y48.8841
G01 X30.5810 Y48.9703
G01 X30.5212 Y49.0512
G01 X30.4505 Y49.1295
G01 X30.3722 Y49.2002
G01 X30.2893 Y49.2614
G01 X30.2030 Y49.3130
G01 X30.1121 Y49.3561
G01 X30.0128 Y49.3918
G01 X29.9104 Y49.4172
G01 X29.8109 Y49.4319
G01 X29.7105 Y49.4369
G01 X29.6051 Y49.4319
G01 X29.5008 Y49.4163
G01 X29.4032 Y49.3918
G01 X29.3085 Y49.3580
G01 X29.2130 Y49.3130
G01 X29.1247 Y49.2600
G01 X29.0400 Y49.1971
G01 X28.9655 Y49.1295
G01 X28.8963 Y49.0531
G01 X28.8350 Y48.9703
G01 X28.7832 Y48.8841
G01 X28.7375 Y48.7877
G01 X28.7032 Y48.6918
G01 X28.6787 Y48.5942
G01 X28.6630 Y48.4887
G01 X28.6580 Y48.3870
G01 X28.6630 Y48.2853
G01 X28.6780 Y48.1834
G01 X28.6875 Y48.1447
G01 X25.8999 Y45.3571
G01 X25.8637 Y45.3171
G01 X25.8315 Y45.2737
G01 X25.8037 Y45.2274
G01 X25.7802 Y45.1774
G01 X25.7624 Y45.1277
G01 X25.7493 Y45.0753
G01 X25.7414 Y45.0219
G01 X25.7387 Y44.9680
G01 X25.7387 Y35.4115
G01 X22.8809 Y32.5537
G01 X19.2921 Y32.5537
G01 X19.2921 Y41.3155
G01 X19.2894 Y41.3694
G01 X19.2815 Y41.4228
G01 X19.2684 Y41.4752
G01 X19.2497 Y41.5272
G01 X19.2271 Y41.5749
G01 X19.1993 Y41.6212
G01 X19.1671 Y41.6646
G01 X19.1309 Y41.7046
G01 X11.8396 Y48.9959
G01 X11.8396 Y78.3851
G01 X15.5666 Y82.1121
G01 X58.9574 Y82.1121
G01 X60.4476 Y80.6219
G01 X60.4896 Y80.5841
G01 X60.5310 Y80.5535
G01 X60.5762 Y80.5263
G01 X60.6261 Y80.5026
G01 X60.6770 Y80.4844
G01 X60.7294 Y80.4713
G01 X60.7852 Y80.4632
G01 X60.8367 Y80.4607
G01 X61.6898 Y80.4607
G01 X61.7360 Y80.4100
G01 X61.7959 Y80.3555
G01 X61.8628 Y80.3057
G01 X61.9363 Y80.2614
G01 X62.0095 Y80.2267
G01 X62.0903 Y80.1976
G01 X62.1712 Y80.1773
G01 X62.2537 Y80.1651
G01 X62.3370 Y80.1610
G01 X62.4203 Y80.1651
G01 X62.5004 Y80.1769
G01 X62.5837 Y80.1976
G01 X62.6623 Y80.2257
G01 X62.7355 Y80.2603
G01 X62.8112 Y80.3057
G01 X62.8762 Y80.3539
G01 X62.9363 Y80.4083
G01 X62.9956 Y80.4737
G01 X63.0437 Y80.5388
G01 X63.0866 Y80.6103
G01 X63.1223 Y80.6857
G01 X63.1496 Y80.7619
G01 X63.1711 Y80.8476
G01 X63.1829 Y80.9277
G01 X63.1870 Y81.0110
G01 X63.1829 Y81.0943
G01 X63.1711 Y81.1744
G01 X63.1504 Y81.2577
G01 X63.1223 Y81.3363
G01 X63.0877 Y81.4095
G01 X63.0437 Y81.4832
G01 X62.9925 Y81.5521
G01 X62.9380 Y81.6120
G01 X62.8762 Y81.6681
G01 X62.8092 Y81.7177
G01 X62.7377 Y81.7606
G01 X62.6623 Y81.7963
G01 X62.5837 Y81.8244
G01 X62.5028 Y81.8447
G01 X62.4203 Y81.8569
G01 X62.3370 Y81.8610
G01 X62.2561 Y81.8571
G01 X62.1712 Y81.8447
G01 X62.0903 Y81.8244
G01 X62.0117 Y81.7963
G01 X61.9363 Y81.7606
G01 X61.8648 Y81.7177
G01 X61.7978 Y81.6681
G01 X61.7360 Y81.6120
G01 X61.6898 Y81.5613
G01 X61.0646 Y81.5613
G01 X59.5744 Y83.0515
G01 X59.5353 Y83.0870
G01 X59.4910 Y83.1199
G01 X59.4468 Y83.1465
G01 X59.3936 Y83.1716
G01 X59.3450 Y83.1890
G01 X59.2926 Y83.2021
G01 X59.2392 Y83.2100
G01 X59.1865 Y83.2126
G01 X15.3362 Y83.2126
G01 X15.2848 Y83.2100
G01 X15.2314 Y83.2021
G01 X15.1790 Y83.1890
G01 X15.1281 Y83.1708
G01 X15.0793 Y83.1477
G01 X15.0330 Y83.1199
G01 X14.9896 Y83.0877
G01 X14.9505 Y83.0523
G01 X11.0614 Y79.1633
G01 X10.4362 Y79.1633
G01 X10.3900 Y79.2140
G01 X10.3301 Y79.2685
G01 X10.2632 Y79.3183
G01 X10.1897 Y79.3626
G01 X10.1165 Y79.3973
G01 X10.0357 Y79.4264
G01 X9.9548 Y79.4467
G01 X9.8723 Y79.4589
G01 X9.7890 Y79.4630
G01 X9.7057 Y79.4589
G01 X9.6208 Y79.4461
G01 X9.5399 Y79.4256
G01 X9.4637 Y79.3983
G01 X9.3905 Y79.3637
G01 X9.3168 Y79.3197
G01 X9.2498 Y79.2701
G01 X9.1880 Y79.2140
G01 X9.1319 Y79.1522
G01 X9.0823 Y79.0852
G01 X9.0394 Y79.0137
G01 X9.0037 Y78.9383
G01 X8.9749 Y78.8574
G01 X8.9549 Y78.7764
G01 X8.9431 Y78.6963
G01 X8.9391 Y78.6155
G01 X8.9431 Y78.5297
G01 X8.9549 Y78.4496
G01 X8.9756 Y78.3663
G01 X9.0037 Y78.2877
G01 X9.0394 Y78.2123
G01 X9.0823 Y78.1408
G01 X9.1319 Y78.0738
G01 X9.1880 Y78.0120
G01 X9.2498 Y77.9559
G01 X9.3168 Y77.9063
G01 X9.3883 Y77.8634
G01 X9.4615 Y77.8287
G01 X9.5446 Y77.7989
G01 X9.6232 Y77.7793
G01 X9.7057 Y77.7671
G01 X9.7890 Y77.7630
G01 X9.8723 Y77.7671
G01 X9.9548 Y77.7793
G01 X10.0357 Y77.7996
G01 X10.1143 Y77.8277
G01 X10.1897 Y77.8634
G01 X10.2612 Y77.9063
G01 X10.3282 Y77.9559
G01 X10.3900 Y78.0120
G01 X10.4362 Y78.0627
G01 X10.7390 Y78.0627
G01 X10.7390 Y49.3183
G01 X10.4362 Y49.3183
G01 X10.3900 Y49.3690
G01 X10.3282 Y49.4251
G01 X10.2612 Y49.4747
G01 X10.1918 Y49.5164
G01 X10.1120 Y49.5542
G01 X10.0357 Y49.5814
G01 X9.9536 Y49.6019
G01 X9.8723 Y49.6139
G01 X9.7915 Y49.6179
G01 X9.7057 Y49.6139
G01 X9.6232 Y49.6017
G01 X9.5446 Y49.5821
G01 X9.4637 Y49.5533
G01 X9.3883 Y49.5176
G01 X9.3188 Y49.4761
G01 X9.2479 Y49.4235
G01 X9.1880 Y49.3690
G01 X9.1319 Y49.3072
G01 X9.0823 Y49.2402
G01 X9.0394 Y49.1687
G01 X9.0037 Y49.0933
G01 X8.9756 Y49.0147
G01 X8.9553 Y48.9338
G01 X8.9434 Y48.8538
G01 X8.9391 Y48.7655
G01 X8.9431 Y48.6847
G01 X8.9559 Y48.5998
G01 X8.9756 Y48.5213
G01 X9.0028 Y48.4450
G01 X9.0394 Y48.3673
G01 X9.0823 Y48.2958
G01 X9.1304 Y48.2307
G01 X9.1880 Y48.1670
G01 X9.2517 Y48.1094
G01 X9.3168 Y48.0613
G01 X9.3883 Y48.0184
G01 X9.4637 Y47.9827
G01 X9.5399 Y47.9554
G01 X9.6244 Y47.9341
G01 X9.7081 Y47.9219
G01 X9.7890 Y47.9180
G01 X9.8699 Y47.9219
G01 X9.9548 Y47.9343
G01 X10.0381 Y47.9554
G01 X10.1143 Y47.9827
G01 X10.1875 Y48.0173
G01 X10.2612 Y48.0613
G01 X10.3301 Y48.1125
G01 X10.3900 Y48.1670
G01 X10.4362 Y48.2177
G01 X11.0614 Y48.2177
G01 X18.1915 Y41.0876
G01 X18.1915 Y23.1927
G01 X14.4721 Y19.4733
G01 X10.4362 Y19.4733
G01 X10.3900 Y19.5240
G01 X10.3301 Y19.5785
G01 X10.2632 Y19.6283
G01 X10.1897 Y19.6726
G01 X10.1165 Y19.7073
G01 X10.0357 Y19.7364
G01 X9.9548 Y19.7567
G01 X9.8723 Y19.7689
G01 X9.7902 Y19.7730
G01 X9.7032 Y19.7686
G01 X9.6232 Y19.7567
G01 X9.5423 Y19.7364
G01 X9.4615 Y19.7073
G01 X9.3883 Y19.6726
G01 X9.3188 Y19.6311
G01 X9.2479 Y19.5785
G01 X9.1880 Y19.5240
G01 X9.1319 Y19.4622
G01 X9.0823 Y19.3952
G01 X9.0406 Y19.3258
G01 X9.0028 Y19.2460
G01 X8.9756 Y19.1697
G01 X8.9553 Y19.0888
G01 X8.9431 Y19.0063
G01 X8.9391 Y18.9255
G01 X8.9434 Y18.8372
G01 X8.9553 Y18.7572
G01 X8.9756 Y18.6763
G01 X9.0037 Y18.5977
G01 X9.0383 Y18.5245
G01 X9.0837 Y18.4488
G01 X9.1319 Y18.3838
G01 X9.1880 Y18.3220
G01 X9.2498 Y18.2659
G01 X9.3148 Y18.2177
G01 X9.3905 Y18.1723
G01 X9.4637 Y18.1377
G01 X9.5423 Y18.1096
G01 X9.6232 Y18.0893
G01 X9.7032 Y18.0774
G01 X9.7915 Y18.0731
G00 Z2.0000
G00 X8.9390 Y22.2630
G01 F60.00
G01 Z-0.0499
G01 F60.00
G01 X8.9390 Y20.6630
G01 X8.9400 Y20.6532
G01 X8.9428 Y20.6439
G01 X8.9474 Y20.6352
G01 X8.9536 Y20.6276
G01 X8.9612 Y20.6214
G01 X8.9699 Y20.6168
G01 X8.9792 Y20.6140
G01 X8.9890 Y20.6130
G01 X10.5890 Y20.6130
G01 X10.5963 Y20.6135
G01 X10.6047 Y20.6155
G01 X10.6126 Y20.6189
G01 X10.6188 Y20.6228
G01 X10.6235 Y20.6268
G01 X10.6277 Y20.6313
G01 X10.6306 Y20.6352
G01 X10.6337 Y20.6405
G01 X10.6356 Y20.6450
G01 X10.6375 Y20.6509
G01 X10.6386 Y20.6569
G01 X10.6390 Y20.6630
G01 X10.6390 Y22.2630
G01 X10.6386 Y22.2691
G01 X10.6372 Y22.2763
G01 X10.6342 Y22.2844
G01 X10.6299 Y22.2918
G01 X10.6244 Y22.2984
G01 X10.6188 Y22.3032
G01 X10.6115 Y22.3077
G01 X10.6047 Y22.3105
G01 X10.5963 Y22.3125
G01 X10.5890 Y22.3130
G01 X10.3393 Y22.3130
G01 X10.3393 Y22.7354
G01 X11.6784 Y24.0745
G01 X11.7130 Y24.1127
G01 X11.7481 Y24.1600
G01 X11.7746 Y24.2042
G01 X11.7977 Y24.2530
G01 X11.8159 Y24.3039
G01 X11.8284 Y24.3539
G01 X11.8370 Y24.4109
G01 X11.8396 Y24.4636
G01 X11.8396 Y34.5677
G01 X11.8369 Y34.6216
G01 X11.8294 Y34.6726
G01 X11.8151 Y34.7298
G01 X11.7977 Y34.7783
G01 X11.7757 Y34.8249
G01 X11.7468 Y34.8734
G01 X11.7130 Y34.9186
G01 X11.6784 Y34.9568
G01 X10.6357 Y35.9995
G01 X10.6390 Y36.0680
G01 X10.6349 Y36.1513
G01 X10.6227 Y36.2338
G01 X10.6024 Y36.3147
G01 X10.5743 Y36.3933
G01 X10.5386 Y36.4687
G01 X10.4957 Y36.5402
G01 X10.4453 Y36.6082
G01 X10.3900 Y36.6690
G01 X10.3282 Y36.7251
G01 X10.2612 Y36.7747
G01 X10.1897 Y36.8176
G01 X10.1143 Y36.8533
G01 X10.0357 Y36.8814
G01 X9.9548 Y36.9017
G01 X9.8711 Y36.9140
G01 X9.7890 Y36.9180
G01 X9.7032 Y36.9136
G01 X9.6232 Y36.9017
G01 X9.5446 Y36.8821
G01 X9.4660 Y36.8542
G01 X9.3883 Y36.8176
G01 X9.3168 Y36.7747
G01 X9.2498 Y36.7251
G01 X9.1880 Y36.6690
G01 X9.1319 Y36.6072
G01 X9.0823 Y36.5402
G01 X9.0394 Y36.4687
G01 X9.0028 Y36.3910
G01 X8.9749 Y36.3124
G01 X8.9553 Y36.2338
G01 X8.9434 Y36.1538
G01 X8.9390 Y36.0680
G01 X8.9430 Y35.9859
G01 X8.9553 Y35.9022
G01 X8.9756 Y35.8213
G01 X9.0037 Y35.7427
G01 X9.0383 Y35.6695
G01 X9.0823 Y35.5958
G01 X9.1304 Y35.5307
G01 X9.1897 Y35.4653
G01 X9.2498 Y35.4109
G01 X9.3168 Y35.3613
G01 X9.3883 Y35.3184
G01 X9.4660 Y35.2818
G01 X9.5423 Y35.2546
G01 X9.6256 Y35.2339
G01 X9.7081 Y35.2219
G01 X9.7890 Y35.2180
G01 X9.8575 Y35.2213
G01 X10.7390 Y34.3398
G01 X10.7390 Y24.6915
G01 X9.3999 Y23.3524
G01 X9.3637 Y23.3124
G01 X9.3329 Y23.2710
G01 X9.3037 Y23.2227
G01 X9.2798 Y23.1716
G01 X9.2624 Y23.1230
G01 X9.2499 Y23.0730
G01 X9.2414 Y23.0172
G01 X9.2387 Y22.9633
G01 X9.2387 Y22.3130
G01 X8.9890 Y22.3130
G01 X8.9805 Y22.3123
G01 X8.9722 Y22.3101
G01 X8.9644 Y22.3065
G01 X8.9573 Y22.3017
G01 X8.9511 Y22.2957
G01 X8.9461 Y22.2887
G01 X8.9424 Y22.2810
G01 X8.9400 Y22.2728
G01 X8.9390 Y22.2630
G00 Z2.0000
G00 X8.8390 Y22.2630
G01 F60.00
G01 Z-0.0499
G01 F60.00
G01 X8.8390 Y20.6593
G01 X8.8401 Y20.6446
G01 X8.8426 Y20.6301
G01 X8.8466 Y20.6159
G01 X8.8519 Y20.6022
G01 X8.8585 Y20.5891
G01 X8.8664 Y20.5766
G01 X8.8754 Y20.5650
G01 X8.8856 Y20.5544
G01 X8.8967 Y20.5447
G01 X8.9088 Y20.5363
G01 X8.9216 Y20.5290
G01 X8.9350 Y20.5231
G01 X8.9455 Y20.5195
G01 X8.9597 Y20.5159
G01 X8.9743 Y20.5137
G01 X8.9890 Y20.5130
G01 X10.5927 Y20.5130
G01 X10.6037 Y20.5137
G01 X10.6146 Y20.5152
G01 X10.6254 Y20.5175
G01 X10.6361 Y20.5206
G01 X10.6464 Y20.5244
G01 X10.6564 Y20.5290
G01 X10.6661 Y20.5343
G01 X10.6754 Y20.5404
G01 X10.6842 Y20.5470
G01 X10.6897 Y20.5519
G01 X10.7001 Y20.5623
G01 X10.7050 Y20.5678
G01 X10.7116 Y20.5766
G01 X10.7177 Y20.5859
G01 X10.7213 Y20.5923
G01 X10.7246 Y20.5989
G01 X10.7289 Y20.6090
G01 X10.7325 Y20.6195
G01 X10.7345 Y20.6266
G01 X10.7374 Y20.6410
G01 X10.7386 Y20.6520
G01 X10.7390 Y20.6593
G01 X10.7390 Y22.2630
G01 X10.7383 Y22.2777
G01 X10.7368 Y22.2886
G01 X10.7345 Y22.2994
G01 X10.7325 Y22.3065
G01 X10.7289 Y22.3170
G01 X10.7261 Y22.3238
G01 X10.7213 Y22.3337
G01 X10.7157 Y22.3432
G01 X10.7095 Y22.3524
G01 X10.7050 Y22.3582
G01 X10.6976 Y22.3664
G01 X10.6897 Y22.3741
G01 X10.6842 Y22.3790
G01 X10.6784 Y22.3835
G01 X10.6692 Y22.3897
G01 X10.6597 Y22.3953
G01 X10.6498 Y22.4001
G01 X10.6395 Y22.4042
G01 X10.6254 Y22.4085
G01 X10.6110 Y22.4114
G01 X10.5964 Y22.4128
G01 X10.4393 Y22.4130
G01 X10.4393 Y22.6940
G01 X11.7491 Y24.0038
G01 X11.7896 Y24.0483
G01 X11.7965 Y24.0569
G01 X11.8257 Y24.0963
G01 X11.8339 Y24.1086
G01 X11.8628 Y24.1571
G01 X11.8901 Y24.2148
G01 X11.9116 Y24.2748
G01 X11.9254 Y24.3296
G01 X11.9283 Y24.3440
G01 X11.9355 Y24.3926
G01 X11.9367 Y24.4035
G01 X11.9396 Y24.4636
G01 X11.9396 Y34.5677
G01 X11.9364 Y34.6314
G01 X11.9277 Y34.6909
G01 X11.9254 Y34.7017
G01 X11.9135 Y34.7494
G01 X11.9092 Y34.7634
G01 X11.8901 Y34.8165
G01 X11.8661 Y34.8676
G01 X11.8591 Y34.8806
G01 X11.8300 Y34.9290
G01 X11.7965 Y34.9744
G01 X11.7896 Y34.9830
G01 X11.7491 Y35.0275
G01 X10.7377 Y36.0388
G01 X10.7390 Y36.0643
G01 X10.7390 Y36.0717
G01 X10.7350 Y36.1538
G01 X10.7340 Y36.1648
G01 X10.7207 Y36.2533
G01 X10.7001 Y36.3367
G01 X10.6970 Y36.3473
G01 X10.6667 Y36.4315
G01 X10.6268 Y36.5158
G01 X10.5789 Y36.5958
G01 X10.5279 Y36.6649
G01 X10.5210 Y36.6735
G01 X10.4608 Y36.7398
G01 X10.3917 Y36.8024
G01 X10.3168 Y36.8579
G01 X10.2368 Y36.9058
G01 X10.1525 Y36.9457
G01 X10.0648 Y36.9771
G01 X9.9743 Y36.9997
G01 X9.8894 Y37.0125
G01 X9.8784 Y37.0137
G01 X9.7964 Y37.0178
G01 X9.7816 Y37.0178
G01 X9.6959 Y37.0134
G01 X9.6109 Y37.0010
G01 X9.5965 Y36.9981
G01 X9.5132 Y36.9771
G01 X9.4255 Y36.9457
G01 X9.3412 Y36.9058
G01 X9.2674 Y36.8618
G01 X9.2552 Y36.8537
G01 X9.1921 Y36.8069
G01 X9.1808 Y36.7976
G01 X9.1172 Y36.7398
G01 X9.0594 Y36.6762
G01 X9.0501 Y36.6649
G01 X8.9991 Y36.5958
G01 X8.9512 Y36.5158
G01 X8.9113 Y36.4315
G01 X8.8822 Y36.3508
G01 X8.8779 Y36.3367
G01 X8.8589 Y36.2605
G01 X8.8560 Y36.2461
G01 X8.8436 Y36.1611
G01 X8.8392 Y36.0754
G01 X8.8392 Y36.0606
G01 X8.8436 Y35.9749
G01 X8.8560 Y35.8899
G01 X8.8589 Y35.8755
G01 X8.8799 Y35.7922
G01 X8.9087 Y35.7113
G01 X8.9143 Y35.6977
G01 X8.9479 Y35.6267
G01 X8.9548 Y35.6138
G01 X8.9991 Y35.5402
G01 X9.0546 Y35.4653
G01 X9.1172 Y35.3962
G01 X9.1808 Y35.3384
G01 X9.1921 Y35.3291
G01 X9.2612 Y35.2781
G01 X9.3412 Y35.2302
G01 X9.4255 Y35.1903
G01 X9.5097 Y35.1600
G01 X9.5203 Y35.1569
G01 X9.6037 Y35.1363
G01 X9.6922 Y35.1230
G01 X9.7032 Y35.1220
G01 X9.7853 Y35.1180
G01 X9.7927 Y35.1180
G01 X9.8182 Y35.1193
G01 X10.6390 Y34.2984
G01 X10.6390 Y33.9504
G01 X10.6285 Y33.9726
G01 X10.6250 Y33.9791
G01 X10.5828 Y34.0496
G01 X10.5768 Y34.0588
G01 X10.5234 Y34.1307
G01 X10.4658 Y34.1944
G01 X10.4581 Y34.2023
G01 X10.3917 Y34.2624
G01 X10.3168 Y34.3179
G01 X10.2368 Y34.3658
G01 X10.1559 Y34.4042
G01 X10.1457 Y34.4083
G01 X10.0648 Y34.4371
G01 X9.9815 Y34.4581
G01 X9.9671 Y34.4610
G01 X9.8894 Y34.4725
G01 X9.8748 Y34.4740
G01 X9.7890 Y34.4780
G01 X9.6959 Y34.4734
G01 X9.6037 Y34.4597
G01 X9.5168 Y34.4381
G01 X9.5062 Y34.4348
G01 X9.4255 Y34.4057
G01 X9.3477 Y34.3691
G01 X9.3348 Y34.3622
G01 X9.2674 Y34.3218
G01 X9.2552 Y34.3137
G01 X9.1863 Y34.2624
G01 X9.1172 Y34.1998
G01 X9.0546 Y34.1307
G01 X8.9991 Y34.0558
G01 X8.9512 Y33.9758
G01 X8.9143 Y33.8983
G01 X8.9087 Y33.8847
G01 X8.8822 Y33.8108
G01 X8.8779 Y33.7967
G01 X8.8573 Y33.7133
G01 X8.8436 Y33.6211
G01 X8.8390 Y33.5280
G01 X8.8433 Y33.4386
G01 X8.8445 Y33.4276
G01 X8.8560 Y33.3499
G01 X8.8589 Y33.3355
G01 X8.8799 Y33.2522
G01 X8.9113 Y33.1645
G01 X8.9512 Y33.0802
G01 X8.9952 Y33.0064
G01 X9.0033 Y32.9942
G01 X9.0501 Y32.9311
G01 X9.0594 Y32.9198
G01 X9.1172 Y32.8562
G01 X9.1863 Y32.7936
G01 X9.2612 Y32.7381
G01 X9.3348 Y32.6938
G01 X9.3477 Y32.6869
G01 X9.4187 Y32.6533
G01 X9.4323 Y32.6477
G01 X9.5132 Y32.6189
G01 X9.5965 Y32.5979
G01 X9.6073 Y32.5956
G01 X9.6959 Y32.5826
G01 X9.7890 Y32.5780
G01 X9.8821 Y32.5826
G01 X9.9671 Y32.5950
G01 X9.9815 Y32.5979
G01 X10.0577 Y32.6169
G01 X10.0718 Y32.6212
G01 X10.1525 Y32.6503
G01 X10.2336 Y32.6885
G01 X10.2432 Y32.6938
G01 X10.3168 Y32.7381
G01 X10.3859 Y32.7891
G01 X10.3972 Y32.7984
G01 X10.4554 Y32.8512
G01 X10.4633 Y32.8589
G01 X10.5234 Y32.9253
G01 X10.5768 Y32.9972
G01 X10.5828 Y33.0064
G01 X10.6250 Y33.0769
G01 X10.6285 Y33.0834
G01 X10.6390 Y33.1056
G01 X10.6390 Y24.7329
G01 X9.3292 Y23.4231
G01 X9.2863 Y23.3758
G01 X9.2526 Y23.3306
G01 X9.2444 Y23.3183
G01 X9.2155 Y23.2698
G01 X9.1912 Y23.2189
G01 X9.1856 Y23.2053
G01 X9.1667 Y23.1521
G01 X9.1529 Y23.0973
G01 X9.1500 Y23.0829
G01 X9.1423 Y23.0307
G01 X9.1413 Y23.0197
G01 X9.1387 Y22.9633
G01 X9.1387 Y22.4130
G01 X8.9890 Y22.4130
G01 X8.9780 Y22.4126
G01 X8.9634 Y22.4108
G01 X8.9490 Y22.4076
G01 X8.9350 Y22.4029
G01 X8.9216 Y22.3970
G01 X8.9151 Y22.3935
G01 X8.9057 Y22.3877
G01 X8.8967 Y22.3813
G01 X8.8883 Y22.3741
G01 X8.8829 Y22.3691
G01 X8.8754 Y22.3610
G01 X8.8685 Y22.3524
G01 X8.8623 Y22.3432
G01 X8.8567 Y22.3337
G01 X8.8519 Y22.3238
G01 X8.8478 Y22.3135
G01 X8.8455 Y22.3065
G01 X8.8426 Y22.2959
G01 X8.8406 Y22.2850
G01 X8.8394 Y22.2740
G01 X8.8390 Y22.2630
G00 Z2.0000
G00 X2.7060 Y18.1400
G01 F60.00
G01 Z-0.0499
G01 F60.00
G01 X4.4060 Y18.1400
G01 X4.4121 Y18.1404
G01 X4.4205 Y18.1422
G01 X4.4285 Y18.1453
G01 X4.4358 Y18.1498
G01 X4.4414 Y18.1546
G01 X4.4462 Y18.1602
G01 X4.4507 Y18.1675
G01 X4.4538 Y18.1755
G01 X4.4556 Y18.1839
G01 X4.4560 Y18.1900
G01 X4.4560 Y18.4897
G01 X5.4038 Y18.4897
G01 X7.8996 Y15.9939
G01 X7.9396 Y15.9577
G01 X7.9830 Y15.9255
G01 X8.0293 Y15.8977
G01 X8.0770 Y15.8751
G01 X8.1290 Y15.8564
G01 X8.1814 Y15.8433
G01 X8.2348 Y15.8354
G01 X8.2862 Y15.8328
G01 X9.1418 Y15.8327
G01 X9.1880 Y15.7820
G01 X9.2479 Y15.7275
G01 X9.3148 Y15.6777
G01 X9.3883 Y15.6334
G01 X9.4637 Y15.5977
G01 X9.5446 Y15.5689
G01 X9.6232 Y15.5493
G01 X9.7032 Y15.5374
G01 X9.7890 Y15.5330
G01 X9.8735 Y15.5372
G01 X9.9548 Y15.5493
G01 X10.0334 Y15.5689
G01 X10.1143 Y15.5977
G01 X10.1897 Y15.6334
G01 X10.2592 Y15.6749
G01 X10.3301 Y15.7275
G01 X10.3900 Y15.7820
G01 X10.4461 Y15.8438
G01 X10.4957 Y15.9108
G01 X10.5374 Y15.9802
G01 X10.5752 Y16.0600
G01 X10.6024 Y16.1363
G01 X10.6221 Y16.2148
G01 X10.6351 Y16.3021
G01 X10.6390 Y16.3830
G01 X10.6349 Y16.4663
G01 X10.6227 Y16.5488
G01 X10.6031 Y16.6274
G01 X10.5743 Y16.7083
G01 X10.5374 Y16.7858
G01 X10.4957 Y16.8552
G01 X10.4461 Y16.9222
G01 X10.3900 Y16.9840
G01 X10.3301 Y17.0385
G01 X10.2592 Y17.0911
G01 X10.1897 Y17.1326
G01 X10.1143 Y17.1683
G01 X10.0357 Y17.1964
G01 X9.9572 Y17.2161
G01 X9.8699 Y17.2291
G01 X9.7890 Y17.2330
G01 X9.7057 Y17.2289
G01 X9.6232 Y17.2167
G01 X9.5423 Y17.1964
G01 X9.4637 Y17.1683
G01 X9.3883 Y17.1326
G01 X9.3168 Y17.0897
G01 X9.2498 Y17.0401
G01 X9.1880 Y16.9840
G01 X9.1418 Y16.9333
G01 X8.5166 Y16.9333
G01 X6.0208 Y19.4291
G01 X5.9808 Y19.4653
G01 X5.9394 Y19.4961
G01 X5.8911 Y19.5253
G01 X5.8400 Y19.5492
G01 X5.7914 Y19.5666
G01 X5.7414 Y19.5791
G01 X5.6844 Y19.5877
G01 X5.6317 Y19.5903
G01 X4.4560 Y19.5903
G01 X4.4558 Y19.8949
G01 X4.4545 Y19.9021
G01 X4.4522 Y19.9091
G01 X4.4489 Y19.9157
G01 X4.4439 Y19.9227
G01 X4.4387 Y19.9279
G01 X4.4327 Y19.9322
G01 X4.4251 Y19.9362
G01 X4.4181 Y19.9385
G01 X4.4121 Y19.9396
G01 X4.4060 Y19.9400
G01 X2.7060 Y19.9400
G01 X2.6962 Y19.9390
G01 X2.6869 Y19.9362
G01 X2.6824 Y19.9341
G01 X2.6772 Y19.9309
G01 X2.6698 Y19.9245
G01 X2.6638 Y19.9167
G01 X2.6594 Y19.9080
G01 X2.6570 Y19.8998
G01 X2.6560 Y19.8900
G01 X2.6560 Y18.1888
G01 X2.6572 Y18.1790
G01 X2.6603 Y18.1697
G01 X2.6651 Y18.1612
G01 X2.6706 Y18.1546
G01 X2.6782 Y18.1484
G01 X2.6869 Y18.1438
G01 X2.6962 Y18.1410
G01 X2.7060 Y18.1400
G00 Z2.0000
G00 X2.7060 Y18.0400
G01 F60.00
G01 Z-0.0499
G01 F60.00
G01 X4.4060 Y18.0400
G01 X4.4170 Y18.0404
G01 X4.4244 Y18.0411
G01 X4.4353 Y18.0429
G01 X4.4460 Y18.0454
G01 X4.4565 Y18.0488
G01 X4.4634 Y18.0514
G01 X4.4734 Y18.0560
G01 X4.4799 Y18.0595
G01 X4.4893 Y18.0653
G01 X4.4983 Y18.0717
G01 X4.5067 Y18.0789
G01 X4.5146 Y18.0866
G01 X4.5220 Y18.0948
G01 X4.5265 Y18.1006
G01 X4.5327 Y18.1098
G01 X4.5383 Y18.1193
G01 X4.5431 Y18.1292
G01 X4.5459 Y18.1360
G01 X4.5495 Y18.1465
G01 X4.5531 Y18.1607
G01 X4.5549 Y18.1716
G01 X4.5558 Y18.1826
G01 X4.5560 Y18.3897
G01 X5.3624 Y18.3897
G01 X7.8315 Y15.9206
G01 X7.8762 Y15.8803
G01 X7.9214 Y15.8466
G01 X7.9337 Y15.8384
G01 X7.9822 Y15.8095
G01 X8.0331 Y15.7852
G01 X8.0467 Y15.7796
G01 X8.0999 Y15.7607
G01 X8.1582 Y15.7460
G01 X8.1691 Y15.7440
G01 X8.2250 Y15.7359
G01 X8.2850 Y15.7328
G01 X9.0975 Y15.7327
G01 X9.1147 Y15.7139
G01 X9.1199 Y15.7087
G01 X9.1835 Y15.6510
G01 X9.1921 Y15.6441
G01 X9.2552 Y15.5973
G01 X9.2643 Y15.5911
G01 X9.3348 Y15.5488
G01 X9.3477 Y15.5419
G01 X9.4255 Y15.5053
G01 X9.5097 Y15.4750
G01 X9.5203 Y15.4719
G01 X9.6037 Y15.4513
G01 X9.6886 Y15.4385
G01 X9.7032 Y15.4370
G01 X9.7890 Y15.4330
G01 X9.8748 Y15.4370
G01 X9.8894 Y15.4385
G01 X9.9707 Y15.4506
G01 X9.9815 Y15.4529
G01 X10.0577 Y15.4719
G01 X10.0718 Y15.4762
G01 X10.1525 Y15.5053
G01 X10.2368 Y15.5452
G01 X10.3168 Y15.5931
G01 X10.3859 Y15.6441
G01 X10.3972 Y15.6534
G01 X10.4608 Y15.7112
G01 X10.5186 Y15.7748
G01 X10.5279 Y15.7861
G01 X10.5789 Y15.8552
G01 X10.6268 Y15.9352
G01 X10.6637 Y16.0127
G01 X10.6693 Y16.0263
G01 X10.6981 Y16.1072
G01 X10.7200 Y16.1941
G01 X10.7220 Y16.2049
G01 X10.7335 Y16.2826
G01 X10.7350 Y16.2972
G01 X10.7390 Y16.3830
G01 X10.7344 Y16.4761
G01 X10.7207 Y16.5683
G01 X10.7001 Y16.6517
G01 X10.6958 Y16.6658
G01 X10.6667 Y16.7465
G01 X10.6301 Y16.8243
G01 X10.6232 Y16.8372
G01 X10.5789 Y16.9108
G01 X10.5234 Y16.9857
G01 X10.4608 Y17.0548
G01 X10.3972 Y17.1126
G01 X10.3859 Y17.1219
G01 X10.3228 Y17.1687
G01 X10.3106 Y17.1768
G01 X10.2368 Y17.2208
G01 X10.1525 Y17.2607
G01 X10.0648 Y17.2921
G01 X9.9815 Y17.3131
G01 X9.9671 Y17.3160
G01 X9.8894 Y17.3275
G01 X9.8748 Y17.3290
G01 X9.7890 Y17.3330
G01 X9.6996 Y17.3287
G01 X9.6886 Y17.3275
G01 X9.6037 Y17.3147
G01 X9.5132 Y17.2921
G01 X9.4255 Y17.2607
G01 X9.3444 Y17.2225
G01 X9.3348 Y17.2172
G01 X9.2612 Y17.1729
G01 X9.1892 Y17.1197
G01 X9.1808 Y17.1126
G01 X9.1199 Y17.0573
G01 X9.1147 Y17.0521
G01 X9.0975 Y17.0333
G01 X8.5580 Y17.0333
G01 X6.0915 Y19.4998
G01 X6.0442 Y19.5427
G01 X5.9990 Y19.5764
G01 X5.9867 Y19.5846
G01 X5.9382 Y19.6135
G01 X5.8873 Y19.6378
G01 X5.8737 Y19.6434
G01 X5.8205 Y19.6623
G01 X5.7657 Y19.6761
G01 X5.7513 Y19.6790
G01 X5.7027 Y19.6862
G01 X5.6918 Y19.6874
G01 X5.6317 Y19.6903
G01 X4.5560 Y19.6903
G01 X4.5560 Y19.8937
G01 X4.5553 Y19.9047
G01 X4.5538 Y19.9156
G01 X4.5515 Y19.9264
G01 X4.5484 Y19.9371
G01 X4.5446 Y19.9474
G01 X4.5416 Y19.9541
G01 X4.5365 Y19.9639
G01 X4.5327 Y19.9702
G01 X4.5265 Y19.9794
G01 X4.5196 Y19.9880
G01 X4.5121 Y19.9961
G01 X4.5067 Y20.0011
G01 X4.4983 Y20.0083
G01 X4.4893 Y20.0147
G01 X4.4799 Y20.0205
G01 X4.4734 Y20.0240
G01 X4.4634 Y20.0286
G01 X4.4565 Y20.0312
G01 X4.4460 Y20.0346
G01 X4.4389 Y20.0364
G01 X4.4316 Y20.0378
G01 X4.4207 Y20.0393
G01 X4.4060 Y20.0400
G01 X2.7023 Y20.0400
G01 X2.6876 Y20.0389
G01 X2.6767 Y20.0371
G01 X2.6696 Y20.0355
G01 X2.6555 Y20.0312
G01 X2.6419 Y20.0256
G01 X2.6289 Y20.0187
G01 X2.6196 Y20.0126
G01 X2.6137 Y20.0083
G01 X2.6026 Y19.9986
G01 X2.5924 Y19.9880
G01 X2.5834 Y19.9764
G01 X2.5773 Y19.9671
G01 X2.5720 Y19.9574
G01 X2.5661 Y19.9440
G01 X2.5625 Y19.9335
G01 X2.5589 Y19.9193
G01 X2.5567 Y19.9047
G01 X2.5560 Y19.8937
G01 X2.5562 Y18.1826
G01 X2.5576 Y18.1680
G01 X2.5605 Y18.1536
G01 X2.5648 Y18.1395
G01 X2.5704 Y18.1259
G01 X2.5773 Y18.1129
G01 X2.5855 Y18.1006
G01 X2.5949 Y18.0893
G01 X2.6026 Y18.0814
G01 X2.6137 Y18.0717
G01 X2.6258 Y18.0633
G01 X2.6353 Y18.0577
G01 X2.6486 Y18.0514
G01 X2.6625 Y18.0465
G01 X2.6767 Y18.0429
G01 X2.6913 Y18.0407
G01 X2.7060 Y18.0400
G00 Z2.0000
G00 X3.5585 Y15.6001
G01 F60.00
G01 Z-0.0499
G01 F60.00
G01 X3.6467 Y15.6046
G01 X3.7316 Y15.6173
G01 X3.8149 Y15.6381
G01 X3.9004 Y15.6685
G01 X3.9792 Y15.7057
G01 X4.0560 Y15.7517
G01 X4.1279 Y15.8051
G01 X4.1933 Y15.8645
G01 X4.2509 Y15.9281
G01 X4.2671 Y15.9497
G01 X4.8784 Y15.9497
G01 X7.3751 Y13.4531
G01 X7.4162 Y13.4161
G01 X7.4576 Y13.3855
G01 X7.5018 Y13.3589
G01 X7.5527 Y13.3346
G01 X7.6047 Y13.3161
G01 X7.6584 Y13.3029
G01 X7.7094 Y13.2954
G01 X7.7621 Y13.2928
G01 X9.1418 Y13.2927
G01 X9.1880 Y13.2420
G01 X9.2479 Y13.1875
G01 X9.3148 Y13.1377
G01 X9.3883 Y13.0934
G01 X9.4637 Y13.0577
G01 X9.5446 Y13.0289
G01 X9.6232 Y13.0093
G01 X9.7032 Y12.9974
G01 X9.7890 Y12.9930
G01 X9.8723 Y12.9971
G01 X9.9548 Y13.0093
G01 X10.0334 Y13.0289
G01 X10.1143 Y13.0577
G01 X10.1918 Y13.0946
G01 X10.2612 Y13.1363
G01 X10.3282 Y13.1859
G01 X10.3900 Y13.2420
G01 X10.4445 Y13.3019
G01 X10.4957 Y13.3708
G01 X10.5386 Y13.4423
G01 X10.5733 Y13.5155
G01 X10.6027 Y13.5974
G01 X10.6227 Y13.6772
G01 X10.6349 Y13.7597
G01 X10.6390 Y13.8430
G01 X10.6349 Y13.9263
G01 X10.6227 Y14.0088
G01 X10.6024 Y14.0897
G01 X10.5743 Y14.1683
G01 X10.5386 Y14.2437
G01 X10.4957 Y14.3152
G01 X10.4461 Y14.3822
G01 X10.3900 Y14.4440
G01 X10.3282 Y14.5001
G01 X10.2612 Y14.5497
G01 X10.1897 Y14.5926
G01 X10.1143 Y14.6283
G01 X10.0357 Y14.6564
G01 X9.9524 Y14.6771
G01 X9.8723 Y14.6889
G01 X9.7890 Y14.6930
G01 X9.7057 Y14.6889
G01 X9.6256 Y14.6771
G01 X9.5423 Y14.6564
G01 X9.4637 Y14.6283
G01 X9.3905 Y14.5937
G01 X9.3168 Y14.5497
G01 X9.2479 Y14.4985
G01 X9.1880 Y14.4440
G01 X9.1418 Y14.3933
G01 X7.9912 Y14.3933
G01 X5.4945 Y16.8899
G01 X5.4534 Y16.9269
G01 X5.4120 Y16.9575
G01 X5.3678 Y16.9841
G01 X5.3169 Y17.0084
G01 X5.2649 Y17.0269
G01 X5.2112 Y17.0401
G01 X5.1602 Y17.0476
G01 X5.1075 Y17.0502
G01 X4.2671 Y17.0503
G01 X4.2509 Y17.0719
G01 X4.1933 Y17.1355
G01 X4.1279 Y17.1949
G01 X4.0560 Y17.2483
G01 X3.9813 Y17.2931
G01 X3.9004 Y17.3315
G01 X3.8173 Y17.3612
G01 X3.7316 Y17.3827
G01 X3.6430 Y17.3958
G01 X3.5560 Y17.4000
G01 X3.4678 Y17.3957
G01 X3.3804 Y17.3827
G01 X3.2947 Y17.3612
G01 X3.2116 Y17.3315
G01 X3.1317 Y17.2937
G01 X3.0560 Y17.2483
G01 X2.9850 Y17.1957
G01 X2.9196 Y17.1364
G01 X2.8619 Y17.0728
G01 X2.8077 Y17.0000
G01 X2.7623 Y16.9243
G01 X2.7255 Y16.8467
G01 X2.6941 Y16.7589
G01 X2.6733 Y16.6756
G01 X2.6603 Y16.5882
G01 X2.6560 Y16.5000
G01 X2.6602 Y16.4142
G01 X2.6738 Y16.3220
G01 X2.6948 Y16.2387
G01 X2.7236 Y16.1579
G01 X2.7635 Y16.0736
G01 X2.8077 Y16.0000
G01 X2.8603 Y15.9290
G01 X2.9196 Y15.8636
G01 X2.9832 Y15.8059
G01 X3.0560 Y15.7517
G01 X3.1339 Y15.7052
G01 X3.2116 Y15.6685
G01 X3.2947 Y15.6388
G01 X3.3804 Y15.6173
G01 X3.4653 Y15.6046
G01 X3.5585 Y15.6001
G00 Z2.0000
G00 X3.5634 Y15.5002
G01 F60.00
G01 Z-0.0499
G01 F60.00
G01 X3.6540 Y15.5048
G01 X3.7511 Y15.5192
G01 X3.8463 Y15.5431
G01 X3.9318 Y15.5735
G01 X3.9454 Y15.5791
G01 X4.0274 Y15.6181
G01 X4.1054 Y15.6646
G01 X4.1176 Y15.6728
G01 X4.1846 Y15.7225
G01 X4.1960 Y15.7318
G01 X4.2631 Y15.7929
G01 X4.3149 Y15.8497
G01 X4.8370 Y15.8497
G01 X7.3061 Y13.3806
G01 X7.3452 Y13.3452
G01 X7.3566 Y13.3358
G01 X7.4020 Y13.3023
G01 X7.4504 Y13.2732
G01 X7.4634 Y13.2662
G01 X7.5145 Y13.2422
G01 X7.5676 Y13.2231
G01 X7.5781 Y13.2197
G01 X7.6293 Y13.2069
G01 X7.6437 Y13.2040
G01 X7.6996 Y13.1959
G01 X7.7596 Y13.1928
G01 X9.0975 Y13.1927
G01 X9.1147 Y13.1739
G01 X9.1199 Y13.1687
G01 X9.1835 Y13.1110
G01 X9.1921 Y13.1041
G01 X9.2582 Y13.0552
G01 X9.2674 Y13.0492
G01 X9.3412 Y13.0052
G01 X9.4187 Y12.9683
G01 X9.4289 Y12.9639
G01 X9.5062 Y12.9362
G01 X9.5203 Y12.9319
G01 X9.6037 Y12.9113
G01 X9.6886 Y12.8985
G01 X9.7032 Y12.8970
G01 X9.7890 Y12.8930
G01 X9.8748 Y12.8970
G01 X9.8858 Y12.8980
G01 X9.9743 Y12.9113
G01 X10.0577 Y12.9319
G01 X10.0718 Y12.9362
G01 X10.1525 Y12.9653
G01 X10.2303 Y13.0019
G01 X10.2432 Y13.0088
G01 X10.3168 Y13.0531
G01 X10.3917 Y13.1086
G01 X10.4608 Y13.1712
G01 X10.5186 Y13.2348
G01 X10.5279 Y13.2461
G01 X10.5789 Y13.3152
G01 X10.6268 Y13.3952
G01 X10.6637 Y13.4727
G01 X10.6693 Y13.4863
G01 X10.6958 Y13.5602
G01 X10.6991 Y13.5708
G01 X10.7207 Y13.6577
G01 X10.7344 Y13.7499
G01 X10.7390 Y13.8430
G01 X10.7344 Y13.9361
G01 X10.7207 Y14.0283
G01 X10.6981 Y14.1188
G01 X10.6667 Y14.2065
G01 X10.6268 Y14.2908
G01 X10.5789 Y14.3708
G01 X10.5234 Y14.4457
G01 X10.4608 Y14.5148
G01 X10.3917 Y14.5774
G01 X10.3168 Y14.6329
G01 X10.2368 Y14.6808
G01 X10.1525 Y14.7207
G01 X10.0718 Y14.7498
G01 X10.0577 Y14.7541
G01 X9.9815 Y14.7731
G01 X9.9671 Y14.7760
G01 X9.8821 Y14.7884
G01 X9.7890 Y14.7930
G01 X9.7032 Y14.7890
G01 X9.6886 Y14.7875
G01 X9.6037 Y14.7747
G01 X9.5203 Y14.7541
G01 X9.5062 Y14.7498
G01 X9.4323 Y14.7233
G01 X9.4187 Y14.7177
G01 X9.3412 Y14.6808
G01 X9.2643 Y14.6349
G01 X9.2552 Y14.6287
G01 X9.1921 Y14.5819
G01 X9.1835 Y14.5750
G01 X9.1199 Y14.5173
G01 X9.1147 Y14.5121
G01 X9.0975 Y14.4933
G01 X8.0326 Y14.4933
G01 X5.5635 Y16.9624
G01 X5.5244 Y16.9978
G01 X5.5130 Y17.0072
G01 X5.4676 Y17.0407
G01 X5.4192 Y17.0698
G01 X5.4062 Y17.0768
G01 X5.3551 Y17.1008
G01 X5.3020 Y17.1199
G01 X5.2915 Y17.1233
G01 X5.2403 Y17.1361
G01 X5.2259 Y17.1390
G01 X5.1700 Y17.1471
G01 X5.1100 Y17.1502
G01 X4.3149 Y17.1503
G01 X4.2631 Y17.2071
G01 X4.1960 Y17.2682
G01 X4.1846 Y17.2775
G01 X4.1176 Y17.3272
G01 X4.1054 Y17.3354
G01 X4.0274 Y17.3819
G01 X3.9454 Y17.4209
G01 X3.9318 Y17.4265
G01 X3.8463 Y17.4569
G01 X3.7511 Y17.4808
G01 X3.6540 Y17.4952
G01 X3.5597 Y17.5000
G01 X3.5486 Y17.4998
G01 X3.4580 Y17.4952
G01 X3.3609 Y17.4808
G01 X3.2657 Y17.4569
G01 X3.1733 Y17.4239
G01 X3.0846 Y17.3819
G01 X3.0004 Y17.3315
G01 X2.9216 Y17.2730
G01 X2.8515 Y17.2097
G01 X2.8438 Y17.2018
G01 X2.7878 Y17.1400
G01 X2.7785 Y17.1286
G01 X2.7245 Y17.0556
G01 X2.6741 Y16.9714
G01 X2.6321 Y16.8827
G01 X2.6014 Y16.7973
G01 X2.5971 Y16.7832
G01 X2.5752 Y16.6951
G01 X2.5617 Y16.6053
G01 X2.5603 Y16.5907
G01 X2.5560 Y16.5000
G01 X2.5608 Y16.4020
G01 X2.5752 Y16.3049
G01 X2.5971 Y16.2168
G01 X2.6014 Y16.2027
G01 X2.6321 Y16.1173
G01 X2.6741 Y16.0286
G01 X2.7206 Y15.9506
G01 X2.7288 Y15.9384
G01 X2.7830 Y15.8656
G01 X2.8489 Y15.7929
G01 X2.9160 Y15.7318
G01 X2.9274 Y15.7225
G01 X3.0004 Y15.6685
G01 X3.0782 Y15.6217
G01 X3.0912 Y15.6148
G01 X3.1733 Y15.5761
G01 X3.2657 Y15.5431
G01 X3.3609 Y15.5192
G01 X3.4507 Y15.5057
G01 X3.4653 Y15.5043
G01 X3.5486 Y15.5002
G01 X3.5634 Y15.5002
G00 Z2.0000
G00 X3.5585 Y13.0601
G01 F60.00
G01 Z-0.0499
G01 F60.00
G01 X3.6467 Y13.0646
G01 X3.7316 Y13.0773
G01 X3.8149 Y13.0981
G01 X3.9004 Y13.1285
G01 X3.9792 Y13.1657
G01 X4.0560 Y13.2117
G01 X4.1279 Y13.2651
G01 X4.1933 Y13.3245
G01 X4.2509 Y13.3881
G01 X4.2671 Y13.4097
G01 X4.8784 Y13.4097
G01 X7.3751 Y10.9131
G01 X7.4162 Y10.8761
G01 X7.4576 Y10.8455
G01 X7.5018 Y10.8189
G01 X7.5527 Y10.7946
G01 X7.6047 Y10.7761
G01 X7.6584 Y10.7629
G01 X7.7094 Y10.7554
G01 X7.7621 Y10.7528
G01 X9.1418 Y10.7527
G01 X9.1880 Y10.7020
G01 X9.2479 Y10.6475
G01 X9.3148 Y10.5977
G01 X9.3883 Y10.5534
G01 X9.4637 Y10.5177
G01 X9.5446 Y10.4889
G01 X9.6232 Y10.4693
G01 X9.7032 Y10.4574
G01 X9.7890 Y10.4530
G01 X9.8723 Y10.4571
G01 X9.9548 Y10.4693
G01 X10.0334 Y10.4889
G01 X10.1143 Y10.5177
G01 X10.1918 Y10.5546
G01 X10.2612 Y10.5963
G01 X10.3282 Y10.6459
G01 X10.3900 Y10.7020
G01 X10.4445 Y10.7619
G01 X10.4957 Y10.8308
G01 X10.5386 Y10.9023
G01 X10.5733 Y10.9755
G01 X10.6027 Y11.0574
G01 X10.6227 Y11.1372
G01 X10.6349 Y11.2197
G01 X10.6390 Y11.3030
G01 X10.6349 Y11.3863
G01 X10.6227 Y11.4688
G01 X10.6024 Y11.5497
G01 X10.5743 Y11.6283
G01 X10.5386 Y11.7037
G01 X10.4957 Y11.7752
G01 X10.4461 Y11.8422
G01 X10.3900 Y11.9040
G01 X10.3282 Y11.9601
G01 X10.2612 Y12.0097
G01 X10.1897 Y12.0526
G01 X10.1143 Y12.0883
G01 X10.0357 Y12.1164
G01 X9.9524 Y12.1371
G01 X9.8723 Y12.1489
G01 X9.7890 Y12.1530
G01 X9.7057 Y12.1489
G01 X9.6256 Y12.1371
G01 X9.5423 Y12.1164
G01 X9.4637 Y12.0883
G01 X9.3905 Y12.0537
G01 X9.3168 Y12.0097
G01 X9.2479 Y11.9585
G01 X9.1880 Y11.9040
G01 X9.1418 Y11.8533
G01 X7.9912 Y11.8533
G01 X5.4945 Y14.3499
G01 X5.4534 Y14.3869
G01 X5.4120 Y14.4175
G01 X5.3678 Y14.4441
G01 X5.3169 Y14.4684
G01 X5.2649 Y14.4869
G01 X5.2112 Y14.5001
G01 X5.1602 Y14.5076
G01 X5.1075 Y14.5102
G01 X4.2671 Y14.5103
G01 X4.2509 Y14.5319
G01 X4.1933 Y14.5955
G01 X4.1279 Y14.6549
G01 X4.0560 Y14.7083
G01 X3.9813 Y14.7531
G01 X3.9004 Y14.7915
G01 X3.8173 Y14.8212
G01 X3.7316 Y14.8427
G01 X3.6430 Y14.8558
G01 X3.5560 Y14.8600
G01 X3.4678 Y14.8557
G01 X3.3804 Y14.8427
G01 X3.2947 Y14.8212
G01 X3.2116 Y14.7915
G01 X3.1317 Y14.7537
G01 X3.0560 Y14.7083
G01 X2.9850 Y14.6557
G01 X2.9196 Y14.5964
G01 X2.8619 Y14.5328
G01 X2.8077 Y14.4600
G01 X2.7623 Y14.3843
G01 X2.7255 Y14.3067
G01 X2.6941 Y14.2189
G01 X2.6733 Y14.1356
G01 X2.6603 Y14.0482
G01 X2.6560 Y13.9600
G01 X2.6602 Y13.8742
G01 X2.6738 Y13.7820
G01 X2.6948 Y13.6987
G01 X2.7236 Y13.6179
G01 X2.7635 Y13.5336
G01 X2.8077 Y13.4600
G01 X2.8603 Y13.3890
G01 X2.9196 Y13.3236
G01 X2.9832 Y13.2659
G01 X3.0560 Y13.2117
G01 X3.1339 Y13.1652
G01 X3.2116 Y13.1285
G01 X3.2947 Y13.0988
G01 X3.3804 Y13.0773
G01 X3.4653 Y13.0646
G01 X3.5585 Y13.0601
G00 Z2.0000
G00 X3.5634 Y12.9602
G01 F60.00
G01 Z-0.0499
G01 F60.00
G01 X3.6540 Y12.9648
G01 X3.7511 Y12.9792
G01 X3.8463 Y13.0031
G01 X3.9318 Y13.0335
G01 X3.9454 Y13.0391
G01 X4.0274 Y13.0781
G01 X4.1054 Y13.1246
G01 X4.1176 Y13.1328
G01 X4.1846 Y13.1825
G01 X4.1960 Y13.1918
G01 X4.2631 Y13.2529
G01 X4.3149 Y13.3097
G01 X4.8370 Y13.3097
G01 X7.3061 Y10.8406
G01 X7.3452 Y10.8052
G01 X7.3566 Y10.7958
G01 X7.4020 Y10.7623
G01 X7.4504 Y10.7332
G01 X7.4634 Y10.7262
G01 X7.5145 Y10.7022
G01 X7.5676 Y10.6831
G01 X7.5781 Y10.6797
G01 X7.6293 Y10.6669
G01 X7.6437 Y10.6640
G01 X7.6996 Y10.6559
G01 X7.7596 Y10.6528
G01 X9.0975 Y10.6527
G01 X9.1147 Y10.6339
G01 X9.1199 Y10.6287
G01 X9.1835 Y10.5710
G01 X9.1921 Y10.5641
G01 X9.2582 Y10.5152
G01 X9.2674 Y10.5092
G01 X9.3412 Y10.4652
G01 X9.4187 Y10.4283
G01 X9.4289 Y10.4239
G01 X9.5062 Y10.3962
G01 X9.5203 Y10.3919
G01 X9.6037 Y10.3713
G01 X9.6886 Y10.3585
G01 X9.7032 Y10.3570
G01 X9.7890 Y10.3530
G01 X9.8748 Y10.3570
G01 X9.8858 Y10.3580
G01 X9.9743 Y10.3713
G01 X10.0577 Y10.3919
G01 X10.0718 Y10.3962
G01 X10.1525 Y10.4253
G01 X10.2303 Y10.4619
G01 X10.2432 Y10.4688
G01 X10.3168 Y10.5131
G01 X10.3917 Y10.5686
G01 X10.4608 Y10.6312
G01 X10.5186 Y10.6948
G01 X10.5279 Y10.7061
G01 X10.5789 Y10.7752
G01 X10.6268 Y10.8552
G01 X10.6637 Y10.9327
G01 X10.6693 Y10.9463
G01 X10.6958 Y11.0202
G01 X10.6991 Y11.0308
G01 X10.7207 Y11.1177
G01 X10.7344 Y11.2099
G01 X10.7390 Y11.3030
G01 X10.7344 Y11.3961
G01 X10.7207 Y11.4883
G01 X10.6981 Y11.5788
G01 X10.6667 Y11.6665
G01 X10.6268 Y11.7508
G01 X10.5789 Y11.8308
G01 X10.5234 Y11.9057
G01 X10.4608 Y11.9748
G01 X10.3917 Y12.0374
G01 X10.3168 Y12.0929
G01 X10.2368 Y12.1408
G01 X10.1525 Y12.1807
G01 X10.0718 Y12.2098
G01 X10.0577 Y12.2141
G01 X9.9815 Y12.2331
G01 X9.9671 Y12.2360
G01 X9.8821 Y12.2484
G01 X9.7890 Y12.2530
G01 X9.7032 Y12.2490
G01 X9.6886 Y12.2475
G01 X9.6037 Y12.2347
G01 X9.5203 Y12.2141
G01 X9.5062 Y12.2098
G01 X9.4323 Y12.1833
G01 X9.4187 Y12.1777
G01 X9.3412 Y12.1408
G01 X9.2643 Y12.0949
G01 X9.2552 Y12.0887
G01 X9.1921 Y12.0419
G01 X9.1835 Y12.0350
G01 X9.1199 Y11.9773
G01 X9.1147 Y11.9721
G01 X9.0975 Y11.9533
G01 X8.0326 Y11.9533
G01 X5.5635 Y14.4224
G01 X5.5244 Y14.4578
G01 X5.5130 Y14.4672
G01 X5.4676 Y14.5007
G01 X5.4192 Y14.5298
G01 X5.4062 Y14.5368
G01 X5.3551 Y14.5608
G01 X5.3020 Y14.5799
G01 X5.2915 Y14.5833
G01 X5.2403 Y14.5961
G01 X5.2259 Y14.5990
G01 X5.1700 Y14.6071
G01 X5.1100 Y14.6102
G01 X4.3149 Y14.6103
G01 X4.2631 Y14.6671
G01 X4.1960 Y14.7282
G01 X4.1846 Y14.7375
G01 X4.1176 Y14.7872
G01 X4.1054 Y14.7954
G01 X4.0274 Y14.8419
G01 X3.9454 Y14.8809
G01 X3.9318 Y14.8865
G01 X3.8463 Y14.9169
G01 X3.7511 Y14.9408
G01 X3.6540 Y14.9552
G01 X3.5597 Y14.9600
G01 X3.5486 Y14.9598
G01 X3.4580 Y14.9552
G01 X3.3609 Y14.9408
G01 X3.2657 Y14.9169
G01 X3.1733 Y14.8839
G01 X3.0846 Y14.8419
G01 X3.0004 Y14.7915
G01 X2.9216 Y14.7330
G01 X2.8515 Y14.6697
G01 X2.8438 Y14.6618
G01 X2.7878 Y14.6000
G01 X2.7785 Y14.5886
G01 X2.7245 Y14.5156
G01 X2.6741 Y14.4314
G01 X2.6321 Y14.3427
G01 X2.6014 Y14.2573
G01 X2.5971 Y14.2432
G01 X2.5752 Y14.1551
G01 X2.5617 Y14.0653
G01 X2.5603 Y14.0507
G01 X2.5560 Y13.9600
G01 X2.5608 Y13.8620
G01 X2.5752 Y13.7649
G01 X2.5971 Y13.6768
G01 X2.6014 Y13.6627
G01 X2.6321 Y13.5773
G01 X2.6741 Y13.4886
G01 X2.7206 Y13.4106
G01 X2.7288 Y13.3984
G01 X2.7830 Y13.3256
G01 X2.8489 Y13.2529
G01 X2.9160 Y13.1918
G01 X2.9274 Y13.1825
G01 X3.0004 Y13.1285
G01 X3.0782 Y13.0817
G01 X3.0912 Y13.0748
G01 X3.1733 Y13.0361
G01 X3.2657 Y13.0031
G01 X3.3609 Y12.9792
G01 X3.4507 Y12.9657
G01 X3.4653 Y12.9643
G01 X3.5486 Y12.9602
G01 X3.5634 Y12.9602
G00 Z2.0000
G00 X3.5585 Y10.5201
G01 F60.00
G01 Z-0.0499
G01 F60.00
G01 X3.6467 Y10.5246
G01 X3.7316 Y10.5373
G01 X3.8149 Y10.5581
G01 X3.9004 Y10.5885
G01 X3.9792 Y10.6257
G01 X4.0560 Y10.6717
G01 X4.1279 Y10.7251
G01 X4.1933 Y10.7845
G01 X4.2509 Y10.8481
G01 X4.2671 Y10.8697
G01 X4.8784 Y10.8697
G01 X7.3751 Y8.3731
G01 X7.4162 Y8.3361
G01 X7.4576 Y8.3055
G01 X7.5018 Y8.2789
G01 X7.5527 Y8.2546
G01 X7.6047 Y8.2361
G01 X7.6584 Y8.2229
G01 X7.7094 Y8.2154
G01 X7.7621 Y8.2128
G01 X9.1418 Y8.2127
G01 X9.1880 Y8.1620
G01 X9.2479 Y8.1075
G01 X9.3148 Y8.0577
G01 X9.3883 Y8.0134
G01 X9.4637 Y7.9777
G01 X9.5446 Y7.9489
G01 X9.6232 Y7.9293
G01 X9.7032 Y7.9174
G01 X9.7890 Y7.9130
G01 X9.8723 Y7.9171
G01 X9.9548 Y7.9293
G01 X10.0334 Y7.9489
G01 X10.1143 Y7.9777
G01 X10.1918 Y8.0146
G01 X10.2612 Y8.0563
G01 X10.3282 Y8.1059
G01 X10.3900 Y8.1620
G01 X10.4445 Y8.2219
G01 X10.4957 Y8.2908
G01 X10.5386 Y8.3623
G01 X10.5733 Y8.4355
G01 X10.6027 Y8.5174
G01 X10.6227 Y8.5972
G01 X10.6349 Y8.6797
G01 X10.6390 Y8.7630
G01 X10.6349 Y8.8463
G01 X10.6227 Y8.9288
G01 X10.6024 Y9.0097
G01 X10.5743 Y9.0883
G01 X10.5386 Y9.1637
G01 X10.4957 Y9.2352
G01 X10.4461 Y9.3022
G01 X10.3900 Y9.3640
G01 X10.3282 Y9.4201
G01 X10.2612 Y9.4697
G01 X10.1897 Y9.5126
G01 X10.1143 Y9.5483
G01 X10.0357 Y9.5764
G01 X9.9524 Y9.5971
G01 X9.8723 Y9.6089
G01 X9.7890 Y9.6130
G01 X9.7057 Y9.6089
G01 X9.6256 Y9.5971
G01 X9.5423 Y9.5764
G01 X9.4637 Y9.5483
G01 X9.3905 Y9.5137
G01 X9.3168 Y9.4697
G01 X9.2479 Y9.4185
G01 X9.1880 Y9.3640
G01 X9.1418 Y9.3133
G01 X7.9912 Y9.3133
G01 X5.4945 Y11.8099
G01 X5.4534 Y11.8469
G01 X5.4120 Y11.8775
G01 X5.3678 Y11.9041
G01 X5.3169 Y11.9284
G01 X5.2649 Y11.9469
G01 X5.2112 Y11.9601
G01 X5.1602 Y11.9676
G01 X5.1075 Y11.9702
G01 X4.2671 Y11.9703
G01 X4.2509 Y11.9919
G01 X4.1933 Y12.0555
G01 X4.1279 Y12.1149
G01 X4.0560 Y12.1683
G01 X3.9813 Y12.2131
G01 X3.9004 Y12.2515
G01 X3.8173 Y12.2812
G01 X3.7316 Y12.3027
G01 X3.6430 Y12.3158
G01 X3.5560 Y12.3200
G01 X3.4678 Y12.3157
G01 X3.3804 Y12.3027
G01 X3.2947 Y12.2812
G01 X3.2116 Y12.2515
G01 X3.1317 Y12.2137
G01 X3.0560 Y12.1683
G01 X2.9850 Y12.1157
G01 X2.9196 Y12.0564
G01 X2.8619 Y11.9928
G01 X2.8077 Y11.9200
G01 X2.7623 Y11.8443
G01 X2.7255 Y11.7667
G01 X2.6941 Y11.6789
G01 X2.6733 Y11.5956
G01 X2.6603 Y11.5082
G01 X2.6560 Y11.4200
G01 X2.6602 Y11.3342
G01 X2.6738 Y11.2420
G01 X2.6948 Y11.1587
G01 X2.7236 Y11.0779
G01 X2.7635 Y10.9936
G01 X2.8077 Y10.9200
G01 X2.8603 Y10.8490
G01 X2.9196 Y10.7836
G01 X2.9832 Y10.7259
G01 X3.0560 Y10.6717
G01 X3.1339 Y10.6252
G01 X3.2116 Y10.5885
G01 X3.2947 Y10.5588
G01 X3.3804 Y10.5373
G01 X3.4653 Y10.5246
G01 X3.5585 Y10.5201
G00 Z2.0000
G00 X3.5634 Y10.4202
G01 F60.00
G01 Z-0.0499
G01 F60.00
G01 X3.6540 Y10.4248
G01 X3.7511 Y10.4392
G01 X3.8463 Y10.4631
G01 X3.9318 Y10.4935
G01 X3.9454 Y10.4991
G01 X4.0274 Y10.5381
G01 X4.1054 Y10.5846
G01 X4.1176 Y10.5928
G01 X4.1846 Y10.6425
G01 X4.1960 Y10.6518
G01 X4.2631 Y10.7129
G01 X4.3149 Y10.7697
G01 X4.8370 Y10.7697
G01 X7.3061 Y8.3006
G01 X7.3452 Y8.2652
G01 X7.3566 Y8.2558
G01 X7.4020 Y8.2223
G01 X7.4504 Y8.1932
G01 X7.4634 Y8.1862
G01 X7.5145 Y8.1622
G01 X7.5676 Y8.1431
G01 X7.5781 Y8.1397
G01 X7.6293 Y8.1269
G01 X7.6437 Y8.1240
G01 X7.6996 Y8.1159
G01 X7.7596 Y8.1128
G01 X9.0975 Y8.1127
G01 X9.1147 Y8.0939
G01 X9.1199 Y8.0887
G01 X9.1835 Y8.0310
G01 X9.1921 Y8.0241
G01 X9.2582 Y7.9752
G01 X9.2674 Y7.9692
G01 X9.3412 Y7.9252
G01 X9.4187 Y7.8883
G01 X9.4289 Y7.8839
G01 X9.5062 Y7.8562
G01 X9.5203 Y7.8519
G01 X9.6037 Y7.8313
G01 X9.6886 Y7.8185
G01 X9.7032 Y7.8170
G01 X9.7890 Y7.8130
G01 X9.8748 Y7.8170
G01 X9.8858 Y7.8180
G01 X9.9743 Y7.8313
G01 X10.0577 Y7.8519
G01 X10.0718 Y7.8562
G01 X10.1525 Y7.8853
G01 X10.2303 Y7.9219
G01 X10.2432 Y7.9288
G01 X10.3168 Y7.9731
G01 X10.3917 Y8.0286
G01 X10.4608 Y8.0912
G01 X10.5186 Y8.1548
G01 X10.5279 Y8.1661
G01 X10.5789 Y8.2352
G01 X10.6268 Y8.3152
G01 X10.6637 Y8.3927
G01 X10.6693 Y8.4063
G01 X10.6958 Y8.4802
G01 X10.6991 Y8.4908
G01 X10.7207 Y8.5777
G01 X10.7344 Y8.6699
G01 X10.7390 Y8.7630
G01 X10.7344 Y8.8561
G01 X10.7207 Y8.9483
G01 X10.6981 Y9.0388
G01 X10.6667 Y9.1265
G01 X10.6268 Y9.2108
G01 X10.5789 Y9.2908
G01 X10.5234 Y9.3657
G01 X10.4608 Y9.4348
G01 X10.3917 Y9.4974
G01 X10.3168 Y9.5529
G01 X10.2368 Y9.6008
G01 X10.1525 Y9.6407
G01 X10.0718 Y9.6698
G01 X10.0577 Y9.6741
G01 X9.9815 Y9.6931
G01 X9.9671 Y9.6960
G01 X9.8821 Y9.7084
G01 X9.7890 Y9.7130
G01 X9.7032 Y9.7090
G01 X9.6886 Y9.7075
G01 X9.6037 Y9.6947
G01 X9.5203 Y9.6741
G01 X9.5062 Y9.6698
G01 X9.4323 Y9.6433
G01 X9.4187 Y9.6377
G01 X9.3412 Y9.6008
G01 X9.2643 Y9.5549
G01 X9.2552 Y9.5487
G01 X9.1921 Y9.5019
G01 X9.1835 Y9.4950
G01 X9.1199 Y9.4373
G01 X9.1147 Y9.4321
G01 X9.0975 Y9.4133
G01 X8.0326 Y9.4133
G01 X5.5635 Y11.8824
G01 X5.5244 Y11.9178
G01 X5.5130 Y11.9272
G01 X5.4676 Y11.9607
G01 X5.4192 Y11.9898
G01 X5.4062 Y11.9968
G01 X5.3551 Y12.0208
G01 X5.3020 Y12.0399
G01 X5.2915 Y12.0433
G01 X5.2403 Y12.0561
G01 X5.2259 Y12.0590
G01 X5.1700 Y12.0671
G01 X5.1100 Y12.0702
G01 X4.3149 Y12.0703
G01 X4.2631 Y12.1271
G01 X4.1960 Y12.1882
G01 X4.1846 Y12.1975
G01 X4.1176 Y12.2472
G01 X4.1054 Y12.2554
G01 X4.0274 Y12.3019
G01 X3.9454 Y12.3409
G01 X3.9318 Y12.3465
G01 X3.8463 Y12.3769
G01 X3.7511 Y12.4008
G01 X3.6540 Y12.4152
G01 X3.5597 Y12.4200
G01 X3.5486 Y12.4198
G01 X3.4580 Y12.4152
G01 X3.3609 Y12.4008
G01 X3.2657 Y12.3769
G01 X3.1733 Y12.3439
G01 X3.0846 Y12.3019
G01 X3.0004 Y12.2515
G01 X2.9216 Y12.1930
G01 X2.8515 Y12.1297
G01 X2.8438 Y12.1218
G01 X2.7878 Y12.0600
G01 X2.7785 Y12.0486
G01 X2.7245 Y11.9756
G01 X2.6741 Y11.8914
G01 X2.6321 Y11.8027
G01 X2.6014 Y11.7173
G01 X2.5971 Y11.7032
G01 X2.5752 Y11.6151
G01 X2.5617 Y11.5253
G01 X2.5603 Y11.5107
G01 X2.5560 Y11.4200
G01 X2.5608 Y11.3220
G01 X2.5752 Y11.2249
G01 X2.5971 Y11.1368
G01 X2.6014 Y11.1227
G01 X2.6321 Y11.0373
G01 X2.6741 Y10.9486
G01 X2.7206 Y10.8706
G01 X2.7288 Y10.8584
G01 X2.7830 Y10.7856
G01 X2.8489 Y10.7129
G01 X2.9160 Y10.6518
G01 X2.9274 Y10.6425
G01 X3.0004 Y10.5885
G01 X3.0782 Y10.5417
G01 X3.0912 Y10.5348
G01 X3.1733 Y10.4961
G01 X3.2657 Y10.4631
G01 X3.3609 Y10.4392
G01 X3.4507 Y10.4257
G01 X3.4653 Y10.4243
G01 X3.5486 Y10.4202
G01 X3.5634 Y10.4202
G00 Z2.0000
G00 X3.5634 Y27.5652
G01 F60.00
G01 Z-0.0499
G01 F60.00
G01 X3.6540 Y27.5698
G01 X3.7511 Y27.5842
G01 X3.8463 Y27.6081
G01 X3.9387 Y27.6411
G01 X4.0274 Y27.6831
G01 X4.1116 Y27.7335
G01 X4.1904 Y27.7920
G01 X4.2631 Y27.8579
G01 X4.3290 Y27.9306
G01 X4.3875 Y28.0094
G01 X4.4379 Y28.0936
G01 X4.4799 Y28.1823
G01 X4.5129 Y28.2747
G01 X4.5368 Y28.3699
G01 X4.5512 Y28.4670
G01 X4.5560 Y28.5650
G01 X4.5512 Y28.6630
G01 X4.5368 Y28.7601
G01 X4.5129 Y28.8553
G01 X4.4799 Y28.9477
G01 X4.4379 Y29.0364
G01 X4.3875 Y29.1206
G01 X4.3290 Y29.1994
G01 X4.2631 Y29.2721
G01 X4.1904 Y29.3380
G01 X4.1116 Y29.3965
G01 X4.0274 Y29.4469
G01 X3.9387 Y29.4889
G01 X3.8463 Y29.5219
G01 X3.7511 Y29.5458
G01 X3.6540 Y29.5602
G01 X3.5560 Y29.5650
G01 X3.4580 Y29.5602
G01 X3.3609 Y29.5458
G01 X3.2657 Y29.5219
G01 X3.1733 Y29.4889
G01 X3.0846 Y29.4469
G01 X3.0004 Y29.3965
G01 X2.9216 Y29.3380
G01 X2.8489 Y29.2721
G01 X2.7830 Y29.1994
G01 X2.7245 Y29.1206
G01 X2.6741 Y29.0364
G01 X2.6321 Y28.9477
G01 X2.5991 Y28.8553
G01 X2.5752 Y28.7601
G01 X2.5608 Y28.6630
G01 X2.5560 Y28.5650
G01 X2.5608 Y28.4670
G01 X2.5752 Y28.3699
G01 X2.5991 Y28.2747
G01 X2.6321 Y28.1823
G01 X2.6741 Y28.0936
G01 X2.7245 Y28.0094
G01 X2.7830 Y27.9306
G01 X2.8489 Y27.8579
G01 X2.9216 Y27.7920
G01 X3.0004 Y27.7335
G01 X3.0846 Y27.6831
G01 X3.1733 Y27.6411
G01 X3.2657 Y27.6081
G01 X3.3609 Y27.5842
G01 X3.4580 Y27.5698
G01 X3.5486 Y27.5652
G01 X3.5634 Y27.5652
G00 Z2.0000
G00 X3.5585 Y27.6651
G01 F60.00
G01 Z-0.0499
G01 F60.00
G01 X3.6442 Y27.6693
G01 X3.7316 Y27.6823
G01 X3.8173 Y27.7038
G01 X3.9004 Y27.7335
G01 X3.9803 Y27.7713
G01 X4.0560 Y27.8167
G01 X4.1270 Y27.8693
G01 X4.1924 Y27.9286
G01 X4.2517 Y27.9940
G01 X4.3043 Y28.0650
G01 X4.3497 Y28.1407
G01 X4.3875 Y28.2206
G01 X4.4172 Y28.3037
G01 X4.4387 Y28.3894
G01 X4.4517 Y28.4768
G01 X4.4560 Y28.5650
G01 X4.4517 Y28.6532
G01 X4.4387 Y28.7406
G01 X4.4172 Y28.8263
G01 X4.3875 Y28.9094
G01 X4.3497 Y28.9893
G01 X4.3043 Y29.0650
G01 X4.2517 Y29.1360
G01 X4.1924 Y29.2014
G01 X4.1270 Y29.2607
G01 X4.0560 Y29.3133
G01 X3.9803 Y29.3587
G01 X3.9004 Y29.3965
G01 X3.8173 Y29.4262
G01 X3.7316 Y29.4477
G01 X3.6442 Y29.4607
G01 X3.5560 Y29.4650
G01 X3.4678 Y29.4607
G01 X3.3804 Y29.4477
G01 X3.2947 Y29.4262
G01 X3.2116 Y29.3965
G01 X3.1317 Y29.3587
G01 X3.0560 Y29.3133
G01 X2.9850 Y29.2607
G01 X2.9196 Y29.2014
G01 X2.8603 Y29.1360
G01 X2.8077 Y29.0650
G01 X2.7623 Y28.9893
G01 X2.7245 Y28.9094
G01 X2.6948 Y28.8263
G01 X2.6733 Y28.7406
G01 X2.6603 Y28.6532
G01 X2.6560 Y28.5650
G01 X2.6603 Y28.4768
G01 X2.6733 Y28.3894
G01 X2.6948 Y28.3037
G01 X2.7245 Y28.2206
G01 X2.7623 Y28.1407
G01 X2.8077 Y28.0650
G01 X2.8603 Y27.9940
G01 X2.9196 Y27.9286
G01 X2.9850 Y27.8693
G01 X3.0560 Y27.8167
G01 X3.1317 Y27.7713
G01 X3.2116 Y27.7335
G01 X3.2947 Y27.7038
G01 X3.3804 Y27.6823
G01 X3.4678 Y27.6693
G01 X3.5585 Y27.6651
G00 Z2.0000
G00 X3.5634 Y30.1052
G01 F60.00
G01 Z-0.0499
G01 F60.00
G01 X3.6540 Y30.1098
G01 X3.7511 Y30.1242
G01 X3.8463 Y30.1481
G01 X3.9387 Y30.1811
G01 X4.0274 Y30.2231
G01 X4.1116 Y30.2735
G01 X4.1904 Y30.3320
G01 X4.2631 Y30.3979
G01 X4.3290 Y30.4706
G01 X4.3875 Y30.5494
G01 X4.4379 Y30.6336
G01 X4.4799 Y30.7223
G01 X4.5129 Y30.8147
G01 X4.5368 Y30.9099
G01 X4.5512 Y31.0070
G01 X4.5560 Y31.1050
G01 X4.5512 Y31.2030
G01 X4.5368 Y31.3001
G01 X4.5129 Y31.3953
G01 X4.4799 Y31.4877
G01 X4.4379 Y31.5764
G01 X4.3875 Y31.6606
G01 X4.3290 Y31.7394
G01 X4.2631 Y31.8121
G01 X4.1904 Y31.8780
G01 X4.1116 Y31.9365
G01 X4.0274 Y31.9869
G01 X3.9387 Y32.0289
G01 X3.8463 Y32.0619
G01 X3.7511 Y32.0858
G01 X3.6540 Y32.1002
G01 X3.5560 Y32.1050
G01 X3.4580 Y32.1002
G01 X3.3609 Y32.0858
G01 X3.2657 Y32.0619
G01 X3.1733 Y32.0289
G01 X3.0846 Y31.9869
G01 X3.0004 Y31.9365
G01 X2.9216 Y31.8780
G01 X2.8489 Y31.8121
G01 X2.7830 Y31.7394
G01 X2.7245 Y31.6606
G01 X2.6741 Y31.5764
G01 X2.6321 Y31.4877
G01 X2.5991 Y31.3953
G01 X2.5752 Y31.3001
G01 X2.5608 Y31.2030
G01 X2.5560 Y31.1050
G01 X2.5608 Y31.0070
G01 X2.5752 Y30.9099
G01 X2.5991 Y30.8147
G01 X2.6321 Y30.7223
G01 X2.6741 Y30.6336
G01 X2.7245 Y30.5494
G01 X2.7830 Y30.4706
G01 X2.8489 Y30.3979
G01 X2.9216 Y30.3320
G01 X3.0004 Y30.2735
G01 X3.0846 Y30.2231
G01 X3.1733 Y30.1811
G01 X3.2657 Y30.1481
G01 X3.3609 Y30.1242
G01 X3.4580 Y30.1098
G01 X3.5486 Y30.1052
G01 X3.5634 Y30.1052
G00 Z2.0000
G00 X3.5585 Y30.2051
G01 F60.00
G01 Z-0.0499
G01 F60.00
G01 X3.6442 Y30.2093
G01 X3.7316 Y30.2223
G01 X3.8173 Y30.2438
G01 X3.9004 Y30.2735
G01 X3.9803 Y30.3113
G01 X4.0560 Y30.3567
G01 X4.1270 Y30.4093
G01 X4.1924 Y30.4686
G01 X4.2517 Y30.5340
G01 X4.3043 Y30.6050
G01 X4.3497 Y30.6807
G01 X4.3875 Y30.7606
G01 X4.4172 Y30.8437
G01 X4.4387 Y30.9294
G01 X4.4517 Y31.0168
G01 X4.4560 Y31.1050
G01 X4.4517 Y31.1932
G01 X4.4387 Y31.2806
G01 X4.4172 Y31.3663
G01 X4.3875 Y31.4494
G01 X4.3497 Y31.5293
G01 X4.3043 Y31.6050
G01 X4.2517 Y31.6760
G01 X4.1924 Y31.7414
G01 X4.1270 Y31.8007
G01 X4.0560 Y31.8533
G01 X3.9803 Y31.8987
G01 X3.9004 Y31.9365
G01 X3.8173 Y31.9662
G01 X3.7316 Y31.9877
G01 X3.6442 Y32.0007
G01 X3.5560 Y32.0050
G01 X3.4678 Y32.0007
G01 X3.3804 Y31.9877
G01 X3.2947 Y31.9662
G01 X3.2116 Y31.9365
G01 X3.1317 Y31.8987
G01 X3.0560 Y31.8533
G01 X2.9850 Y31.8007
G01 X2.9196 Y31.7414
G01 X2.8603 Y31.6760
G01 X2.8077 Y31.6050
G01 X2.7623 Y31.5293
G01 X2.7245 Y31.4494
G01 X2.6948 Y31.3663
G01 X2.6733 Y31.2806
G01 X2.6603 Y31.1932
G01 X2.6560 Y31.1050
G01 X2.6603 Y31.0168
G01 X2.6733 Y30.9294
G01 X2.6948 Y30.8437
G01 X2.7245 Y30.7606
G01 X2.7623 Y30.6807
G01 X2.8077 Y30.6050
G01 X2.8603 Y30.5340
G01 X2.9196 Y30.4686
G01 X2.9850 Y30.4093
G01 X3.0560 Y30.3567
G01 X3.1317 Y30.3113
G01 X3.2116 Y30.2735
G01 X3.2947 Y30.2438
G01 X3.3804 Y30.2223
G01 X3.4678 Y30.2093
G01 X3.5585 Y30.2051
G00 Z2.0000
G00 X3.5634 Y32.6452
G01 F60.00
G01 Z-0.0499
G01 F60.00
G01 X3.6540 Y32.6498
G01 X3.7511 Y32.6642
G01 X3.8463 Y32.6881
G01 X3.9318 Y32.7185
G01 X3.9454 Y32.7241
G01 X4.0274 Y32.7631
G01 X4.1054 Y32.8096
G01 X4.1176 Y32.8178
G01 X4.1846 Y32.8675
G01 X4.1960 Y32.8768
G01 X4.2631 Y32.9379
G01 X4.3149 Y32.9947
G01 X4.6927 Y32.9948
G01 X4.7527 Y32.9979
G01 X4.8086 Y33.0060
G01 X4.8230 Y33.0089
G01 X4.8778 Y33.0227
G01 X4.9378 Y33.0442
G01 X4.9955 Y33.0715
G01 X5.0440 Y33.1004
G01 X5.0533 Y33.1064
G01 X5.1015 Y33.1423
G01 X5.1488 Y33.1852
G01 X6.9368 Y34.9732
G01 X6.9748 Y35.0149
G01 X6.9842 Y35.0263
G01 X7.0177 Y35.0717
G01 X7.0487 Y35.1232
G01 X7.0538 Y35.1331
G01 X7.0778 Y35.1842
G01 X7.0969 Y35.2373
G01 X7.1012 Y35.2513
G01 X7.1148 Y35.3061
G01 X7.1232 Y35.3620
G01 X7.1247 Y35.3766
G01 X7.1272 Y35.4293
G01 X7.1273 Y40.1067
G01 X9.7598 Y42.7393
G01 X9.7853 Y42.7380
G01 X9.7927 Y42.7380
G01 X9.8784 Y42.7423
G01 X9.8894 Y42.7435
G01 X9.9671 Y42.7550
G01 X9.9779 Y42.7570
G01 X10.0577 Y42.7769
G01 X10.0718 Y42.7812
G01 X10.1525 Y42.8103
G01 X10.2336 Y42.8485
G01 X10.2432 Y42.8538
G01 X10.3168 Y42.8981
G01 X10.3859 Y42.9491
G01 X10.3972 Y42.9584
G01 X10.4608 Y43.0162
G01 X10.5186 Y43.0798
G01 X10.5279 Y43.0911
G01 X10.5768 Y43.1572
G01 X10.5828 Y43.1664
G01 X10.6268 Y43.2402
G01 X10.6667 Y43.3245
G01 X10.6981 Y43.4122
G01 X10.7207 Y43.5027
G01 X10.7344 Y43.5949
G01 X10.7390 Y43.6880
G01 X10.7344 Y43.7811
G01 X10.7220 Y43.8661
G01 X10.7191 Y43.8805
G01 X10.7001 Y43.9567
G01 X10.6958 Y43.9708
G01 X10.6667 Y44.0515
G01 X10.6301 Y44.1293
G01 X10.6232 Y44.1422
G01 X10.5789 Y44.2158
G01 X10.5279 Y44.2849
G01 X10.5186 Y44.2962
G01 X10.4608 Y44.3598
G01 X10.3917 Y44.4224
G01 X10.3168 Y44.4779
G01 X10.2401 Y44.5240
G01 X10.2303 Y44.5291
G01 X10.1593 Y44.5627
G01 X10.1457 Y44.5683
G01 X10.0648 Y44.5971
G01 X9.9743 Y44.6197
G01 X9.8821 Y44.6334
G01 X9.7964 Y44.6378
G01 X9.7816 Y44.6378
G01 X9.6959 Y44.6334
G01 X9.6037 Y44.6197
G01 X9.5203 Y44.5991
G01 X9.5062 Y44.5948
G01 X9.4255 Y44.5657
G01 X9.3412 Y44.5258
G01 X9.2674 Y44.4818
G01 X9.2552 Y44.4737
G01 X9.1921 Y44.4269
G01 X9.1808 Y44.4176
G01 X9.1172 Y44.3598
G01 X9.0594 Y44.2962
G01 X9.0501 Y44.2849
G01 X9.0033 Y44.2218
G01 X8.9952 Y44.2096
G01 X8.9512 Y44.1358
G01 X8.9128 Y44.0549
G01 X8.9087 Y44.0447
G01 X8.8799 Y43.9638
G01 X8.8589 Y43.8805
G01 X8.8566 Y43.8697
G01 X8.8445 Y43.7884
G01 X8.8433 Y43.7774
G01 X8.8390 Y43.6917
G01 X8.8390 Y43.6843
G01 X8.8403 Y43.6588
G01 X6.0172 Y40.8358
G01 X5.9792 Y40.7941
G01 X5.9698 Y40.7827
G01 X5.9363 Y40.7373
G01 X5.9053 Y40.6858
G01 X5.9002 Y40.6759
G01 X5.8762 Y40.6248
G01 X5.8571 Y40.5717
G01 X5.8528 Y40.5577
G01 X5.8392 Y40.5029
G01 X5.8308 Y40.4470
G01 X5.8293 Y40.4324
G01 X5.8268 Y40.3797
G01 X5.8267 Y35.7023
G01 X4.4197 Y34.2953
G01 X4.3149 Y34.2953
G01 X4.2631 Y34.3521
G01 X4.1960 Y34.4132
G01 X4.1846 Y34.4225
G01 X4.1146 Y34.4744
G01 X4.1054 Y34.4804
G01 X4.0274 Y34.5269
G01 X3.9454 Y34.5659
G01 X3.9318 Y34.5715
G01 X3.8533 Y34.5996
G01 X3.8392 Y34.6039
G01 X3.7511 Y34.6258
G01 X3.6613 Y34.6393
G01 X3.6467 Y34.6407
G01 X3.5560 Y34.6450
G01 X3.4653 Y34.6407
G01 X3.4507 Y34.6393
G01 X3.3609 Y34.6258
G01 X3.2657 Y34.6019
G01 X3.1733 Y34.5689
G01 X3.0912 Y34.5302
G01 X3.0782 Y34.5233
G01 X3.0004 Y34.4765
G01 X2.9274 Y34.4225
G01 X2.9160 Y34.4132
G01 X2.8489 Y34.3521
G01 X2.7878 Y34.2850
G01 X2.7785 Y34.2736
G01 X2.7288 Y34.2066
G01 X2.7206 Y34.1944
G01 X2.6777 Y34.1228
G01 X2.6708 Y34.1098
G01 X2.6321 Y34.0277
G01 X2.6014 Y33.9423
G01 X2.5971 Y33.9282
G01 X2.5752 Y33.8401
G01 X2.5617 Y33.7503
G01 X2.5603 Y33.7357
G01 X2.5560 Y33.6450
G01 X2.5603 Y33.5543
G01 X2.5617 Y33.5397
G01 X2.5752 Y33.4499
G01 X2.5971 Y33.3618
G01 X2.6014 Y33.3477
G01 X2.6321 Y33.2623
G01 X2.6741 Y33.1736
G01 X2.7206 Y33.0956
G01 X2.7288 Y33.0834
G01 X2.7830 Y33.0106
G01 X2.8489 Y32.9379
G01 X2.9160 Y32.8768
G01 X2.9274 Y32.8675
G01 X3.0004 Y32.8135
G01 X3.0782 Y32.7667
G01 X3.0912 Y32.7598
G01 X3.1733 Y32.7211
G01 X3.2587 Y32.6904
G01 X3.2728 Y32.6861
G01 X3.3609 Y32.6642
G01 X3.4507 Y32.6507
G01 X3.4653 Y32.6493
G01 X3.5486 Y32.6452
G01 X3.5634 Y32.6452
G00 Z2.0000
G00 X3.5585 Y32.7451
G01 F60.00
G01 Z-0.0499
G01 F60.00
G01 X3.6467 Y32.7496
G01 X3.7316 Y32.7623
G01 X3.8149 Y32.7831
G01 X3.9004 Y32.8135
G01 X3.9792 Y32.8507
G01 X4.0560 Y32.8967
G01 X4.1279 Y32.9501
G01 X4.1933 Y33.0095
G01 X4.2509 Y33.0731
G01 X4.2671 Y33.0947
G01 X4.6890 Y33.0947
G01 X4.7442 Y33.0975
G01 X4.7987 Y33.1059
G01 X4.8487 Y33.1184
G01 X4.8973 Y33.1358
G01 X4.9484 Y33.1597
G01 X4.9957 Y33.1882
G01 X5.0381 Y33.2197
G01 X5.0781 Y33.2559
G01 X6.8661 Y35.0439
G01 X6.9039 Y35.0859
G01 X6.9345 Y35.1273
G01 X6.9617 Y35.1725
G01 X6.9854 Y35.2224
G01 X7.0042 Y35.2756
G01 X7.0167 Y35.3257
G01 X7.0243 Y35.3766
G01 X7.0272 Y35.4318
G01 X7.0273 Y40.1481
G01 X9.7205 Y42.8413
G01 X9.7890 Y42.8380
G01 X9.8699 Y42.8419
G01 X9.9548 Y42.8543
G01 X10.0381 Y42.8754
G01 X10.1143 Y42.9027
G01 X10.1875 Y42.9373
G01 X10.2612 Y42.9813
G01 X10.3301 Y43.0325
G01 X10.3900 Y43.0870
G01 X10.4445 Y43.1469
G01 X10.4943 Y43.2138
G01 X10.5386 Y43.2873
G01 X10.5743 Y43.3627
G01 X10.6024 Y43.4413
G01 X10.6227 Y43.5222
G01 X10.6349 Y43.6047
G01 X10.6390 Y43.6880
G01 X10.6349 Y43.7713
G01 X10.6221 Y43.8562
G01 X10.6016 Y43.9371
G01 X10.5743 Y44.0133
G01 X10.5397 Y44.0865
G01 X10.4957 Y44.1602
G01 X10.4476 Y44.2253
G01 X10.3900 Y44.2890
G01 X10.3282 Y44.3451
G01 X10.2612 Y44.3947
G01 X10.1908 Y44.4370
G01 X10.1120 Y44.4742
G01 X10.0357 Y44.5014
G01 X9.9548 Y44.5217
G01 X9.8723 Y44.5339
G01 X9.7915 Y44.5379
G01 X9.7057 Y44.5339
G01 X9.6232 Y44.5217
G01 X9.5446 Y44.5021
G01 X9.4637 Y44.4733
G01 X9.3883 Y44.4376
G01 X9.3188 Y44.3961
G01 X9.2479 Y44.3435
G01 X9.1880 Y44.2890
G01 X9.1335 Y44.2291
G01 X9.0837 Y44.1622
G01 X9.0394 Y44.0887
G01 X9.0037 Y44.0133
G01 X8.9756 Y43.9347
G01 X8.9549 Y43.8514
G01 X8.9429 Y43.7689
G01 X8.9390 Y43.6880
G01 X8.9423 Y43.6195
G01 X6.0879 Y40.7651
G01 X6.0501 Y40.7231
G01 X6.0195 Y40.6817
G01 X5.9923 Y40.6365
G01 X5.9686 Y40.5866
G01 X5.9498 Y40.5334
G01 X5.9373 Y40.4833
G01 X5.9297 Y40.4324
G01 X5.9268 Y40.3772
G01 X5.9267 Y35.6609
G01 X4.4611 Y34.1953
G01 X4.2671 Y34.1953
G01 X4.2509 Y34.2169
G01 X4.1933 Y34.2805
G01 X4.1279 Y34.3399
G01 X4.0560 Y34.3933
G01 X3.9792 Y34.4393
G01 X3.9004 Y34.4765
G01 X3.8149 Y34.5069
G01 X3.7316 Y34.5277
G01 X3.6467 Y34.5404
G01 X3.5572 Y34.5450
G01 X3.4678 Y34.5407
G01 X3.3804 Y34.5277
G01 X3.2947 Y34.5062
G01 X3.2093 Y34.4755
G01 X3.1317 Y34.4387
G01 X3.0581 Y34.3946
G01 X2.9870 Y34.3422
G01 X2.9196 Y34.2814
G01 X2.8603 Y34.2160
G01 X2.8064 Y34.1429
G01 X2.7623 Y34.0693
G01 X2.7245 Y33.9894
G01 X2.6941 Y33.9039
G01 X2.6733 Y33.8206
G01 X2.6603 Y33.7332
G01 X2.6560 Y33.6450
G01 X2.6602 Y33.5592
G01 X2.6733 Y33.4694
G01 X2.6955 Y33.3814
G01 X2.7245 Y33.3006
G01 X2.7612 Y33.2229
G01 X2.8077 Y33.1450
G01 X2.8619 Y33.0722
G01 X2.9196 Y33.0086
G01 X2.9832 Y32.9509
G01 X3.0581 Y32.8954
G01 X3.1317 Y32.8513
G01 X3.2093 Y32.8145
G01 X3.2947 Y32.7838
G01 X3.3804 Y32.7623
G01 X3.4653 Y32.7496
G01 X3.5585 Y32.7451
G00 Z2.0000
G00 X2.6560 Y37.0350
G01 F60.00
G01 Z-0.0499
G01 F60.00
G01 X2.6560 Y35.3350
G01 X2.6570 Y35.3252
G01 X2.6598 Y35.3159
G01 X2.6619 Y35.3114
G01 X2.6651 Y35.3062
G01 X2.6715 Y35.2988
G01 X2.6793 Y35.2928
G01 X2.6880 Y35.2884
G01 X2.6975 Y35.2857
G01 X2.7060 Y35.2850
G01 X4.4060 Y35.2850
G01 X4.4158 Y35.2860
G01 X4.4205 Y35.2872
G01 X4.4263 Y35.2893
G01 X4.4348 Y35.2941
G01 X4.4422 Y35.3005
G01 X4.4476 Y35.3072
G01 X4.4522 Y35.3159
G01 X4.4550 Y35.3252
G01 X4.4560 Y35.3350
G01 X4.4560 Y37.0350
G01 X4.4558 Y37.0399
G01 X4.4548 Y37.0460
G01 X4.4517 Y37.0553
G01 X4.4469 Y37.0638
G01 X4.4405 Y37.0712
G01 X4.4327 Y37.0772
G01 X4.4251 Y37.0812
G01 X4.4158 Y37.0840
G01 X4.4060 Y37.0850
G01 X2.7048 Y37.0850
G01 X2.6950 Y37.0838
G01 X2.6857 Y37.0807
G01 X2.6782 Y37.0766
G01 X2.6706 Y37.0704
G01 X2.6644 Y37.0628
G01 X2.6598 Y37.0541
G01 X2.6570 Y37.0448
G01 X2.6560 Y37.0350
G00 Z2.0000
G00 X2.5560 Y37.0350
G01 F60.00
G01 Z-0.0499
G01 F60.00
G01 X2.5560 Y35.3313
G01 X2.5571 Y35.3166
G01 X2.5596 Y35.3021
G01 X2.5636 Y35.2879
G01 X2.5689 Y35.2742
G01 X2.5755 Y35.2611
G01 X2.5813 Y35.2517
G01 X2.5855 Y35.2456
G01 X2.5949 Y35.2343
G01 X2.6053 Y35.2239
G01 X2.6137 Y35.2167
G01 X2.6258 Y35.2083
G01 X2.6386 Y35.2010
G01 X2.6486 Y35.1964
G01 X2.6625 Y35.1915
G01 X2.6767 Y35.1879
G01 X2.6913 Y35.1857
G01 X2.7023 Y35.1850
G01 X4.4060 Y35.1850
G01 X4.4207 Y35.1857
G01 X4.4280 Y35.1866
G01 X4.4389 Y35.1886
G01 X4.4531 Y35.1926
G01 X4.4668 Y35.1979
G01 X4.4734 Y35.2010
G01 X4.4831 Y35.2063
G01 X4.4954 Y35.2145
G01 X4.5067 Y35.2239
G01 X4.5171 Y35.2343
G01 X4.5265 Y35.2456
G01 X4.5347 Y35.2579
G01 X4.5400 Y35.2676
G01 X4.5459 Y35.2810
G01 X4.5506 Y35.2950
G01 X4.5531 Y35.3057
G01 X4.5549 Y35.3166
G01 X4.5560 Y35.3313
G01 X4.5560 Y37.0350
G01 X4.5553 Y37.0497
G01 X4.5531 Y37.0643
G01 X4.5495 Y37.0785
G01 X4.5472 Y37.0855
G01 X4.5431 Y37.0958
G01 X4.5365 Y37.1089
G01 X4.5307 Y37.1183
G01 X4.5265 Y37.1244
G01 X4.5171 Y37.1357
G01 X4.5067 Y37.1461
G01 X4.4954 Y37.1555
G01 X4.4862 Y37.1617
G01 X4.4734 Y37.1690
G01 X4.4600 Y37.1749
G01 X4.4495 Y37.1785
G01 X4.4353 Y37.1821
G01 X4.4207 Y37.1843
G01 X4.4097 Y37.1850
G01 X2.6986 Y37.1848
G01 X2.6840 Y37.1834
G01 X2.6696 Y37.1805
G01 X2.6555 Y37.1762
G01 X2.6419 Y37.1706
G01 X2.6289 Y37.1637
G01 X2.6166 Y37.1555
G01 X2.6080 Y37.1486
G01 X2.5974 Y37.1384
G01 X2.5900 Y37.1302
G01 X2.5813 Y37.1183
G01 X2.5737 Y37.1057
G01 X2.5674 Y37.0924
G01 X2.5625 Y37.0785
G01 X2.5589 Y37.0643
G01 X2.5567 Y37.0497
G01 X2.5560 Y37.0350
G00 Z2.0000
G00 X9.7964 Y37.6582
G01 F60.00
G01 Z-0.0499
G01 F60.00
G01 X9.8821 Y37.6626
G01 X9.9743 Y37.6763
G01 X10.0648 Y37.6989
G01 X10.1525 Y37.7303
G01 X10.2368 Y37.7702
G01 X10.3168 Y37.8181
G01 X10.3917 Y37.8736
G01 X10.4608 Y37.9362
G01 X10.5234 Y38.0053
G01 X10.5789 Y38.0802
G01 X10.6268 Y38.1602
G01 X10.6667 Y38.2445
G01 X10.6981 Y38.3322
G01 X10.7207 Y38.4227
G01 X10.7344 Y38.5149
G01 X10.7390 Y38.6080
G01 X10.7344 Y38.7011
G01 X10.7207 Y38.7933
G01 X10.6981 Y38.8838
G01 X10.6667 Y38.9715
G01 X10.6268 Y39.0558
G01 X10.5789 Y39.1358
G01 X10.5234 Y39.2107
G01 X10.4608 Y39.2798
G01 X10.3917 Y39.3424
G01 X10.3168 Y39.3979
G01 X10.2368 Y39.4458
G01 X10.1525 Y39.4857
G01 X10.0648 Y39.5171
G01 X9.9743 Y39.5397
G01 X9.8821 Y39.5534
G01 X9.7890 Y39.5580
G01 X9.6959 Y39.5534
G01 X9.6037 Y39.5397
G01 X9.5132 Y39.5171
G01 X9.4255 Y39.4857
G01 X9.3412 Y39.4458
G01 X9.2612 Y39.3979
G01 X9.1863 Y39.3424
G01 X9.1172 Y39.2798
G01 X9.0546 Y39.2107
G01 X8.9991 Y39.1358
G01 X8.9512 Y39.0558
G01 X8.9113 Y38.9715
G01 X8.8799 Y38.8838
G01 X8.8573 Y38.7933
G01 X8.8436 Y38.7011
G01 X8.8390 Y38.6080
G01 X8.8436 Y38.5149
G01 X8.8573 Y38.4227
G01 X8.8799 Y38.3322
G01 X8.9113 Y38.2445
G01 X8.9512 Y38.1602
G01 X8.9991 Y38.0802
G01 X9.0546 Y38.0053
G01 X9.1172 Y37.9362
G01 X9.1863 Y37.8736
G01 X9.2612 Y37.8181
G01 X9.3412 Y37.7702
G01 X9.4255 Y37.7303
G01 X9.5132 Y37.6989
G01 X9.6037 Y37.6763
G01 X9.6959 Y37.6626
G01 X9.7816 Y37.6582
G01 X9.7964 Y37.6582
G00 Z2.0000
G00 X9.7915 Y37.7581
G01 F60.00
G01 Z-0.0499
G01 F60.00
G01 X9.8723 Y37.7621
G01 X9.9548 Y37.7743
G01 X10.0357 Y37.7946
G01 X10.1143 Y37.8227
G01 X10.1897 Y37.8584
G01 X10.2612 Y37.9013
G01 X10.3282 Y37.9509
G01 X10.3900 Y38.0070
G01 X10.4461 Y38.0688
G01 X10.4957 Y38.1358
G01 X10.5386 Y38.2073
G01 X10.5743 Y38.2827
G01 X10.6024 Y38.3613
G01 X10.6227 Y38.4422
G01 X10.6349 Y38.5247
G01 X10.6390 Y38.6080
G01 X10.6349 Y38.6913
G01 X10.6227 Y38.7738
G01 X10.6024 Y38.8547
G01 X10.5743 Y38.9333
G01 X10.5386 Y39.0087
G01 X10.4957 Y39.0802
G01 X10.4461 Y39.1472
G01 X10.3900 Y39.2090
G01 X10.3282 Y39.2651
G01 X10.2612 Y39.3147
G01 X10.1897 Y39.3576
G01 X10.1143 Y39.3933
G01 X10.0357 Y39.4214
G01 X9.9548 Y39.4417
G01 X9.8723 Y39.4539
G01 X9.7890 Y39.4580
G01 X9.7057 Y39.4539
G01 X9.6232 Y39.4417
G01 X9.5423 Y39.4214
G01 X9.4637 Y39.3933
G01 X9.3883 Y39.3576
G01 X9.3168 Y39.3147
G01 X9.2498 Y39.2651
G01 X9.1880 Y39.2090
G01 X9.1319 Y39.1472
G01 X9.0823 Y39.0802
G01 X9.0394 Y39.0087
G01 X9.0037 Y38.9333
G01 X8.9756 Y38.8547
G01 X8.9553 Y38.7738
G01 X8.9431 Y38.6913
G01 X8.9390 Y38.6080
G01 X8.9431 Y38.5247
G01 X8.9553 Y38.4422
G01 X8.9756 Y38.3613
G01 X9.0037 Y38.2827
G01 X9.0394 Y38.2073
G01 X9.0823 Y38.1358
G01 X9.1319 Y38.0688
G01 X9.1880 Y38.0070
G01 X9.2498 Y37.9509
G01 X9.3168 Y37.9013
G01 X9.3883 Y37.8584
G01 X9.4637 Y37.8227
G01 X9.5423 Y37.7946
G01 X9.6232 Y37.7743
G01 X9.7057 Y37.7621
G01 X9.7915 Y37.7581
G00 Z2.0000
G00 X9.7964 Y40.1982
G01 F60.00
G01 Z-0.0499
